;FLAVOR:Marlin
;TIME:828
;Filament used: 0.989717m
;Layer height: 0.28
;Generated with Cura_SteamEngine 3.6.0
M140 S60
M105
M190 S60
M104 S205
M105
M109 S205
M82 ;absolute extrusion mode
G21 ;metric values
G90 ;absolute positioning
M82 ;set extruder to absolute mode
M107 ;start with the fan off
G28 X0 Y0 ;move X/Y to min endstops
G28 Z0 ;move Z to min endstops
G1 Z15.0 F120 ;move the platform down 15mm
G92 E0 ;zero the extruded length
G1 F200 E3 ;extrude 3mm of feed stock
G92 E0 ;zero the extruded length again
G1 F120
M117 Printing...
G5
G92 E0
G1 F2400 E-6
;LAYER_COUNT:90
;LAYER:0
M106 S255
M204 S3000
M205 X10 Y10
;MESH:taponEjeFilamento.stl
G0 F3600 X94.075 Y106.931 Z0.2
M204 S1800
M205 X8 Y8
;TYPE:WALL-INNER
G1 F2400 E0
G1 X93.905 Y105 E0.09026
G1 X94.075 Y103.069 E0.18053
G1 X94.573 Y101.214 E0.26996
G1 X95.396 Y99.448 E0.36069
G1 X96.501 Y97.868 E0.45046
G1 X97.868 Y96.501 E0.54048
G1 X99.448 Y95.396 E0.63026
G1 X101.214 Y94.573 E0.72099
G1 X103.069 Y94.075 E0.81042
G1 X105 Y93.905 E0.90068
G1 X106.931 Y94.075 E0.99095
G1 X108.786 Y94.573 E1.08038
G1 X110.552 Y95.396 E1.17111
G1 X112.132 Y96.501 E1.26088
G1 X113.499 Y97.868 E1.3509
G1 X114.604 Y99.448 E1.44068
G1 X115.427 Y101.214 E1.53141
G1 X115.925 Y103.069 E1.62084
G1 X116.095 Y105 E1.7111
G1 X115.925 Y106.931 E1.80137
G1 X115.427 Y108.786 E1.8908
G1 X114.604 Y110.552 E1.98153
G1 X113.499 Y112.132 E2.0713
G1 X112.132 Y113.499 E2.16132
G1 X110.552 Y114.604 E2.2511
G1 X108.786 Y115.427 E2.34183
G1 X106.931 Y115.925 E2.43126
G1 X105 Y116.095 E2.52152
G1 X103.069 Y115.925 E2.61179
G1 X101.214 Y115.427 E2.70122
G1 X99.448 Y114.604 E2.79195
G1 X97.868 Y113.499 E2.88172
G1 X96.501 Y112.132 E2.97174
G1 X95.396 Y110.552 E3.06152
G1 X94.573 Y108.786 E3.15225
G1 X94.075 Y106.931 E3.24168
M204 S3000
M205 X10 Y10
G0 F3600 X115.007 Y99.218
G0 X115.093 Y99.169
M204 S1800
M205 X8 Y8
G1 F2400 X115.955 Y101.019 E3.33672
G1 X116.479 Y102.971 E3.43083
G1 X116.657 Y105 E3.52567
G1 X116.479 Y107.029 E3.62051
G1 X115.955 Y108.981 E3.71462
G1 X115.093 Y110.831 E3.80966
G1 X113.93 Y112.493 E3.90411
G1 X112.493 Y113.93 E3.99874
G1 X110.831 Y115.093 E4.0932
G1 X108.981 Y115.955 E4.18824
G1 X107.029 Y116.479 E4.28235
G1 X105 Y116.657 E4.37719
G1 X102.971 Y116.479 E4.47203
G1 X101.019 Y115.955 E4.56614
G1 X99.169 Y115.093 E4.66118
G1 X97.507 Y113.93 E4.75563
G1 X96.07 Y112.493 E4.85026
G1 X94.907 Y110.831 E4.94472
G1 X94.045 Y108.981 E5.03975
G1 X93.521 Y107.029 E5.13386
G1 X93.343 Y105 E5.22871
G1 X93.521 Y102.971 E5.32355
G1 X94.045 Y101.019 E5.41766
G1 X94.907 Y99.169 E5.51269
G1 X96.07 Y97.507 E5.60715
G1 X97.507 Y96.07 E5.70178
G1 X99.169 Y94.907 E5.79623
G1 X101.019 Y94.045 E5.89127
G1 X102.971 Y93.521 E5.98538
G1 X105 Y93.343 E6.08022
G1 X107.029 Y93.521 E6.17506
G1 X108.981 Y94.045 E6.26918
G1 X110.831 Y94.907 E6.36421
G1 X112.493 Y96.07 E6.45867
G1 X113.93 Y97.507 E6.5533
G1 X115.093 Y99.169 E6.64775
M204 S3000
M205 X10 Y10
G0 F3600 X115.007 Y99.218
G0 X110.782 Y94.993
G0 X111.11 Y94.419
M204 S1800
M205 X8 Y8
;TYPE:WALL-OUTER
G1 F2400 X112.854 Y95.639 E6.74686
G1 X114.361 Y97.146 E6.8461
G1 X115.581 Y98.89 E6.9452
G1 X116.483 Y100.824 E7.04457
G1 X117.033 Y102.874 E7.1434
G1 X117.219 Y105 E7.24278
G1 X117.033 Y107.126 E7.34215
G1 X116.483 Y109.176 E7.44098
G1 X115.581 Y111.11 E7.54035
G1 X114.361 Y112.854 E7.63945
G1 X112.854 Y114.361 E7.73869
G1 X111.11 Y115.581 E7.8378
G1 X109.176 Y116.483 E7.93717
G1 X107.126 Y117.033 E8.036
G1 X105 Y117.219 E8.13537
G1 X102.874 Y117.033 E8.23475
G1 X100.824 Y116.483 E8.33358
G1 X98.89 Y115.581 E8.43295
G1 X97.146 Y114.361 E8.53205
G1 X95.639 Y112.854 E8.63129
G1 X94.419 Y111.11 E8.7304
G1 X93.517 Y109.176 E8.82976
G1 X92.967 Y107.126 E8.9286
G1 X92.781 Y105 E9.02797
G1 X92.967 Y102.874 E9.12734
G1 X93.517 Y100.824 E9.22618
G1 X94.419 Y98.89 E9.32554
G1 X95.639 Y97.146 E9.42465
G1 X97.146 Y95.639 E9.52389
G1 X98.89 Y94.419 E9.62299
G1 X100.824 Y93.517 E9.72236
G1 X102.874 Y92.967 E9.8212
G1 X105 Y92.781 E9.92057
G1 X107.126 Y92.967 E10.01994
G1 X109.176 Y93.517 E10.11877
G1 X111.11 Y94.419 E10.21814
M204 S3000
M205 X10 Y10
G0 F3600 X111.273 Y94.533
G0 X110.894 Y95.072
G0 X110.281 Y95.877
M204 S1800
M205 X8 Y8
;TYPE:SKIN
G1 F2400 X111.774 Y96.921 E10.30297
G1 X113.079 Y98.226 E10.38891
G1 X114.123 Y99.719 E10.47374
G1 X114.909 Y101.405 E10.56036
G1 X115.381 Y103.164 E10.64516
G1 X115.543 Y105 E10.73099
G1 X115.381 Y106.836 E10.81681
G1 X114.909 Y108.595 E10.90162
G1 X114.123 Y110.281 E10.98824
G1 X113.079 Y111.774 E11.07307
G1 X111.774 Y113.079 E11.159
G1 X110.281 Y114.123 E11.24383
G1 X108.595 Y114.909 E11.33045
G1 X106.836 Y115.381 E11.41526
G1 X105 Y115.543 E11.50108
G1 X103.164 Y115.381 E11.58691
G1 X101.405 Y114.909 E11.67171
G1 X99.719 Y114.123 E11.75833
G1 X98.226 Y113.079 E11.84316
G1 X96.921 Y111.774 E11.9291
G1 X95.877 Y110.281 E12.01393
G1 X95.091 Y108.595 E12.10055
G1 X94.619 Y106.836 E12.18535
G1 X94.457 Y105 E12.27117
G1 X94.619 Y103.164 E12.357
G1 X95.091 Y101.405 E12.4418
G1 X95.877 Y99.719 E12.52842
G1 X96.921 Y98.226 E12.61325
G1 X98.226 Y96.921 E12.69919
G1 X99.719 Y95.877 E12.78402
G1 X101.405 Y95.091 E12.87064
G1 X103.164 Y94.619 E12.95544
G1 X105 Y94.457 E13.04127
G1 X106.836 Y94.619 E13.12709
G1 X108.595 Y95.091 E13.2119
G1 X110.281 Y95.877 E13.29851
M204 S3000
M205 X10 Y10
G0 F3600 X110.841 Y96.585
M204 S1800
M205 X8 Y8
G1 F2400 X113.414 Y99.158 E13.46795
G1 X113.484 Y99.228
M204 S3000
M205 X10 Y10
G0 F3600 X114.406 Y100.943
M204 S1800
M205 X8 Y8
G1 F2400 X109.057 Y95.593 E13.82022
G1 X108.987 Y95.523
M204 S3000
M205 X10 Y10
G0 F3600 X107.824 Y95.153
M204 S1800
M205 X8 Y8
G1 F2400 X114.846 Y102.174 E14.2826
M204 S3000
M205 X10 Y10
G0 F3600 X115.126 Y103.247
M204 S1800
M205 X8 Y8
G1 F2400 X106.752 Y94.873 E14.83404
M204 S3000
M205 X10 Y10
G0 F3600 X105.883 Y94.796
M204 S1800
M205 X8 Y8
G1 F2400 X115.203 Y104.115 E15.44775
M204 S3000
M205 X10 Y10
G0 F3600 X115.28 Y104.984
M204 S1800
M205 X8 Y8
G1 F2400 X105.014 Y94.719 E16.12375
M204 S3000
M205 X10 Y10
G0 F3600 X104.284 Y94.781
M204 S1800
M205 X8 Y8
G1 F2400 X115.218 Y105.715 E16.84377
M204 S3000
M205 X10 Y10
G0 F3600 X115.154 Y106.442
M204 S1800
M205 X8 Y8
G1 F2400 X103.557 Y94.845 E17.60746
M204 S3000
M205 X10 Y10
G0 F3600 X102.883 Y94.963
M204 S1800
M205 X8 Y8
G1 F2400 X115.036 Y107.116 E18.40775
M204 S3000
M205 X10 Y10
G0 F3600 X114.869 Y107.741
M204 S1800
M205 X8 Y8
G1 F2400 X102.258 Y95.13 E19.23821
M204 S3000
M205 X10 Y10
G0 F3600 X101.633 Y95.298
M204 S1800
M205 X8 Y8
G1 F2400 X114.701 Y108.366 E20.09876
M204 S3000
M205 X10 Y10
G0 F3600 X114.468 Y108.924
M204 S1800
M205 X8 Y8
G1 F2400 X101.075 Y95.531 E20.98071
M204 S3000
M205 X10 Y10
G0 F3600 X100.535 Y95.783
M204 S1800
M205 X8 Y8
G1 F2400 X114.216 Y109.465 E21.88166
M204 S3000
M205 X10 Y10
G0 F3600 X113.964 Y110.004
M204 S1800
M205 X8 Y8
G1 F2400 X99.995 Y96.035 E22.80154
M204 S3000
M205 X10 Y10
G0 F3600 X99.509 Y96.341
M204 S1800
M205 X8 Y8
G1 F2400 X113.658 Y110.491 E23.73331
M204 S3000
M205 X10 Y10
G0 F3600 X113.332 Y110.957
M204 S1800
M205 X8 Y8
G1 F2400 X99.042 Y96.666 E24.67436
M204 S3000
M205 X10 Y10
G0 F3600 X98.576 Y96.992
M204 S1800
M205 X8 Y8
G1 F2400 X113.006 Y111.423 E25.62464
M204 S3000
M205 X10 Y10
G0 F3600 X112.637 Y111.845
M204 S1800
M205 X8 Y8
G1 F2400 X98.152 Y97.36 E26.5785
M204 S3000
M205 X10 Y10
G0 F3600 X97.756 Y97.756
M204 S1800
M205 X8 Y8
G1 F2400 X112.241 Y112.241 E27.53236
M204 S3000
M205 X10 Y10
G0 F3600 X111.845 Y112.637
M204 S1800
M205 X8 Y8
G1 F2400 X97.36 Y98.152 E28.48622
M204 S3000
M205 X10 Y10
G0 F3600 X96.991 Y98.575
M204 S1800
M205 X8 Y8
G1 F2400 X111.422 Y113.006 E29.43653
M204 S3000
M205 X10 Y10
G0 F3600 X110.956 Y113.332
M204 S1800
M205 X8 Y8
G1 F2400 X96.665 Y99.041 E30.37762
M204 S3000
M205 X10 Y10
G0 F3600 X96.34 Y99.508
M204 S1800
M205 X8 Y8
G1 F2400 X110.49 Y113.658 E31.30942
M204 S3000
M205 X10 Y10
G0 F3600 X110.003 Y113.963
M204 S1800
M205 X8 Y8
G1 F2400 X96.035 Y99.994 E32.22927
M204 S3000
M205 X10 Y10
G0 F3600 X95.782 Y100.534
M204 S1800
M205 X8 Y8
G1 F2400 X109.464 Y114.216 E33.13025
M204 S3000
M205 X10 Y10
G0 F3600 X108.924 Y114.467
M204 S1800
M205 X8 Y8
G1 F2400 X95.53 Y101.074 E34.01224
M204 S3000
M205 X10 Y10
G0 F3600 X95.297 Y101.633
M204 S1800
M205 X8 Y8
G1 F2400 X108.365 Y114.701 E34.87279
M204 S3000
M205 X10 Y10
G0 F3600 X107.741 Y114.868
M204 S1800
M205 X8 Y8
G1 F2400 X95.129 Y102.257 E35.70327
M204 S3000
M205 X10 Y10
G0 F3600 X94.963 Y102.882
M204 S1800
M205 X8 Y8
G1 F2400 X107.116 Y115.035 E36.50357
M204 S3000
M205 X10 Y10
G0 F3600 X106.442 Y115.153
M204 S1800
M205 X8 Y8
G1 F2400 X94.844 Y103.556 E37.26729
M204 S3000
M205 X10 Y10
G0 F3600 X94.78 Y104.284
M204 S1800
M205 X8 Y8
G1 F2400 X105.714 Y115.218 E37.98731
M204 S3000
M205 X10 Y10
G0 F3600 X104.984 Y115.279
M204 S1800
M205 X8 Y8
G1 F2400 X94.718 Y105.013 E38.66334
M204 S3000
M205 X10 Y10
G0 F3600 X94.795 Y105.882
M204 S1800
M205 X8 Y8
G1 F2400 X104.115 Y115.202 E39.27708
M204 S3000
M205 X10 Y10
G0 F3600 X103.246 Y115.126
M204 S1800
M205 X8 Y8
G1 F2400 X94.872 Y106.751 E39.82855
M204 S3000
M205 X10 Y10
G0 F3600 X95.152 Y107.823
M204 S1800
M205 X8 Y8
G1 F2400 X102.174 Y114.845 E40.29096
G1 X102.244 Y114.915
M204 S3000
M205 X10 Y10
G0 F3600 X100.942 Y114.405
M204 S1800
M205 X8 Y8
G1 F2400 X95.593 Y109.056 E40.64321
G1 X95.523 Y108.986
M204 S3000
M205 X10 Y10
G0 F3600 X96.585 Y110.84
M204 S1800
M205 X8 Y8
G1 F2400 X99.158 Y113.413 E40.81264
G1 X99.228 Y113.483
M204 S3000
M205 X10 Y10
;MESH:NONMESH
G0 F3600 X116.498 Y105
;TIME_ELAPSED:32.945081
;LAYER:1
M140 S60
;MESH:taponEjeFilamento.stl
G0 F5400 X116.498 Y105 Z0.48
M204 S1800
M205 X8 Y8
;TYPE:WALL-INNER
G1 F3600 X116.323 Y106.995 E40.90589
G1 X115.804 Y108.933 E40.99932
G1 X114.96 Y110.742 E41.09227
G1 X113.805 Y112.392 E41.18605
G1 X112.392 Y113.805 E41.2791
G1 X110.742 Y114.96 E41.37288
G1 X108.933 Y115.804 E41.46584
G1 X106.995 Y116.323 E41.55926
G1 X105 Y116.498 E41.65251
G1 X103.005 Y116.323 E41.74576
G1 X101.067 Y115.804 E41.83918
G1 X99.258 Y114.96 E41.93213
G1 X97.608 Y113.805 E42.02592
G1 X96.195 Y112.392 E42.11897
G1 X95.04 Y110.742 E42.21275
G1 X94.196 Y108.933 E42.3057
G1 X93.677 Y106.995 E42.39912
G1 X93.502 Y105 E42.49238
G1 X93.677 Y103.005 E42.58563
G1 X94.196 Y101.067 E42.67905
G1 X95.04 Y99.258 E42.772
G1 X96.195 Y97.608 E42.86578
G1 X97.608 Y96.195 E42.95883
G1 X99.258 Y95.04 E43.05262
G1 X101.067 Y94.196 E43.14557
G1 X103.005 Y93.677 E43.23899
G1 X105 Y93.502 E43.33224
G1 X106.995 Y93.677 E43.42549
G1 X108.933 Y94.196 E43.51892
G1 X110.742 Y95.04 E43.61187
G1 X112.392 Y96.195 E43.70565
G1 X113.805 Y97.608 E43.7987
G1 X114.96 Y99.258 E43.89248
G1 X115.804 Y101.067 E43.98544
G1 X116.323 Y103.005 E44.07886
G1 X116.498 Y105 E44.17211
M204 S3000
M205 X10 Y10
G0 F5400 X93.912 Y109.036
G0 X93.819 Y109.07
M204 S1800
M205 X8 Y8
G1 F3600 X93.282 Y107.064 E44.26881
G1 X93.101 Y105 E44.36528
G1 X93.282 Y102.936 E44.46176
G1 X93.819 Y100.93 E44.55846
G1 X94.694 Y99.055 E44.6548
G1 X95.888 Y97.349 E44.75177
G1 X97.349 Y95.888 E44.84798
G1 X99.055 Y94.694 E44.94494
G1 X100.93 Y93.819 E45.04128
G1 X102.936 Y93.282 E45.13798
G1 X105 Y93.101 E45.23446
G1 X107.064 Y93.282 E45.33094
G1 X109.07 Y93.819 E45.42763
G1 X110.945 Y94.694 E45.52398
G1 X112.651 Y95.888 E45.62094
G1 X114.112 Y97.349 E45.71715
G1 X115.306 Y99.055 E45.81411
G1 X116.181 Y100.93 E45.91046
G1 X116.718 Y102.936 E46.00716
G1 X116.899 Y105 E46.10363
G1 X116.718 Y107.064 E46.20011
G1 X116.181 Y109.07 E46.29681
G1 X115.306 Y110.945 E46.39315
G1 X114.112 Y112.651 E46.49011
G1 X112.651 Y114.112 E46.58632
G1 X110.945 Y115.306 E46.68329
G1 X109.07 Y116.181 E46.77963
G1 X107.064 Y116.718 E46.87633
G1 X105 Y116.899 E46.97281
G1 X102.936 Y116.718 E47.06928
G1 X100.93 Y116.181 E47.16598
G1 X99.055 Y115.306 E47.26233
G1 X97.349 Y114.112 E47.35929
G1 X95.888 Y112.651 E47.4555
G1 X94.694 Y110.945 E47.55246
G1 X93.819 Y109.07 E47.64881
M204 S3000
M205 X10 Y10
G0 F5400 X93.912 Y109.036
G0 X93.201 Y105
G0 X92.7 Y105
M204 S1800
M205 X8 Y8
;TYPE:WALL-OUTER
G1 F3600 X92.887 Y102.865 E47.7486
G1 X93.442 Y100.794 E47.84844
G1 X94.348 Y98.852 E47.94822
G1 X95.581 Y97.09 E48.04836
G1 X97.09 Y95.581 E48.14773
G1 X98.852 Y94.348 E48.24787
G1 X100.794 Y93.442 E48.34766
G1 X102.865 Y92.887 E48.44749
G1 X105 Y92.7 E48.54729
G1 X107.135 Y92.887 E48.64708
G1 X109.206 Y93.442 E48.74692
G1 X111.148 Y94.348 E48.84671
G1 X112.91 Y95.581 E48.94685
G1 X114.419 Y97.09 E49.04622
G1 X115.652 Y98.852 E49.14636
G1 X116.558 Y100.794 E49.24614
G1 X117.113 Y102.865 E49.34598
G1 X117.3 Y105 E49.44577
G1 X117.113 Y107.135 E49.54557
G1 X116.558 Y109.206 E49.6454
G1 X115.652 Y111.148 E49.74519
G1 X114.419 Y112.91 E49.84533
G1 X112.91 Y114.419 E49.9447
G1 X111.148 Y115.652 E50.04484
G1 X109.206 Y116.558 E50.14462
G1 X107.135 Y117.113 E50.24446
G1 X105 Y117.3 E50.34425
G1 X102.865 Y117.113 E50.44405
G1 X100.794 Y116.558 E50.54389
G1 X98.852 Y115.652 E50.64367
G1 X97.09 Y114.419 E50.74381
G1 X95.581 Y112.91 E50.84318
G1 X94.348 Y111.148 E50.94332
G1 X93.442 Y109.206 E51.0431
G1 X92.887 Y107.135 E51.14294
G1 X92.7 Y105 E51.24274
M204 S3000
M205 X10 Y10
G0 F5400 X92.717 Y104.801
G0 X93.892 Y105
M204 S1800
M205 X8 Y8
;TYPE:SKIN
G1 F2160 X94.061 Y103.078 E51.33258
G1 X94.565 Y101.197 E51.42326
G1 X95.376 Y99.458 E51.5126
G1 X96.501 Y97.852 E51.60391
G1 X97.852 Y96.501 E51.69287
G1 X99.458 Y95.376 E51.78418
G1 X101.197 Y94.565 E51.87353
G1 X103.078 Y94.061 E51.9642
G1 X105 Y93.892 E52.05404
G1 X106.922 Y94.061 E52.14389
G1 X108.803 Y94.565 E52.23456
G1 X110.542 Y95.376 E52.32391
G1 X112.148 Y96.501 E52.41522
G1 X113.499 Y97.852 E52.50418
G1 X114.624 Y99.458 E52.59549
G1 X115.435 Y101.197 E52.68483
G1 X115.939 Y103.078 E52.77551
G1 X116.108 Y105 E52.86535
G1 X115.939 Y106.922 E52.95519
G1 X115.435 Y108.803 E53.04587
G1 X114.624 Y110.542 E53.13522
G1 X113.499 Y112.148 E53.22652
G1 X112.148 Y113.499 E53.31549
G1 X110.542 Y114.624 E53.40679
G1 X108.803 Y115.435 E53.49614
G1 X106.922 Y115.939 E53.58682
G1 X105 Y116.108 E53.67666
G1 X103.078 Y115.939 E53.7665
G1 X101.197 Y115.435 E53.85718
G1 X99.458 Y114.624 E53.94653
G1 X97.852 Y113.499 E54.03783
G1 X96.501 Y112.148 E54.1268
G1 X95.376 Y110.542 E54.2181
G1 X94.565 Y108.803 E54.30745
G1 X94.061 Y106.922 E54.39813
G1 X93.892 Y105 E54.48797
M204 S3000
M205 X10 Y10
G0 F5400 X95.461 Y99.699
M204 S1800
M205 X8 Y8
G1 F2160 X99.7 Y95.46 E54.76711
G1 X99.77 Y95.39
M204 S3000
M205 X10 Y10
G0 F5400 X100.762 Y94.965
M204 S1800
M205 X8 Y8
G1 F2160 X94.965 Y100.761 E55.14882
G1 X94.895 Y100.831
M204 S3000
M205 X10 Y10
G0 F5400 X94.624 Y101.668
M204 S1800
M205 X8 Y8
G1 F2160 X101.669 Y94.623 E55.61275
G1 X101.739 Y94.553
M204 S3000
M205 X10 Y10
G0 F5400 X102.442 Y94.416
M204 S1800
M205 X8 Y8
G1 F2160 X94.417 Y102.441 E56.14121
M204 S3000
M205 X10 Y10
G0 F5400 X94.231 Y103.193
M204 S1800
M205 X8 Y8
G1 F2160 X103.193 Y94.23 E56.7314
M204 S3000
M205 X10 Y10
G0 F5400 X103.813 Y94.176
M204 S1800
M205 X8 Y8
G1 F2160 X94.176 Y103.813 E57.36602
M204 S3000
M205 X10 Y10
G0 F5400 X94.122 Y104.432
M204 S1800
M205 X8 Y8
G1 F2160 X104.433 Y94.122 E58.04498
M204 S3000
M205 X10 Y10
G0 F5400 X105.044 Y94.076
M204 S1800
M205 X8 Y8
G1 F2160 X94.077 Y105.044 E58.76721
M204 S3000
M205 X10 Y10
G0 F5400 X94.122 Y105.564
M204 S1800
M205 X8 Y8
G1 F2160 X105.565 Y94.121 E59.52075
M204 S3000
M205 X10 Y10
G0 F5400 X106.085 Y94.166
M204 S1800
M205 X8 Y8
G1 F2160 X94.167 Y106.085 E60.3056
M204 S3000
M205 X10 Y10
G0 F5400 X94.213 Y106.604
M204 S1800
M205 X8 Y8
G1 F2160 X106.605 Y94.212 E61.12164
M204 S3000
M205 X10 Y10
G0 F5400 X107.092 Y94.291
M204 S1800
M205 X8 Y8
G1 F2160 X94.291 Y107.092 E61.96461
M204 S3000
M205 X10 Y10
G0 F5400 X94.412 Y107.537
M204 S1800
M205 X8 Y8
G1 F2160 X107.538 Y94.411 E62.82898
M204 S3000
M205 X10 Y10
G0 F5400 X107.984 Y94.53
M204 S1800
M205 X8 Y8
G1 F2160 X94.531 Y107.983 E63.71488
M204 S3000
M205 X10 Y10
G0 F5400 X94.651 Y108.429
M204 S1800
M205 X8 Y8
G1 F2160 X108.43 Y94.65 E64.62225
M204 S3000
M205 X10 Y10
G0 F5400 X108.858 Y94.788
M204 S1800
M205 X8 Y8
G1 F2160 X94.789 Y108.857 E65.54872
M204 S3000
M205 X10 Y10
G0 F5400 X94.969 Y109.243
M204 S1800
M205 X8 Y8
