;FLAVOR:RepRap
;TIME:3446
;Filament used: 5.80962m
;Layer height: 0.28
;Generated with Cura_SteamEngine 3.1.0
T0
M190 S60
M104 S200
M109 S200
M82 ; absolute extrusion mode
G21 ;metric values
G90 ;absolute positioning
M82 ;set extruder to absolute mode
M107 ;start with the fan off
G28 X0 Y0 ;move X/Y to min endstops
G28 Z0 ;move Z to min endstops
G1 Z15.0 F9000 ;move the platform down 15mm
G92 E0 ;zero the extruded length
G1 F200 E3 ;extrude 3mm of feed stock
G92 E0 ;zero the extruded length again
G1 F9000
M117 Printing...
G5
M83 ; relative extrusion mode
;LAYER_COUNT:37
;LAYER:0
M107
G0 F3600 X80.534 Y40.784 Z0.2
;TYPE:WALL-INNER
G1 F2400 X80.188 Y40.815 E0.01155
G1 X79.845 Y40.875 E0.01158
G1 X79.504 Y40.965 E0.01173
G1 X79.178 Y41.085 E0.01155
G1 X78.864 Y41.232 E0.01153
G1 X78.56 Y41.406 E0.01165
G1 X78.273 Y41.606 E0.01163
G1 X78.006 Y41.831 E0.01161
G1 X77.76 Y42.077 E0.01157
G1 X77.534 Y42.345 E0.01166
G1 X77.334 Y42.633 E0.01166
G1 X77.161 Y42.934 E0.01155
G1 X77.013 Y43.248 E0.01155
G1 X76.893 Y43.58 E0.01174
G1 X76.804 Y43.917 E0.01159
G1 X76.743 Y44.258 E0.01152
G1 X76.712 Y44.605 E0.01159
G1 X76.712 Y44.957 E0.01171
G1 X76.743 Y45.305 E0.01162
G1 X76.804 Y45.646 E0.01152
G1 X76.893 Y45.983 E0.01159
G1 X77.013 Y46.314 E0.01171
G1 X77.161 Y46.628 E0.01155
G1 X77.334 Y46.929 E0.01155
G1 X77.534 Y47.217 E0.01166
G1 X77.76 Y47.485 E0.01166
G1 X78.006 Y47.731 E0.01157
G1 X78.273 Y47.956 E0.01161
G1 X78.56 Y48.156 E0.01163
G1 X78.861 Y48.329 E0.01155
G1 X79.179 Y48.478 E0.01168
G1 X79.507 Y48.597 E0.01161
G1 X79.841 Y48.687 E0.01151
G1 X80.188 Y48.749 E0.01172
G1 X80.539 Y48.778 E0.01171
G1 X80.88 Y48.778 E0.01134
G1 X81.231 Y48.749 E0.01171
G1 X81.578 Y48.687 E0.01172
G1 X81.912 Y48.597 E0.01151
G1 X82.241 Y48.478 E0.01164
G1 X82.558 Y48.329 E0.01165
G1 X82.859 Y48.156 E0.01155
G1 X83.146 Y47.956 E0.01163
G1 X83.413 Y47.731 E0.01161
G1 X83.659 Y47.484 E0.01159
G1 X83.883 Y47.217 E0.01159
G1 X84.085 Y46.931 E0.01165
G1 X84.259 Y46.626 E0.01168
G1 X84.406 Y46.312 E0.01153
G1 X84.526 Y45.983 E0.01165
G1 X84.615 Y45.646 E0.01159
G1 X84.676 Y45.305 E0.01152
G1 X84.707 Y44.957 E0.01162
G1 X84.707 Y44.605 E0.01171
G1 X84.676 Y44.258 E0.01159
G1 X84.615 Y43.917 E0.01152
G1 X84.526 Y43.579 E0.01163
G1 X84.406 Y43.25 E0.01165
G1 X84.259 Y42.936 E0.01153
G1 X84.085 Y42.631 E0.01168
G1 X83.883 Y42.345 E0.01165
G1 X83.659 Y42.078 E0.01159
G1 X83.413 Y41.831 E0.01159
G1 X83.146 Y41.606 E0.01161
G1 X82.859 Y41.406 E0.01163
G1 X82.557 Y41.232 E0.01159
G1 X82.241 Y41.085 E0.01159
G1 X81.912 Y40.965 E0.01165
G1 X81.574 Y40.875 E0.01163
G1 X81.231 Y40.815 E0.01158
G1 X80.885 Y40.784 E0.01155
G1 X80.534 Y40.784 E0.01167
G0 F3600 X110.053 Y35.321
G1 F2400 X112.063 Y35.112 E0.06721
G1 X110.092 Y35.691 E0.03222
G1 X109.97 Y35.731 E0.00427
G1 X108.076 Y36.356 E0.06634
G1 X106.12 Y37.059 E0.06913
G1 X103.653 Y38.032 E0.0882
G1 X101.287 Y39.056 E0.08575
G1 X99.09 Y40.087 E0.08072
G1 X97.214 Y41.037 E0.06994
G1 X95.199 Y42.134 E0.07631
G1 X93.204 Y43.309 E0.07701
G1 X91.344 Y44.484 E0.07317
G1 X89.503 Y45.722 E0.07379
G1 X87.656 Y47.043 E0.07553
G1 X85.954 Y48.34 E0.07117
G1 X84.358 Y49.633 E0.06832
G1 X82.851 Y50.936 E0.06626
G1 X81.541 Y52.128 E0.05891
G1 X80.119 Y53.506 E0.06586
G1 X78.739 Y54.935 E0.06607
G1 X77.533 Y56.257 E0.05952
G1 X76.238 Y57.767 E0.06616
G1 X75.04 Y59.254 E0.06351
G1 X73.924 Y60.737 E0.06173
G1 X72.975 Y62.071 E0.05445
G1 X71.957 Y63.603 E0.06118
G1 X70.959 Y65.211 E0.06295
G1 X69.987 Y66.909 E0.06507
G1 X69.123 Y68.527 E0.06101
G1 X68.19 Y70.415 E0.07004
G1 X67.264 Y72.462 E0.07473
G1 X66.388 Y74.578 E0.07617
G1 X65.679 Y76.447 E0.06649
G1 X64.971 Y78.492 E0.07198
G1 X64.324 Y80.564 E0.0722
G1 X63.729 Y82.707 E0.07397
G1 X63.233 Y84.732 E0.06934
G1 X62.725 Y87.129 E0.0815
G1 X62.303 Y89.487 E0.07967
G1 X61.951 Y91.834 E0.07893
G1 X61.559 Y95.022 E0.10683
G1 X61.165 Y99.176 E0.13878
G1 X60.827 Y104.131 E0.16519
G1 X60.701 Y106.994 E0.09532
G1 X60.683 Y110 E0.09998
G1 X60.701 Y113.006 E0.09998
G1 X60.827 Y115.869 E0.09532
G1 X61.165 Y120.824 E0.16519
G1 X61.559 Y124.978 E0.13878
G1 X61.951 Y128.166 E0.10683
G1 X62.34 Y130.748 E0.08685
G1 X62.725 Y132.872 E0.0718
G1 X63.233 Y135.268 E0.08146
G1 X63.785 Y137.508 E0.07673
G1 X64.384 Y139.638 E0.07359
G1 X65.036 Y141.706 E0.07212
G1 X65.679 Y143.555 E0.06511
G1 X66.466 Y145.62 E0.0735
G1 X67.354 Y147.741 E0.07648
G1 X68.273 Y149.753 E0.07357
G1 X69.216 Y151.647 E0.07037
G1 X70.081 Y153.265 E0.06102
G1 X71.058 Y154.951 E0.06481
G1 X72.055 Y156.549 E0.06265
G1 X73.076 Y158.072 E0.06098
G1 X74.027 Y159.405 E0.05446
G1 X75.153 Y160.888 E0.06193
G1 X76.36 Y162.378 E0.06378
G1 X77.535 Y163.743 E0.0599
G1 X78.868 Y165.202 E0.06573
G1 X80.256 Y166.631 E0.06626
G1 X81.679 Y168.001 E0.0657
G1 X83.134 Y169.314 E0.06518
G1 X84.505 Y170.49 E0.06008
G1 X86.112 Y171.783 E0.0686
G1 X87.83 Y173.081 E0.07162
G1 X89.503 Y174.278 E0.06842
G1 X91.536 Y175.644 E0.08146
G1 X93.381 Y176.798 E0.07238
G1 X95.2 Y177.866 E0.07016
G1 X97.214 Y178.963 E0.07628
G1 X99.291 Y180.012 E0.07739
G1 X101.504 Y181.041 E0.08117
G1 X103.889 Y182.064 E0.08631
G1 X106.33 Y183.019 E0.08718
G1 X108.285 Y183.719 E0.06907
G1 X109.966 Y184.265 E0.05879
G1 X110.28 Y184.367 E0.01098
G1 X112.039 Y184.882 E0.06096
G1 X110.246 Y184.696 E0.02458
G1 X109.917 Y184.662 E0.01004
G1 X105.595 Y184.212 E0.14453
G1 X99.635 Y183.58 E0.19934
G1 X92.174 Y182.663 E0.25002
G1 X88.448 Y182.116 E0.12526
G1 X84.775 Y181.494 E0.1239
G1 X81.089 Y180.771 E0.12493
G1 X77.444 Y179.941 E0.12434
G1 X75.654 Y179.481 E0.06147
G1 X73.839 Y178.971 E0.06271
G1 X72.053 Y178.419 E0.06218
G1 X70.314 Y177.823 E0.06114
G1 X68.54 Y177.148 E0.06313
G1 X66.96 Y176.485 E0.05699
G1 X64.976 Y175.566 E0.07272
G1 X63.434 Y174.785 E0.05749
G1 X61.824 Y173.899 E0.06112
G1 X60.194 Y172.927 E0.06312
G1 X58.799 Y172.028 E0.0552
G1 X57.132 Y170.863 E0.06764
G1 X55.62 Y169.706 E0.06332
G1 X54.908 Y169.123 E0.03061
G1 X54.192 Y168.509 E0.03137
G1 X53.501 Y167.888 E0.0309
G1 X52.719 Y167.147 E0.03583
G1 X51.48 Y165.906 E0.05833
G1 X50.339 Y164.666 E0.05605
G1 X48.992 Y163.088 E0.06901
G1 X47.832 Y161.625 E0.0621
G1 X46.734 Y160.13 E0.06169
G1 X45.686 Y158.592 E0.0619
G1 X44.681 Y156.999 E0.06265
G1 X43.724 Y155.355 E0.06327
G1 X42.833 Y153.708 E0.06228
G1 X42.061 Y152.184 E0.05682
G1 X41.186 Y150.339 E0.06792
G1 X40.415 Y148.595 E0.06342
G1 X39.714 Y146.876 E0.06175
G1 X39.054 Y145.104 E0.06289
G1 X38.465 Y143.351 E0.06151
G1 X37.949 Y141.657 E0.0589
G1 X37.412 Y139.75 E0.06589
G1 X36.49 Y136.114 E0.12476
G1 X35.68 Y132.476 E0.12396
G1 X35.322 Y130.624 E0.06274
G1 X35.008 Y128.778 E0.06228
G1 X34.536 Y125.315 E0.11624
G1 X34.118 Y121.288 E0.13466
G1 X33.85 Y117.549 E0.12468
G1 X33.692 Y113.757 E0.12623
G1 X33.636 Y110.015 E0.12447
G1 X33.693 Y106.244 E0.12544
G1 X33.85 Y102.446 E0.12643
G1 X34.119 Y98.712 E0.12452
G1 X34.506 Y94.928 E0.12651
G1 X35.008 Y91.222 E0.12439
G1 X35.322 Y89.376 E0.06228
G1 X35.68 Y87.524 E0.06274
G1 X36.49 Y83.886 E0.12396
G1 X37.412 Y80.25 E0.12476
G1 X37.918 Y78.446 E0.06232
G1 X38.457 Y76.671 E0.0617
G1 X39.054 Y74.896 E0.06229
G1 X39.714 Y73.124 E0.06289
G1 X40.415 Y71.405 E0.06175
G1 X41.187 Y69.66 E0.06347
G1 X42.063 Y67.819 E0.06781
G1 X42.833 Y66.292 E0.05688
G1 X43.658 Y64.765 E0.05773
G1 X44.661 Y63.033 E0.06657
G1 X45.687 Y61.409 E0.06389
G1 X46.719 Y59.895 E0.06094
G1 X47.843 Y58.363 E0.0632
G1 X49.04 Y56.853 E0.06409
G1 X50.237 Y55.446 E0.06144
G1 X51.501 Y54.071 E0.06212
G1 X52.874 Y52.702 E0.06449
G1 X53.5 Y52.113 E0.02859
G1 X54.192 Y51.491 E0.03095
G1 X54.908 Y50.877 E0.03137
G1 X55.625 Y50.29 E0.03082
G1 X57.214 Y49.078 E0.06647
G1 X58.636 Y48.079 E0.0578
G1 X60.194 Y47.073 E0.06168
G1 X61.824 Y46.101 E0.06312
G1 X63.429 Y45.218 E0.06093
G1 X64.958 Y44.441 E0.05704
G1 X66.821 Y43.575 E0.06833
G1 X68.551 Y42.847 E0.06243
G1 X70.314 Y42.177 E0.06273
G1 X72.053 Y41.581 E0.06114
G1 X73.841 Y41.029 E0.06224
G1 X75.569 Y40.542 E0.05971
G1 X77.444 Y40.059 E0.0644
G1 X81.089 Y39.229 E0.12434
G1 X84.775 Y38.505 E0.12494
G1 X88.448 Y37.884 E0.1239
G1 X92.174 Y37.337 E0.12526
G1 X99.637 Y36.42 E0.25009
G1 X107.152 Y35.622 E0.25136
G1 X109.925 Y35.334 E0.09273
G1 X110.053 Y35.321 E0.00413
G1 F1500 E-6.5
G0 F3600 X119.697 Y33.917
G0 X119.873 Y35.169
G0 X129.587 Y34.157
G0 X129.591 Y32.891
G0 X129.589 Y32.89
G0 X136.589 Y32.191
G0 X137.131 Y31.848
G1 F1500 E6.5
G1 F2400 X137.13 Y31.849 E0.00005
G1 X136.93 Y31.872 E0.0067
G1 X136.91 Y31.671 E0.00432
G1 X136.766 Y30.287 E0.04628
G1 X157.375 Y28.145 E0.68915
G1 X158.948 Y28.256 E0.05245
G1 X186.58 Y25.388 E0.92398
G1 X186.799 Y25.366 E0.00732
G1 X186.799 Y25.586 E0.00461
G1 X186.799 Y25.587 E0.00003
G1 X186.799 Y25.922 E0.01114
G1 X137.131 Y31.848 E1.66368
G1 F1500 E-6.5
G0 F3600 X136.589 Y32.191
G0 X129.589 Y32.89
G0 X129.591 Y32.891
G0 X129.587 Y34.157
G0 X70.608 Y69.279
G0 X69.462 Y68.701
G0 X46.228 Y84.034
G1 F1500 E6.5
G1 F2400 X45.88 Y84.065 E0.01162
G1 X45.54 Y84.125 E0.01148
G1 X45.202 Y84.215 E0.01163
G1 X44.873 Y84.335 E0.01165
G1 X44.559 Y84.482 E0.01153
G1 X44.254 Y84.656 E0.01168
G1 X43.968 Y84.857 E0.01163
G1 X43.701 Y85.081 E0.01159
G1 X43.454 Y85.328 E0.01162
G1 X43.23 Y85.595 E0.01159
G1 X43.029 Y85.881 E0.01163
G1 X42.856 Y86.183 E0.01158
G1 X42.707 Y86.5 E0.01165
G1 X42.588 Y86.829 E0.01164
G1 X42.498 Y87.163 E0.01151
G1 X42.436 Y87.51 E0.01172
G1 X42.407 Y87.858 E0.01161
G1 X42.407 Y88.202 E0.01144
G1 X42.436 Y88.553 E0.01171
G1 X42.498 Y88.901 E0.01176
G1 X42.588 Y89.234 E0.01147
G1 X42.707 Y89.561 E0.01157
G1 X42.856 Y89.88 E0.01171
G1 X43.029 Y90.181 E0.01155
G1 X43.229 Y90.468 E0.01163
G1 X43.454 Y90.735 E0.01161
G1 X43.702 Y90.981 E0.01162
G1 X43.968 Y91.205 E0.01157
G1 X44.254 Y91.406 E0.01163
G1 X44.556 Y91.579 E0.01158
G1 X44.873 Y91.728 E0.01165
G1 X45.202 Y91.847 E0.01164
G1 X45.535 Y91.937 E0.01147
G1 X45.882 Y91.999 E0.01172
G1 X46.233 Y92.028 E0.01171
G1 X46.577 Y92.028 E0.01144
G1 X46.925 Y91.999 E0.01161
G1 X47.272 Y91.937 E0.01172
G1 X47.606 Y91.847 E0.01151
G1 X47.935 Y91.728 E0.01164
G1 X48.252 Y91.579 E0.01165
G1 X48.554 Y91.406 E0.01158
G1 X48.84 Y91.205 E0.01163
G1 X49.106 Y90.981 E0.01157
G1 X49.354 Y90.735 E0.01162
G1 X49.579 Y90.468 E0.01161
G1 X49.779 Y90.181 E0.01163
G1 X49.955 Y89.877 E0.01168
G1 X50.1 Y89.561 E0.01156
G1 X50.22 Y89.236 E0.01152
G1 X50.31 Y88.896 E0.0117
G1 X50.37 Y88.553 E0.01158
G1 X50.401 Y88.207 E0.01155
G1 X50.401 Y87.855 E0.01171
G1 X50.37 Y87.51 E0.01152
G1 X50.31 Y87.167 E0.01158
G1 X50.22 Y86.829 E0.01163
G1 X50.1 Y86.5 E0.01165
G1 X49.953 Y86.186 E0.01153
G1 X49.779 Y85.881 E0.01168
G1 X49.578 Y85.595 E0.01163
G1 X49.354 Y85.328 E0.01159
G1 X49.107 Y85.081 E0.01162
G1 X48.84 Y84.857 E0.01159
G1 X48.554 Y84.656 E0.01163
G1 X48.249 Y84.482 E0.01168
G1 X47.935 Y84.335 E0.01153
G1 X47.606 Y84.215 E0.01165
G1 X47.268 Y84.125 E0.01163
G1 X46.925 Y84.065 E0.01158
G1 X46.58 Y84.034 E0.01152
G1 X46.228 Y84.034 E0.01171
G0 F3600 X44.448 Y84.961
G0 X43.72 Y85.572
G0 X43.176 Y86.35
G0 X42.85 Y87.242
G0 X42.785 Y88.007
G0 X46.233 Y127.972
G1 F2400 X45.882 Y128.001 E0.01171
G1 X45.535 Y128.063 E0.01172
G1 X45.202 Y128.153 E0.01147
G1 X44.873 Y128.272 E0.01164
G1 X44.556 Y128.421 E0.01165
G1 X44.254 Y128.594 E0.01158
G1 X43.968 Y128.795 E0.01163
G1 X43.702 Y129.019 E0.01157
G1 X43.454 Y129.265 E0.01162
G1 X43.229 Y129.532 E0.01161
G1 X43.029 Y129.819 E0.01163
G1 X42.856 Y130.12 E0.01155
G1 X42.707 Y130.439 E0.01171
G1 X42.588 Y130.766 E0.01157
G1 X42.498 Y131.099 E0.01147
G1 X42.436 Y131.447 E0.01176
G1 X42.407 Y131.798 E0.01171
G1 X42.407 Y132.142 E0.01144
G1 X42.436 Y132.49 E0.01161
G1 X42.498 Y132.837 E0.01172
G1 X42.588 Y133.171 E0.01151
G1 X42.707 Y133.5 E0.01164
G1 X42.856 Y133.817 E0.01165
G1 X43.029 Y134.119 E0.01158
G1 X43.23 Y134.405 E0.01163
G1 X43.454 Y134.672 E0.01159
G1 X43.701 Y134.919 E0.01162
G1 X43.968 Y135.143 E0.01159
G1 X44.254 Y135.344 E0.01163
G1 X44.559 Y135.518 E0.01168
G1 X44.873 Y135.665 E0.01153
G1 X45.202 Y135.785 E0.01165
G1 X45.54 Y135.875 E0.01163
G1 X45.88 Y135.935 E0.01148
G1 X46.228 Y135.966 E0.01162
G1 X46.58 Y135.966 E0.01171
G1 X46.925 Y135.935 E0.01152
G1 X47.268 Y135.875 E0.01158
G1 X47.606 Y135.785 E0.01163
G1 X47.935 Y135.665 E0.01165
G1 X48.249 Y135.518 E0.01153
G1 X48.554 Y135.344 E0.01168
G1 X48.84 Y135.143 E0.01163
G1 X49.107 Y134.919 E0.01159
G1 X49.354 Y134.672 E0.01162
G1 X49.578 Y134.405 E0.01159
G1 X49.779 Y134.119 E0.01163
G1 X49.953 Y133.814 E0.01168
G1 X50.1 Y133.5 E0.01153
G1 X50.22 Y133.171 E0.01165
G1 X50.31 Y132.833 E0.01163
G1 X50.37 Y132.49 E0.01158
G1 X50.401 Y132.145 E0.01152
G1 X50.401 Y131.793 E0.01171
G1 X50.37 Y131.447 E0.01155
G1 X50.31 Y131.104 E0.01158
G1 X50.22 Y130.764 E0.0117
G1 X50.1 Y130.439 E0.01152
G1 X49.955 Y130.123 E0.01156
G1 X49.779 Y129.819 E0.01168
G1 X49.579 Y129.532 E0.01163
G1 X49.354 Y129.265 E0.01161
G1 X49.106 Y129.019 E0.01162
G1 X48.84 Y128.795 E0.01157
G1 X48.554 Y128.594 E0.01163
G1 X48.252 Y128.421 E0.01158
G1 X47.935 Y128.272 E0.01165
G1 X47.606 Y128.153 E0.01164
G1 X47.272 Y128.063 E0.01151
G1 X46.925 Y128.001 E0.01172
G1 X46.577 Y127.972 E0.01161
G1 X46.233 Y127.972 E0.01144
G0 F3600 X48.085 Y128.741
G0 X48.863 Y129.285
G0 X49.208 Y129.697
G0 X80.539 Y171.222
G1 F2400 X80.188 Y171.251 E0.01171
G1 X79.841 Y171.313 E0.01172
G1 X79.507 Y171.403 E0.01151
G1 X79.179 Y171.522 E0.01161
G1 X78.861 Y171.671 E0.01168
G1 X78.56 Y171.844 E0.01155
G1 X78.273 Y172.044 E0.01163
G1 X78.006 Y172.269 E0.01161
G1 X77.76 Y172.515 E0.01157
G1 X77.534 Y172.783 E0.01166
G1 X77.334 Y173.071 E0.01166
G1 X77.161 Y173.372 E0.01155
G1 X77.013 Y173.686 E0.01155
G1 X76.893 Y174.017 E0.01171
G1 X76.804 Y174.354 E0.01159
G1 X76.743 Y174.695 E0.01152
G1 X76.712 Y175.043 E0.01162
G1 X76.712 Y175.395 E0.01171
G1 X76.743 Y175.742 E0.01159
G1 X76.804 Y176.083 E0.01152
G1 X76.893 Y176.42 E0.01159
G1 X77.013 Y176.752 E0.01174
G1 X77.161 Y177.066 E0.01155
G1 X77.334 Y177.367 E0.01155
G1 X77.534 Y177.655 E0.01166
G1 X77.76 Y177.923 E0.01166
G1 X78.006 Y178.169 E0.01157
G1 X78.273 Y178.394 E0.01161
G1 X78.56 Y178.594 E0.01163
G1 X78.864 Y178.768 E0.01165
G1 X79.178 Y178.915 E0.01153
G1 X79.504 Y179.035 E0.01155
G1 X79.845 Y179.125 E0.01173
G1 X80.188 Y179.185 E0.01158
G1 X80.534 Y179.216 E0.01155
G1 X80.885 Y179.216 E0.01167
G1 X81.231 Y179.185 E0.01155
G1 X81.574 Y179.125 E0.01158
G1 X81.912 Y179.035 E0.01163
G1 X82.241 Y178.915 E0.01165
G1 X82.557 Y178.768 E0.01159
G1 X82.859 Y178.594 E0.01159
G1 X83.146 Y178.394 E0.01163
G1 X83.413 Y178.169 E0.01161
G1 X83.659 Y177.922 E0.01159
G1 X83.883 Y177.655 E0.01159
G1 X84.085 Y177.369 E0.01165
G1 X84.259 Y177.064 E0.01168
G1 X84.406 Y176.75 E0.01153
G1 X84.526 Y176.421 E0.01165
G1 X84.615 Y176.083 E0.01163
G1 X84.676 Y175.742 E0.01152
G1 X84.707 Y175.395 E0.01159
G1 X84.707 Y175.043 E0.01171
G1 X84.676 Y174.695 E0.01162
G1 X84.615 Y174.354 E0.01152
G1 X84.526 Y174.017 E0.01159
G1 X84.406 Y173.688 E0.01165
G1 X84.259 Y173.374 E0.01153
G1 X84.085 Y173.069 E0.01168
G1 X83.883 Y172.783 E0.01165
G1 X83.659 Y172.516 E0.01159
G1 X83.413 Y172.269 E0.01159
G1 X83.146 Y172.044 E0.01161
G1 X82.859 Y171.844 E0.01163
G1 X82.558 Y171.671 E0.01155
G1 X82.241 Y171.522 E0.01165
G1 X81.912 Y171.403 E0.01164
G1 X81.578 Y171.313 E0.01151
G1 X81.231 Y171.251 E0.01172
G1 X80.88 Y171.222 E0.01171
G1 X80.539 Y171.222 E0.01134
G1 F1500 E-6.5
G0 F3600 X89.72 Y173.965
G0 X90.443 Y172.905
G0 X132.641 Y185.941
G0 X132.515 Y187.218
G0 X186.797 Y194.408
G1 F1500 E6.5
G1 F2400 X186.797 Y194.409 E0.00003
G1 X186.797 Y194.629 E0.00732
G1 X186.578 Y194.607 E0.00461
G1 X158.947 Y191.743 E0.92393
G1 X157.381 Y191.854 E0.05222
G1 X136.963 Y189.733 E0.68276
G1 X136.765 Y189.713 E0.00662
G1 X136.785 Y189.515 E0.00428
G1 X136.909 Y188.328 E0.03969
G1 X136.93 Y188.128 E0.00669
G1 X137.13 Y188.151 E0.00432
G1 X186.798 Y194.077 E1.66368
G1 X186.797 Y194.408 E0.01101
G0 F3600 X136.636 Y187.771
G0 X136.559 Y187.834
G1 F2400 X136.435 Y187.822 E0.00414
G1 X132.495 Y187.412 E0.13175
G1 X131.93 Y187.353 E0.01889
G1 X131.383 Y187.296 E0.01829
G1 X130.817 Y187.238 E0.01892
G1 X129.577 Y187.108 E0.04147
G1 X130.831 Y187.102 E0.00724
G1 X131.402 Y187.111 E0.0078
