;FLAVOR:Marlin
;TIME:3489
;Filament used: 5.99474m
;Layer height: 0.28
;Generated with Cura_SteamEngine 3.6.0
M140 S60
M105
M190 S60
M104 S205
M105
M109 S205
M82 ;absolute extrusion mode
G21 ;metric values
G90 ;absolute positioning
M82 ;set extruder to absolute mode
M107 ;start with the fan off
G28 X0 Y0 ;move X/Y to min endstops
G28 Z0 ;move Z to min endstops
G1 Z15.0 F120 ;move the platform down 15mm
G92 E0 ;zero the extruded length
G1 F200 E3 ;extrude 3mm of feed stock
G92 E0 ;zero the extruded length again
G1 F120
M117 Printing...
G5
G92 E0
G1 F2400 E-6
;LAYER_COUNT:37
;LAYER:0
M106 S255
M204 S3000
M205 X10 Y10
;MESH:visera_v6.stl
G0 F3600 X64.193 Y48.156 Z0.2
M204 S1800
M205 X8 Y8
;TYPE:WALL-INNER
G1 F2400 E0
G1 X64.411 Y48.468 E0.01772
G1 X64.659 Y48.764 E0.0357
G1 X64.93 Y49.034 E0.05352
G1 X65.222 Y49.28 E0.0713
G1 X65.538 Y49.502 E0.08928
G1 X65.873 Y49.694 E0.10726
G1 X66.219 Y49.856 E0.12505
G1 X66.579 Y49.988 E0.1429
G1 X66.95 Y50.086 E0.16077
G1 X67.328 Y50.154 E0.17865
G1 X67.711 Y50.187 E0.19655
G1 X68.094 Y50.187 E0.21439
G1 X68.478 Y50.154 E0.23233
G1 X68.858 Y50.086 E0.25031
G1 X69.227 Y49.986 E0.26811
G1 X69.585 Y49.856 E0.28585
G1 X69.935 Y49.694 E0.30381
G1 X70.268 Y49.502 E0.3217
G1 X70.585 Y49.28 E0.33972
G1 X70.878 Y49.033 E0.35757
G1 X71.15 Y48.761 E0.37548
G1 X71.395 Y48.468 E0.39327
G1 X71.613 Y48.156 E0.41099
G1 X71.806 Y47.825 E0.42883
G1 X71.97 Y47.473 E0.44691
G1 X72.099 Y47.114 E0.46467
G1 X72.2 Y46.745 E0.48249
G1 X72.268 Y46.361 E0.50065
G1 X72.3 Y45.98 E0.51845
G1 X72.3 Y45.599 E0.53619
G1 X72.268 Y45.218 E0.554
G1 X72.2 Y44.834 E0.57215
G1 X72.099 Y44.465 E0.58997
G1 X71.97 Y44.106 E0.60773
G1 X71.806 Y43.754 E0.62581
G1 X71.613 Y43.423 E0.64366
G1 X71.395 Y43.111 E0.66138
G1 X71.15 Y42.818 E0.67916
G1 X70.878 Y42.546 E0.69707
G1 X70.585 Y42.299 E0.71492
G1 X70.268 Y42.077 E0.73294
G1 X69.935 Y41.885 E0.75084
G1 X69.585 Y41.723 E0.7688
G1 X69.227 Y41.593 E0.78653
G1 X68.858 Y41.493 E0.80433
G1 X68.478 Y41.425 E0.82231
G1 X68.094 Y41.392 E0.84026
G1 X67.711 Y41.392 E0.85809
G1 X67.328 Y41.425 E0.87599
G1 X66.95 Y41.493 E0.89387
G1 X66.579 Y41.591 E0.91174
G1 X66.219 Y41.723 E0.9296
G1 X65.873 Y41.885 E0.94739
G1 X65.538 Y42.077 E0.96537
G1 X65.222 Y42.299 E0.98335
G1 X64.93 Y42.545 E1.00113
G1 X64.659 Y42.815 E1.01894
G1 X64.411 Y43.111 E1.03692
G1 X64.193 Y43.423 E1.05464
G1 X63.999 Y43.757 E1.07263
G1 X63.837 Y44.106 E1.09055
G1 X63.707 Y44.463 E1.10824
G1 X63.606 Y44.837 E1.12628
G1 X63.539 Y45.217 E1.14424
G1 X63.506 Y45.598 E1.16205
G1 X63.506 Y45.981 E1.17988
G1 X63.539 Y46.362 E1.19769
G1 X63.606 Y46.742 E1.21566
G1 X63.707 Y47.116 E1.2337
G1 X63.837 Y47.473 E1.25139
G1 X63.999 Y47.822 E1.26931
G1 X64.193 Y48.156 E1.28729
M204 S3000
M205 X10 Y10
G0 F3600 X38.618 Y79.786
M204 S1800
M205 X8 Y8
G1 F2400 X38.347 Y80.057 E1.30514
G1 X38.099 Y80.352 E1.32308
G1 X37.879 Y80.666 E1.34094
G1 X37.687 Y81.001 E1.35891
G1 X37.525 Y81.347 E1.3767
G1 X37.395 Y81.705 E1.39444
G1 X37.294 Y82.079 E1.41248
G1 X37.227 Y82.459 E1.43045
G1 X37.194 Y82.839 E1.44821
G1 X37.194 Y83.223 E1.46609
G1 X37.227 Y83.604 E1.48389
G1 X37.294 Y83.985 E1.50191
G1 X37.395 Y84.358 E1.5199
G1 X37.525 Y84.714 E1.53755
G1 X37.687 Y85.063 E1.55547
G1 X37.879 Y85.396 E1.57336
G1 X38.101 Y85.713 E1.59138
G1 X38.348 Y86.006 E1.60923
G1 X38.618 Y86.276 E1.62701
G1 X38.912 Y86.523 E1.64489
G1 X39.226 Y86.743 E1.66274
G1 X39.558 Y86.934 E1.68058
G1 X39.908 Y87.098 E1.69857
G1 X40.267 Y87.227 E1.71634
G1 X40.636 Y87.328 E1.73415
G1 X41.019 Y87.396 E1.75227
G1 X41.4 Y87.428 E1.77007
G1 X41.782 Y87.428 E1.78786
G1 X42.163 Y87.396 E1.80566
G1 X42.548 Y87.328 E1.82386
G1 X42.915 Y87.227 E1.84159
G1 X43.274 Y87.098 E1.85935
G1 X43.625 Y86.934 E1.87739
G1 X43.957 Y86.742 E1.89525
G1 X44.27 Y86.523 E1.91304
G1 X44.563 Y86.278 E1.93082
G1 X44.836 Y86.005 E1.9488
G1 X45.081 Y85.713 E1.96655
G1 X45.304 Y85.396 E1.9846
G1 X45.495 Y85.063 E2.00247
G1 X45.658 Y84.713 E2.02045
G1 X45.787 Y84.355 E2.03817
G1 X45.888 Y83.988 E2.05589
G1 X45.956 Y83.603 E2.0741
G1 X45.988 Y83.222 E2.0919
G1 X45.988 Y82.84 E2.10969
G1 X45.956 Y82.459 E2.12749
G1 X45.888 Y82.076 E2.14561
G1 X45.787 Y81.707 E2.16342
G1 X45.658 Y81.348 E2.18118
G1 X45.495 Y81.001 E2.19903
G1 X45.304 Y80.665 E2.21703
G1 X45.081 Y80.352 E2.23493
G1 X44.838 Y80.059 E2.25265
G1 X44.563 Y79.784 E2.27076
G1 X44.27 Y79.539 E2.28854
G1 X43.958 Y79.321 E2.30627
G1 X43.624 Y79.127 E2.32425
G1 X43.274 Y78.965 E2.34221
G1 X42.918 Y78.835 E2.35986
G1 X42.545 Y78.734 E2.37785
G1 X42.164 Y78.667 E2.39587
G1 X41.783 Y78.634 E2.41367
G1 X41.399 Y78.634 E2.43155
G1 X41.019 Y78.667 E2.44932
G1 X40.639 Y78.734 E2.46728
G1 X40.265 Y78.835 E2.48532
G1 X39.907 Y78.965 E2.50306
G1 X39.561 Y79.127 E2.52085
G1 X39.226 Y79.319 E2.53883
G1 X38.912 Y79.539 E2.55668
G1 X38.618 Y79.786 E2.57456
M204 S3000
M205 X10 Y10
G0 F3600 X37.802 Y82.192
G0 X37.715 Y83.2
G0 X37.891 Y84.2
G0 X38.133 Y84.718
G0 X56.95 Y120.503
M204 S1800
M205 X8 Y8
G1 F2400 X57.366 Y123.772 E2.728
G1 X57.539 Y124.815 E2.77723
G1 X57.8 Y126.479 E2.85566
G1 X58.08 Y127.975 E2.92653
G1 X58.299 Y129.035 E2.97693
G1 X58.6 Y130.412 E3.04257
G1 X59.203 Y132.812 E3.15779
G1 X59.601 Y134.228 E3.22628
G1 X59.874 Y135.138 E3.27052
G1 X60.319 Y136.537 E3.33888
G1 X61.105 Y138.795 E3.45021
G1 X61.981 Y141.056 E3.56312
G1 X62.375 Y141.957 E3.60891
G1 X62.945 Y143.305 E3.67706
G1 X63.488 Y144.491 E3.7378
G1 X64.462 Y146.459 E3.84005
G1 X65.497 Y148.385 E3.94186
G1 X65.923 Y149.095 E3.98041
G1 X66.553 Y150.181 E4.03887
G1 X67.212 Y151.242 E4.09703
G1 X68.307 Y152.887 E4.18905
G1 X69.457 Y154.498 E4.28122
G1 X69.949 Y155.129 E4.31847
G1 X70.682 Y156.089 E4.37472
G1 X71.451 Y157.041 E4.4317
G1 X72.846 Y158.67 E4.53157
G1 X74.304 Y160.261 E4.63205
G1 X74.905 Y160.862 E4.67163
G1 X75.811 Y161.791 E4.73205
G1 X76.76 Y162.705 E4.79341
G1 X77.383 Y163.281 E4.83291
G1 X78.339 Y164.145 E4.89292
G1 X79.989 Y165.549 E4.9938
G1 X81.739 Y166.945 E5.09803
G1 X82.858 Y167.788 E5.16327
G1 X83.627 Y168.347 E5.20754
G1 X84.886 Y169.242 E5.27947
G1 X87.063 Y170.692 E5.40127
G1 X89.045 Y171.921 E5.50986
G1 X90.338 Y172.674 E5.57953
G1 X91.218 Y173.164 E5.62643
G1 X92.497 Y173.855 E5.69412
G1 X94.721 Y174.971 E5.80999
G1 X97.076 Y176.058 E5.93077
G1 X98.6 Y176.712 E6.00799
G1 X99.657 Y177.142 E6.06112
G1 X101.213 Y177.754 E6.13898
G1 X103.542 Y178.591 E6.25422
G1 X103.84 Y178.688 E6.26881
G1 X105.677 Y179.282 E6.35871
G1 X106.49 Y179.522 E6.39818
G1 X105.662 Y179.436 E6.40333
G1 X103.741 Y179.237 E6.46085
G1 X102.372 Y179.094 E6.52494
G1 X94.01 Y178.191 E6.91657
G1 X87.258 Y177.368 E7.2333
G1 X86.53 Y177.266 E7.26753
G1 X82.563 Y176.658 E7.45441
G1 X78.687 Y175.961 E7.63779
G1 X76.1 Y175.423 E7.76082
G1 X74.248 Y175.028 E7.849
G1 X70.929 Y174.207 E8.00821
G1 X69.954 Y173.937 E8.05531
G1 X68.679 Y173.565 E8.11716
G1 X67.774 Y173.288 E8.16123
G1 X65.845 Y172.642 E8.25595
G1 X64.066 Y171.974 E8.34444
G1 X63.308 Y171.668 E8.3825
G1 X62.318 Y171.246 E8.43261
G1 X61.559 Y170.91 E8.47127
G1 X59.822 Y170.082 E8.56087
G1 X58.052 Y169.153 E8.65395
G1 X57.351 Y168.76 E8.69137
G1 X56.418 Y168.217 E8.74164
G1 X55.7 Y167.785 E8.78065
G1 X54.272 Y166.875 E8.8595
G1 X52.902 Y165.931 E8.93697
G1 X52.384 Y165.554 E8.9668
G1 X51.678 Y165.023 E9.00794
G1 X51.178 Y164.636 E9.03738
G1 X50.025 Y163.693 E9.10674
G1 X48.911 Y162.705 E9.17607
G1 X48.302 Y162.117 E9.21549
G1 X47.81 Y161.656 E9.24689
G1 X47.35 Y161.197 E9.27714
G1 X46.269 Y160.061 E9.35016
G1 X45.085 Y158.722 E9.43339
G1 X44.768 Y158.347 E9.45626
G1 X43.576 Y156.876 E9.54442
G1 X42.423 Y155.338 E9.63392
G1 X41.978 Y154.712 E9.66969
G1 X41.377 Y153.833 E9.71927
G1 X40.957 Y153.2 E9.75464
G1 X40.016 Y151.695 E9.83729
G1 X39.078 Y150.068 E9.92474
G1 X38.67 Y149.317 E9.96454
G1 X38.096 Y148.22 E10.02219
G1 X37.65 Y147.337 E10.06825
G1 X36.51 Y144.933 E10.19214
G1 X35.571 Y142.761 E10.30233
G1 X35.226 Y141.913 E10.34496
G1 X34.532 Y140.073 E10.43653
G1 X33.9 Y138.196 E10.52875
G1 X33.638 Y137.338 E10.57052
G1 X33.218 Y135.902 E10.64019
G1 X32.86 Y134.616 E10.70235
G1 X31.783 Y130.306 E10.90921
G1 X31.415 Y128.618 E10.98966
G1 X30.946 Y126.405 E11.09499
G1 X30.725 Y125.233 E11.15053
G1 X30.481 Y123.781 E11.21909
G1 X30.33 Y122.81 E11.26484
G1 X29.931 Y119.639 E11.41366
G1 X29.757 Y117.923 E11.49398
G1 X29.526 Y115.513 E11.60671
G1 X29.402 Y113.813 E11.68608
G1 X29.27 Y111.325 E11.80209
G1 X29.185 Y109.341 E11.89456
G1 X29.109 Y105.025 E12.09556
G1 X29.185 Y100.659 E12.29889
G1 X29.27 Y98.676 E12.39132
G1 X29.402 Y96.187 E12.50738
G1 X29.526 Y94.486 E12.58679
G1 X29.931 Y90.361 E12.77979
G1 X30.33 Y87.19 E12.92861
G1 X30.482 Y86.216 E12.97452
G1 X30.725 Y84.766 E13.04298
G1 X30.945 Y83.596 E13.09841
G1 X31.415 Y81.382 E13.2038
G1 X31.783 Y79.694 E13.28425
G1 X32.854 Y75.412 E13.48978
G1 X33.219 Y74.098 E13.55328
G1 X33.641 Y72.65 E13.62351
G1 X33.901 Y71.802 E13.66481
G1 X34.52 Y69.957 E13.75543
G1 X35.229 Y68.078 E13.84894
G1 X35.561 Y67.26 E13.89005
G1 X36.518 Y65.05 E14.00219
G1 X37.65 Y62.662 E14.12525
G1 X38.095 Y61.781 E14.17121
G1 X38.67 Y60.683 E14.22892
G1 X39.078 Y59.932 E14.26872
G1 X40.016 Y58.305 E14.35617
G1 X40.957 Y56.8 E14.43882
G1 X41.377 Y56.167 E14.47419
G1 X41.978 Y55.288 E14.52377
G1 X42.423 Y54.662 E14.55953
G1 X43.576 Y53.124 E14.64904
G1 X44.768 Y51.653 E14.7372
G1 X45.084 Y51.277 E14.76007
G1 X46.269 Y49.939 E14.8433
G1 X47.35 Y48.803 E14.91632
G1 X47.807 Y48.347 E14.94638
G1 X48.399 Y47.773 E14.98477
G1 X48.891 Y47.314 E15.0161
G1 X50.042 Y46.293 E15.08775
G1 X51.178 Y45.364 E15.15608
G1 X51.677 Y44.978 E15.18546
G1 X52.383 Y44.446 E15.22662
G1 X52.902 Y44.069 E15.25649
G1 X54.287 Y43.114 E15.33483
G1 X55.733 Y42.193 E15.41465
G1 X56.402 Y41.791 E15.451
G1 X57.351 Y41.24 E15.5021
G1 X58.052 Y40.847 E15.53952
G1 X59.822 Y39.918 E15.6326
G1 X61.559 Y39.09 E15.7222
G1 X62.309 Y38.758 E15.76039
G1 X63.318 Y38.33 E15.81143
G1 X64.076 Y38.022 E15.84952
G1 X65.845 Y37.358 E15.93751
G1 X67.774 Y36.712 E16.03223
G1 X68.693 Y36.431 E16.07698
G1 X69.94 Y36.068 E16.13746
G1 X70.932 Y35.793 E16.18539
G1 X74.264 Y34.967 E16.34524
G1 X76.099 Y34.575 E16.43261
G1 X78.688 Y34.039 E16.55572
G1 X81.029 Y33.612 E16.66653
G1 X82.55 Y33.343 E16.73845
G1 X84.166 Y33.09 E16.81462
G1 X86.524 Y32.736 E16.92564
G1 X87.268 Y32.631 E16.96063
G1 X94.009 Y31.808 E17.27685
G1 X102.372 Y30.907 E17.66852
G1 X103.731 Y30.766 E17.73214
G1 X104.807 Y30.655 E17.78251
G1 X105.666 Y30.565 E17.82273
G1 X106.485 Y30.479 E17.86107
G1 X105.682 Y30.716 E17.86675
G1 X104.841 Y30.981 E17.88462
G1 X103.813 Y31.319 E17.92459
G1 X103.539 Y31.409 E17.93802
G1 X101.206 Y32.248 E18.05347
G1 X100.15 Y32.676 E18.10653
G1 X98.607 Y33.285 E18.18377
G1 X97.083 Y33.94 E18.26101
G1 X96.109 Y34.382 E18.31081
G1 X94.716 Y35.032 E18.38239
G1 X92.489 Y36.149 E18.4984
G1 X91.617 Y36.635 E18.54489
G1 X90.346 Y37.323 E18.61218
G1 X89.047 Y38.077 E18.68212
G1 X87.06 Y39.309 E18.79099
G1 X84.881 Y40.761 E18.91291
G1 X84.116 Y41.317 E18.95695
G1 X82.864 Y42.207 E19.02848
G1 X81.742 Y43.052 E19.09388
G1 X81.038 Y43.607 E19.13562
G1 X79.986 Y44.452 E19.19846
G1 X78.337 Y45.857 E19.29933
G1 X76.762 Y47.291 E19.39851
G1 X75.816 Y48.204 E19.45973
G1 X75.21 Y48.811 E19.49967
G1 X74.299 Y49.745 E19.56042
G1 X72.846 Y51.33 E19.66055
G1 X71.451 Y52.959 E19.76041
G1 X70.687 Y53.905 E19.81703
G1 X70.189 Y54.542 E19.85468
G1 X69.452 Y55.51 E19.91134
G1 X68.307 Y57.113 E20.00306
G1 X67.212 Y58.758 E20.09508
G1 X66.558 Y59.81 E20.15276
G1 X66.127 Y60.532 E20.19191
G1 X65.492 Y61.625 E20.25077
G1 X64.344 Y63.771 E20.3641
G1 X63.488 Y65.511 E20.4544
G1 X62.949 Y66.688 E20.51468
G1 X62.552 Y67.597 E20.56086
G1 X61.978 Y68.952 E20.62939
G1 X61.105 Y71.205 E20.7419
G1 X60.319 Y73.463 E20.85323
G1 X59.875 Y74.861 E20.92153
G1 X59.602 Y75.771 E20.96577
G1 X59.203 Y77.188 E21.03431
G1 X58.598 Y79.591 E21.1497
G1 X58.08 Y82.02 E21.26535
G1 X57.8 Y83.515 E21.33617
G1 X57.626 Y84.567 E21.38582
G1 X57.366 Y86.234 E21.46438
G1 X56.948 Y89.498 E21.61761
G1 X56.517 Y93.913 E21.82417
G1 X56.176 Y98.729 E22.04898
G1 X56.04 Y101.709 E22.18789
G1 X56.024 Y102.983 E22.24721
G1 X56.01 Y105.002 E22.34123
G1 X56.04 Y108.289 E22.49429
G1 X56.177 Y111.27 E22.63325
G1 X56.517 Y116.084 E22.85797
G1 X56.675 Y117.765 E22.93658
G1 X56.95 Y120.503 E23.06472
M204 S3000
M205 X10 Y10
G0 F3600 X45.658 Y125.287
M204 S1800
M205 X8 Y8
G1 F2400 X45.495 Y124.937 E23.0827
G1 X45.304 Y124.604 E23.10057
G1 X45.081 Y124.287 E23.11862
G1 X44.836 Y123.995 E23.13637
G1 X44.563 Y123.722 E23.15435
G1 X44.27 Y123.477 E23.17213
G1 X43.957 Y123.258 E23.18992
G1 X43.625 Y123.066 E23.20778
G1 X43.274 Y122.902 E23.22582
G1 X42.915 Y122.773 E23.24358
G1 X42.548 Y122.672 E23.2613
G1 X42.163 Y122.604 E23.27951
G1 X41.782 Y122.572 E23.29731
G1 X41.4 Y122.572 E23.3151
G1 X41.019 Y122.604 E23.3329
G1 X40.636 Y122.672 E23.35102
G1 X40.267 Y122.773 E23.36883
G1 X39.908 Y122.902 E23.38659
G1 X39.558 Y123.066 E23.40459
G1 X39.226 Y123.257 E23.42243
G1 X38.912 Y123.477 E23.44028
G1 X38.618 Y123.724 E23.45816
G1 X38.348 Y123.994 E23.47594
G1 X38.101 Y124.287 E23.49378
G1 X37.879 Y124.604 E23.5118
G1 X37.687 Y124.937 E23.5297
G1 X37.525 Y125.286 E23.54762
G1 X37.395 Y125.642 E23.56527
G1 X37.294 Y126.015 E23.58326
G1 X37.227 Y126.396 E23.60127
G1 X37.194 Y126.777 E23.61908
G1 X37.194 Y127.161 E23.63696
G1 X37.227 Y127.541 E23.65472
G1 X37.294 Y127.921 E23.67269
G1 X37.395 Y128.295 E23.69073
G1 X37.525 Y128.653 E23.70846
G1 X37.687 Y128.999 E23.72625
G1 X37.879 Y129.334 E23.74423
G1 X38.099 Y129.648 E23.76209
G1 X38.347 Y129.943 E23.78003
G1 X38.618 Y130.214 E23.79788
G1 X38.912 Y130.461 E23.81576
G1 X39.226 Y130.681 E23.83361
G1 X39.561 Y130.873 E23.85159
G1 X39.907 Y131.035 E23.86938
G1 X40.265 Y131.165 E23.88711
G1 X40.639 Y131.266 E23.90515
G1 X41.019 Y131.333 E23.92312
G1 X41.399 Y131.366 E23.94088
G1 X41.783 Y131.366 E23.95876
G1 X42.164 Y131.333 E23.97657
G1 X42.545 Y131.266 E23.99458
G1 X42.918 Y131.165 E24.01258
G1 X43.274 Y131.035 E24.03022
G1 X43.624 Y130.873 E24.04818
G1 X43.958 Y130.679 E24.06617
G1 X44.27 Y130.461 E24.08389
G1 X44.563 Y130.216 E24.10168
G1 X44.838 Y129.941 E24.11978
G1 X45.081 Y129.648 E24.13751
G1 X45.304 Y129.335 E24.1554
G1 X45.495 Y128.999 E24.1734
G1 X45.658 Y128.652 E24.19125
G1 X45.787 Y128.293 E24.20902
G1 X45.888 Y127.924 E24.22683
G1 X45.956 Y127.541 E24.24494
G1 X45.988 Y127.16 E24.26275
G1 X45.988 Y126.778 E24.28053
G1 X45.956 Y126.397 E24.29834
G1 X45.888 Y126.012 E24.31654
G1 X45.787 Y125.645 E24.33427
G1 X45.658 Y125.287 E24.35199
M204 S3000
M205 X10 Y10
G0 F3600 X66.95 Y159.914
M204 S1800
M205 X8 Y8
G1 F2400 X66.579 Y160.012 E24.36985
G1 X66.219 Y160.144 E24.38771
G1 X65.873 Y160.306 E24.4055
G1 X65.538 Y160.498 E24.42348
G1 X65.222 Y160.72 E24.44146
G1 X64.93 Y160.966 E24.45924
G1 X64.659 Y161.236 E24.47705
G1 X64.411 Y161.532 E24.49503
G1 X64.193 Y161.844 E24.51276
G1 X63.999 Y162.178 E24.53074
G1 X63.837 Y162.527 E24.54866
G1 X63.707 Y162.884 E24.56635
G1 X63.606 Y163.258 E24.58439
G1 X63.539 Y163.638 E24.60236
G1 X63.506 Y164.019 E24.62016
G1 X63.506 Y164.402 E24.638
G1 X63.539 Y164.783 E24.6558
G1 X63.606 Y165.163 E24.67377
G1 X63.707 Y165.537 E24.69181
G1 X63.837 Y165.894 E24.7095
G1 X63.999 Y166.243 E24.72742
G1 X64.193 Y166.577 E24.7454
G1 X64.411 Y166.889 E24.76313
G1 X64.659 Y167.185 E24.78111
G1 X64.93 Y167.455 E24.79892
G1 X65.222 Y167.701 E24.8167
G1 X65.538 Y167.923 E24.83468
G1 X65.873 Y168.115 E24.85266
G1 X66.219 Y168.277 E24.87045
G1 X66.579 Y168.409 E24.88831
G1 X66.95 Y168.507 E24.90617
G1 X67.328 Y168.575 E24.92406
G1 X67.711 Y168.608 E24.94196
G1 X68.094 Y168.608 E24.95979
G1 X68.478 Y168.575 E24.97774
G1 X68.858 Y168.507 E24.99571
G1 X69.227 Y168.407 E25.01352
G1 X69.585 Y168.277 E25.03125
G1 X69.935 Y168.115 E25.04921
G1 X70.268 Y167.923 E25.06711
G1 X70.585 Y167.701 E25.08513
G1 X70.878 Y167.454 E25.10297
G1 X71.15 Y167.182 E25.12088
G1 X71.395 Y166.889 E25.13867
G1 X71.613 Y166.577 E25.15639
G1 X71.806 Y166.246 E25.17423
G1 X71.97 Y165.894 E25.19232
G1 X72.099 Y165.535 E25.21008
G1 X72.2 Y165.166 E25.22789
G1 X72.268 Y164.782 E25.24605
G1 X72.3 Y164.401 E25.26385
