;FLAVOR:RepRap
;TIME:769
;Filament used: 1.01562m
;Layer height: 0.2
;Generated with Cura_SteamEngine 3.1.0
T0
M190 S60
M104 S200
M109 S200
M82 ; absolute extrusion mode
G21 ;metric values
G90 ;absolute positioning
M82 ;set extruder to absolute mode
M107 ;start with the fan off
G28 X0 Y0 ;move X/Y to min endstops
G28 Z0 ;move Z to min endstops
G1 Z15.0 F9000 ;move the platform down 15mm
G92 E0 ;zero the extruded length
G1 F200 E3 ;extrude 3mm of feed stock
G92 E0 ;zero the extruded length again
G1 F9000
M117 Printing...
G5
M83 ; relative extrusion mode
;LAYER_COUNT:29
;LAYER:0
M107
G0 F3600 X97.583 Y75.128 Z0.2
;TYPE:WALL-OUTER
G1 F2400 X97.87 Y75.49 E0.01537
G1 X98.206 Y75.779 E0.01474
G1 X98.591 Y76 E0.01476
G1 X99.01 Y76.144 E0.01474
G1 X99.449 Y76.207 E0.01475
G1 X99.891 Y76.186 E0.01472
G1 X100.322 Y76.082 E0.01475
G1 X100.726 Y75.899 E0.01475
G1 X101.088 Y75.645 E0.01471
G1 X101.389 Y75.332 E0.01444
G1 X105.759 Y69.839 E0.23346
G1 X105.78 Y69.816 E0.00104
G1 X106.116 Y69.445 E0.01665
G1 X106.131 Y69.428 E0.00075
G1 X106.153 Y69.41 E0.00095
G1 X106.538 Y69.081 E0.01684
G1 X106.556 Y69.066 E0.00078
G1 X106.578 Y69.052 E0.00087
G1 X107.002 Y68.775 E0.01685
G1 X107.026 Y68.759 E0.00096
G1 X107.046 Y68.75 E0.00073
G1 X107.502 Y68.53 E0.01684
G1 X107.523 Y68.519 E0.00079
G1 X107.549 Y68.511 E0.0009
G1 X108.029 Y68.352 E0.01682
G1 X108.057 Y68.342 E0.00099
G1 X108.077 Y68.339 E0.00067
G1 X108.575 Y68.242 E0.01687
G1 X108.593 Y68.238 E0.00061
G1 X108.623 Y68.236 E0.001
G1 X109.129 Y68.203 E0.01687
G1 X109.154 Y68.201 E0.00083
G1 X109.178 Y68.202 E0.0008
G1 X109.684 Y68.234 E0.01686
G1 X109.716 Y68.237 E0.00107
G1 X109.734 Y68.24 E0.00061
G1 X110.231 Y68.337 E0.01684
G1 X110.252 Y68.342 E0.00072
G1 X110.279 Y68.351 E0.00095
G1 X110.76 Y68.51 E0.01685
G1 X110.787 Y68.519 E0.00095
G1 X110.807 Y68.528 E0.00073
G1 X111.263 Y68.748 E0.01684
G1 X111.284 Y68.758 E0.00077
G1 X111.307 Y68.773 E0.00091
G1 X111.731 Y69.05 E0.01685
G1 X111.754 Y69.065 E0.00091
G1 X111.771 Y69.079 E0.00073
G1 X112.156 Y69.408 E0.01684
G1 X112.179 Y69.427 E0.00099
G1 X112.193 Y69.443 E0.00071
G1 X112.529 Y69.813 E0.01662
G1 X112.551 Y69.837 E0.00108
G1 X116.923 Y75.328 E0.23345
G1 X117.224 Y75.64 E0.01442
G1 X117.587 Y75.896 E0.01477
G1 X117.991 Y76.079 E0.01475
G1 X118.422 Y76.182 E0.01474
G1 X118.864 Y76.203 E0.01472
G1 X119.302 Y76.139 E0.01472
G1 X119.721 Y75.995 E0.01474
G1 X120.106 Y75.774 E0.01476
G1 X120.442 Y75.485 E0.01474
G1 X120.729 Y75.124 E0.01534
G1 X129.277 Y47.198 E0.97136
G1 X129.29 Y47.163 E0.00124
G1 X129.449 Y46.754 E0.0146
G1 X129.5 Y46.664 E0.00344
G1 X129.69 Y46.329 E0.01281
G1 X129.791 Y46.199 E0.00548
G1 X129.98 Y45.955 E0.01027
G1 X130.155 Y45.786 E0.00809
G1 X130.325 Y45.622 E0.00786
G1 X130.58 Y45.439 E0.01044
G1 X130.722 Y45.337 E0.00582
G1 X131.057 Y45.164 E0.01254
G1 X131.145 Y45.119 E0.00329
G1 X131.57 Y44.973 E0.01495
G1 X131.601 Y44.962 E0.00109
G1 X131.625 Y44.958 E0.00081
G1 X132.065 Y44.874 E0.0149
G1 X132.17 Y44.87 E0.00349
G1 X132.551 Y44.854 E0.01268
G1 X132.718 Y44.87 E0.00558
G1 X133.026 Y44.902 E0.0103
G1 X133.26 Y44.961 E0.00803
G1 X133.494 Y45.021 E0.00803
G1 X133.779 Y45.138 E0.01025
G1 X133.934 Y45.202 E0.00558
G1 X134.265 Y45.399 E0.01281
G1 X134.353 Y45.452 E0.00342
G1 X134.7 Y45.734 E0.01487
G1 X134.722 Y45.752 E0.00095
G1 X134.74 Y45.772 E0.00089
G1 X135.045 Y46.103 E0.01497
G1 X135.102 Y46.187 E0.00338
G1 X135.316 Y46.5 E0.01261
G1 X135.391 Y46.654 E0.0057
G1 X135.527 Y46.933 E0.01032
G1 X135.6 Y47.161 E0.00796
G1 X135.675 Y47.396 E0.0082
G1 X135.724 Y47.697 E0.01014
G1 X135.752 Y47.861 E0.00553
G1 X135.759 Y48.245 E0.01277
G1 X135.762 Y48.348 E0.00343
G1 X135.707 Y48.785 E0.01465
G1 X135.702 Y48.821 E0.00121
G1 X130.133 Y76.585 E0.94183
G1 X130.088 Y77.01 E0.01421
G1 X130.124 Y77.445 E0.01452
G1 X130.24 Y77.867 E0.01456
G1 X130.433 Y78.26 E0.01456
G1 X130.694 Y78.61 E0.01452
G1 X131.017 Y78.905 E0.01455
G1 X131.389 Y79.135 E0.01455
G1 X131.795 Y79.292 E0.01448
G1 X132.225 Y79.371 E0.01454
G1 X132.663 Y79.369 E0.01457
G1 X133.091 Y79.286 E0.0145
G1 X133.498 Y79.124 E0.01457
G1 X133.867 Y78.89 E0.01453
G1 X134.179 Y78.598 E0.01421
G1 X137.293 Y75.087 E0.15609
G1 X137.318 Y75.062 E0.00118
G1 X137.649 Y74.739 E0.01538
G1 X137.715 Y74.69 E0.00273
G1 X138.051 Y74.443 E0.01387
G1 X138.171 Y74.378 E0.00454
G1 X138.487 Y74.208 E0.01193
G1 X138.668 Y74.141 E0.00642
G1 X138.954 Y74.035 E0.01014
G1 X139.198 Y73.983 E0.0083
G1 X139.449 Y73.928 E0.00855
G1 X139.745 Y73.907 E0.00987
G1 X139.932 Y73.893 E0.00624
G1 X140.298 Y73.918 E0.0122
G1 X140.436 Y73.928 E0.0046
G1 X140.841 Y74.014 E0.01377
G1 X140.926 Y74.033 E0.0029
G1 X141.364 Y74.192 E0.0155
G1 X141.394 Y74.203 E0.00106
G1 X141.415 Y74.214 E0.00079
G1 X141.825 Y74.433 E0.01546
G1 X141.896 Y74.485 E0.00293
G1 X142.234 Y74.732 E0.01392
G1 X142.33 Y74.826 E0.00447
G1 X142.592 Y75.08 E0.01214
G1 X142.708 Y75.23 E0.00631
G1 X142.892 Y75.469 E0.01003
G1 X143.017 Y75.689 E0.00842
G1 X143.14 Y75.904 E0.00824
G1 X143.252 Y76.186 E0.01009
G1 X143.324 Y76.368 E0.00651
G1 X143.408 Y76.717 E0.01194
G1 X143.441 Y76.85 E0.00456
G1 X143.48 Y77.264 E0.01383
G1 X143.488 Y77.345 E0.00271
G1 X143.469 Y77.808 E0.01541
G1 X143.467 Y77.845 E0.00123
G1 X142.931 Y82.488 E0.15545
G1 X142.929 Y82.498 E0.00034
G1 X142.92 Y82.91 E0.01371
G1 X142.984 Y83.327 E0.01403
G1 X143.123 Y83.725 E0.01402
G1 X143.331 Y84.091 E0.014
G1 X143.6 Y84.415 E0.01401
G1 X143.924 Y84.685 E0.01403
G1 X144.29 Y84.893 E0.014
G1 X144.688 Y85.032 E0.01402
G1 X145.104 Y85.097 E0.014
G1 X145.525 Y85.088 E0.01401
G1 X145.938 Y85.002 E0.01403
G1 X146.329 Y84.844 E0.01403
G1 X146.677 Y84.623 E0.01371
G1 X150.401 Y81.77 E0.15603
G1 X150.431 Y81.751 E0.00118
G1 X150.816 Y81.496 E0.01536
G1 X150.892 Y81.46 E0.0028
G1 X151.265 Y81.283 E0.01373
G1 X151.398 Y81.242 E0.00463
G1 X151.746 Y81.133 E0.01213
G1 X151.932 Y81.103 E0.00627
G1 X152.231 Y81.054 E0.01008
G1 X152.482 Y81.049 E0.00835
G1 X152.729 Y81.043 E0.00822
G1 X153.034 Y81.08 E0.01022
G1 X153.232 Y81.104 E0.00663
G1 X153.573 Y81.194 E0.01173
G1 X153.706 Y81.23 E0.00458
G1 X154.091 Y81.393 E0.01391
G1 X154.167 Y81.426 E0.00276
G1 X154.569 Y81.667 E0.01559
G1 X154.592 Y81.681 E0.0009
G1 X154.614 Y81.699 E0.00095
G1 X154.977 Y81.993 E0.01554
G1 X155.036 Y82.056 E0.00287
G1 X155.321 Y82.364 E0.01396
G1 X155.398 Y82.474 E0.00447
G1 X155.6 Y82.766 E0.01181
G1 X155.689 Y82.943 E0.00659
G1 X155.829 Y83.22 E0.01032
G1 X155.907 Y83.45 E0.00808
G1 X155.985 Y83.681 E0.00811
G1 X156.042 Y83.985 E0.01029
G1 X156.078 Y84.172 E0.00633
G1 X156.093 Y84.536 E0.01212
G1 X156.1 Y84.675 E0.00463
G1 X156.062 Y85.086 E0.01373
G1 X156.053 Y85.171 E0.00284
G1 X155.946 Y85.618 E0.01529
G1 X155.937 Y85.654 E0.00123
G1 X154.529 Y90.104 E0.15524
G1 X154.524 Y90.119 E0.00053
G1 X154.436 Y90.522 E0.01372
G1 X154.42 Y90.943 E0.01401
G1 X154.481 Y91.361 E0.01405
G1 X154.615 Y91.76 E0.014
G1 X154.819 Y92.13 E0.01405
G1 X155.086 Y92.456 E0.01402
G1 X155.406 Y92.729 E0.01399
G1 X155.77 Y92.94 E0.01399
G1 X156.167 Y93.083 E0.01403
G1 X156.583 Y93.152 E0.01403
G1 X157.004 Y93.147 E0.014
G1 X157.417 Y93.065 E0.014
G1 X157.801 Y92.914 E0.01372
G1 X157.812 Y92.909 E0.0004
G1 X161.992 Y90.83 E0.15527
G1 X162.032 Y90.814 E0.00143
G1 X162.458 Y90.637 E0.01534
G1 X162.539 Y90.616 E0.00278
G1 X162.943 Y90.512 E0.01388
G1 X163.08 Y90.498 E0.00458
G1 X163.438 Y90.458 E0.01198
G1 X163.631 Y90.464 E0.00642
G1 X163.936 Y90.474 E0.01015
G1 X164.179 Y90.515 E0.0082
G1 X164.426 Y90.558 E0.00834
G1 X164.715 Y90.651 E0.0101
G1 X164.899 Y90.711 E0.00644
G1 X165.223 Y90.868 E0.01197
G1 X165.345 Y90.927 E0.00451
G1 X165.691 Y91.159 E0.01386
G1 X165.76 Y91.206 E0.00278
G1 X166.109 Y91.52 E0.01561
G1 X166.131 Y91.54 E0.00099
G1 X166.148 Y91.561 E0.0009
G1 X166.449 Y91.921 E0.01561
G1 X166.493 Y91.992 E0.00278
G1 X166.713 Y92.346 E0.01386
G1 X166.768 Y92.471 E0.00454
G1 X166.915 Y92.804 E0.01211
G1 X166.966 Y92.985 E0.00625
G1 X167.049 Y93.276 E0.01006
G1 X167.082 Y93.525 E0.00835
G1 X167.116 Y93.772 E0.00829
G1 X167.115 Y94.076 E0.01011
G1 X167.113 Y94.27 E0.00645
G1 X167.061 Y94.625 E0.01193
G1 X167.04 Y94.762 E0.00461
G1 X166.922 Y95.161 E0.01384
G1 X166.898 Y95.242 E0.00281
G1 X166.707 Y95.662 E0.01535
G1 X166.692 Y95.693 E0.00115
G1 X164.463 Y99.793 E0.15522
G1 X164.455 Y99.808 E0.00057
G1 X164.291 Y100.187 E0.01374
G1 X164.196 Y100.597 E0.014
G1 X164.175 Y101.018 E0.01402
G1 X164.231 Y101.436 E0.01403
G1 X164.361 Y101.838 E0.01405
G1 X164.56 Y102.209 E0.014
G1 X164.824 Y102.539 E0.01406
G1 X165.141 Y102.816 E0.014
G1 X165.503 Y103.031 E0.014
G1 X165.898 Y103.179 E0.01403
G1 X166.314 Y103.253 E0.01405
G1 X166.735 Y103.251 E0.014
G1 X167.14 Y103.176 E0.0137
G1 X171.654 Y101.927 E0.15578
G1 X171.693 Y101.92 E0.00132
G1 X172.145 Y101.827 E0.01535
G1 X172.231 Y101.823 E0.00286
G1 X172.65 Y101.798 E0.01396
G1 X172.781 Y101.808 E0.00437
G1 X173.139 Y101.838 E0.01195
G1 X173.33 Y101.881 E0.00651
G1 X173.625 Y101.948 E0.01006
G1 X173.858 Y102.036 E0.00828
G1 X174.095 Y102.126 E0.00843
G1 X174.359 Y102.271 E0.01002
G1 X174.526 Y102.363 E0.00634
G1 X174.814 Y102.579 E0.01197
G1 X174.93 Y102.666 E0.00482
G1 X175.22 Y102.956 E0.01364
G1 X175.276 Y103.012 E0.00263
G1 X175.56 Y103.391 E0.01575
G1 X175.577 Y103.413 E0.00092
G1 X175.59 Y103.436 E0.00088
G1 X175.819 Y103.849 E0.01571
G1 X175.848 Y103.925 E0.00271
G1 X175.997 Y104.315 E0.01389
G1 X176.027 Y104.448 E0.00453
G1 X176.108 Y104.801 E0.01205
G1 X176.124 Y104.992 E0.00637
G1 X176.149 Y105.291 E0.00998
G1 X176.135 Y105.544 E0.00843
G1 X176.12 Y105.796 E0.0084
G1 X176.061 Y106.091 E0.01001
G1 X176.023 Y106.279 E0.00638
G1 X175.904 Y106.619 E0.01198
G1 X175.856 Y106.755 E0.0048
G1 X175.667 Y107.119 E0.01364
G1 X175.63 Y107.189 E0.00263
G1 X175.359 Y107.568 E0.0155
G1 X175.331 Y107.608 E0.00162
G1 X172.375 Y111.192 E0.15452
G1 X172.359 Y111.212 E0.00085
G1 X172.127 Y111.552 E0.01369
G1 X171.955 Y111.936 E0.01399
G1 X171.854 Y112.345 E0.01401
G1 X171.829 Y112.766 E0.01403
G1 X171.88 Y113.184 E0.01401
G1 X172.004 Y113.586 E0.01399
G1 X172.198 Y113.959 E0.01398
G1 X172.456 Y114.293 E0.01404
G1 X172.77 Y114.574 E0.01401
G1 X173.128 Y114.795 E0.01399
G1 X173.52 Y114.948 E0.014
G1 X173.934 Y115.028 E0.01402
G1 X174.346 Y115.033 E0.0137
G1 X174.366 Y115.032 E0.00067
G1 X179.007 Y114.668 E0.15483
G1 X179.055 Y114.668 E0.0016
G1 X179.519 Y114.664 E0.01543
G1 X179.6 Y114.675 E0.00272
G1 X180.007 Y114.73 E0.01366
G1 X180.143 Y114.768 E0.0047
G1 X180.495 Y114.867 E0.01216
G1 X180.666 Y114.941 E0.0062
G1 X180.946 Y115.064 E0.01017
G1 X181.158 Y115.195 E0.00829
G1 X181.367 Y115.325 E0.00819
G1 X181.603 Y115.521 E0.0102
G1 X181.755 Y115.648 E0.00659
G1 X181.993 Y115.912 E0.01182
G1 X182.083 Y116.011 E0.00445
G1 X182.318 Y116.359 E0.01397
G1 X182.364 Y116.427 E0.00273
G1 X182.57 Y116.85 E0.01565
G1 X182.584 Y116.878 E0.00104
G1 X182.591 Y116.9 E0.00077
G1 X182.736 Y117.348 E0.01566
G1 X182.75 Y117.429 E0.00273
G1 X182.821 Y117.837 E0.01377
G1 X182.825 Y117.976 E0.00463
G1 X182.838 Y118.336 E0.01198
G1 X182.818 Y118.528 E0.00642
G1 X182.784 Y118.832 E0.01017
G1 X182.723 Y119.072 E0.00824
G1 X182.661 Y119.314 E0.00831
G1 X182.547 Y119.593 E0.01002
G1 X182.474 Y119.772 E0.00643
G1 X182.292 Y120.083 E0.01198
G1 X182.22 Y120.205 E0.00471
G1 X181.964 Y120.529 E0.01373
G1 X181.913 Y120.593 E0.00272
G1 X181.577 Y120.912 E0.01541
G1 X181.541 Y120.946 E0.00165
G1 X177.935 Y123.92 E0.15546
G1 X177.642 Y124.209 E0.01369
G1 X177.401 Y124.554 E0.014
G1 X177.225 Y124.936 E0.01399
G1 X177.12 Y125.344 E0.01401
G1 X177.089 Y125.764 E0.01401
G1 X177.135 Y126.182 E0.01399
G1 X177.254 Y126.585 E0.01398
G1 X177.444 Y126.96 E0.01398
G1 X177.697 Y127.296 E0.01399
G1 X178.007 Y127.582 E0.01403
G1 X178.364 Y127.806 E0.01402
G1 X178.753 Y127.963 E0.01395
G1 X179.156 Y128.047 E0.01369
G1 X183.806 Y128.58 E0.15567
G1 X183.848 Y128.587 E0.00142
G1 X184.303 Y128.672 E0.0154
G1 X184.382 Y128.698 E0.00277
G1 X184.777 Y128.832 E0.01387
G1 X184.9 Y128.894 E0.00458
G1 X185.224 Y129.057 E0.01206
G1 X185.379 Y129.164 E0.00626
G1 X185.627 Y129.336 E0.01004
G1 X185.812 Y129.507 E0.00838
G1 X185.998 Y129.679 E0.00843
G1 X186.187 Y129.911 E0.00995
G1 X186.311 Y130.063 E0.00652
G1 X186.496 Y130.37 E0.01192
G1 X186.567 Y130.488 E0.00458
G1 X186.729 Y130.871 E0.01383
G1 X186.762 Y130.947 E0.00276
G1 X186.884 Y131.402 E0.01567
G1 X186.89 Y131.423 E0.00073
G1 X186.894 Y131.456 E0.00111
G1 X186.951 Y131.926 E0.01575
G1 X186.95 Y132.005 E0.00263
G1 X186.941 Y132.424 E0.01394
G1 X186.92 Y132.556 E0.00445
G1 X186.863 Y132.91 E0.01193
G1 X186.805 Y133.098 E0.00654
G1 X186.714 Y133.388 E0.01011
G1 X186.608 Y133.614 E0.0083
G1 X186.501 Y133.839 E0.00829
G1 X186.335 Y134.092 E0.01006
G1 X186.227 Y134.255 E0.0065
G1 X185.99 Y134.524 E0.01192
G1 X185.899 Y134.627 E0.00457
G1 X185.584 Y134.897 E0.0138
G1 X185.52 Y134.952 E0.00281
G1 X185.129 Y135.2 E0.0154
G1 X185.093 Y135.223 E0.00142
G1 X181.002 Y137.438 E0.15473
G1 X180.985 Y137.448 E0.00066
G1 X180.641 Y137.676 E0.01373
G1 X180.337 Y137.97 E0.01407
G1 X180.091 Y138.312 E0.01401
G1 X179.91 Y138.693 E0.01403
G1 X179.799 Y139.1 E0.01403
G1 X179.763 Y139.52 E0.01402
G1 X179.804 Y139.941 E0.01407
G1 X179.918 Y140.347 E0.01403
G1 X180.104 Y140.725 E0.01401
G1 X180.355 Y141.065 E0.01406
G1 X180.662 Y141.354 E0.01402
G1 X181.015 Y141.584 E0.01401
G1 X181.397 Y141.743 E0.01376
G1 X185.864 Y143.152 E0.15579
G1 X185.897 Y143.165 E0.00118
G1 X186.327 Y143.335 E0.01538
G1 X186.398 Y143.375 E0.00271
G1 X186.761 Y143.58 E0.01387
G1 X186.87 Y143.664 E0.00458
G1 X187.151 Y143.882 E0.01183
G1 X187.289 Y144.022 E0.00654
G1 X187.505 Y144.243 E0.01028
G1 X187.65 Y144.441 E0.00816
G1 X187.795 Y144.64 E0.00819
G1 X187.94 Y144.909 E0.01016
G1 X188.031 Y145.079 E0.00641
G1 X188.156 Y145.419 E0.01205
G1 X188.203 Y145.547 E0.00454
G1 X188.289 Y145.955 E0.01387
G1 X188.307 Y146.036 E0.00276
G1 X188.34 Y146.504 E0.0156
G1 X188.342 Y146.532 E0.00093
G1 X188.341 Y146.559 E0.0009
G1 X188.307 Y147.028 E0.01564
G1 X188.29 Y147.109 E0.00275
G1 X188.203 Y147.518 E0.01391
G1 X188.156 Y147.646 E0.00454
G1 X188.031 Y147.985 E0.01202
G1 X187.941 Y148.154 E0.00637
G1 X187.795 Y148.425 E0.01024
G1 X187.65 Y148.623 E0.00816
G1 X187.504 Y148.822 E0.00821
G1 X187.289 Y149.042 E0.01023
G1 X187.151 Y149.183 E0.00656
G1 X186.871 Y149.399 E0.01176
G1 X186.761 Y149.485 E0.00464
G1 X186.399 Y149.689 E0.01382
G1 X186.327 Y149.73 E0.00276
G1 X185.897 Y149.9 E0.01538
G1 X185.864 Y149.913 E0.00118
G1 X181.397 Y151.322 E0.15579
G1 X181.015 Y151.48 E0.01375
G1 X180.662 Y151.71 E0.01401
G1 X180.355 Y152 E0.01405
G1 X180.104 Y152.34 E0.01406
G1 X179.918 Y152.718 E0.01401
G1 X179.804 Y153.124 E0.01403
G1 X179.763 Y153.544 E0.01404
G1 X179.799 Y153.965 E0.01405
G1 X179.91 Y154.372 E0.01403
G1 X180.091 Y154.753 E0.01403
G1 X180.337 Y155.096 E0.01404
G1 X180.641 Y155.388 E0.01402
G1 X180.985 Y155.616 E0.01373
G1 X181.001 Y155.625 E0.00061
G1 X185.093 Y157.842 E0.15479
G1 X185.129 Y157.865 E0.00142
G1 X185.518 Y158.112 E0.01533
G1 X185.584 Y158.168 E0.00288
G1 X185.897 Y158.435 E0.01368
G1 X185.993 Y158.544 E0.00483
G1 X186.223 Y158.805 E0.01157
G1 X186.337 Y158.978 E0.00689
G1 X186.496 Y159.217 E0.00955
G1 X186.612 Y159.461 E0.00899
G1 X186.711 Y159.669 E0.00766
G1 X186.808 Y159.981 E0.01087
G1 X186.86 Y160.146 E0.00575
G1 X186.893 Y160.346 E0.00674
G1 X186.904 Y160.412 E0.00223
G1 X186.86 Y160.412
G1 X186.499 Y160.412 E0.00921
G1 X186.435 Y160.098 E0.01066
G1 X186.26 Y159.629 E0.01665
G1 X186.013 Y159.194 E0.01664
G1 X185.7 Y158.804 E0.01663
G1 X185.328 Y158.469 E0.01665
G1 X184.916 Y158.201 E0.01635
G1 X180.812 Y155.977 E0.15525
G1 X180.77 Y155.95 E0.00165
G1 X180.441 Y155.737 E0.01304
G1 X180.379 Y155.682 E0.00276
G1 X180.125 Y155.455 E0.01133
G1 X180.034 Y155.343 E0.0048
G1 X179.856 Y155.124 E0.00939
G1 X179.755 Y154.951 E0.00666
G1 X179.637 Y154.75 E0.00775
G1 X179.546 Y154.516 E0.00835
G1 X179.482 Y154.353 E0.00582
G1 X179.415 Y154.049 E0.01035
G1 X179.391 Y153.941 E0.00368
G1 X179.37 Y153.566 E0.01249
G1 X179.366 Y153.506 E0.002
G1 X179.406 Y153.086 E0.01398
G1 X179.421 Y153.027 E0.00202
G1 X179.513 Y152.668 E0.01233
