;FLAVOR:RepRap
;TIME:1993
;Filament used: 2.06512m
;Layer height: 0.2
;MINX:92.95
;MINY:95.2
;MINZ:0.3
;MAXX:127.05
;MAXY:124.8
;MAXZ:19.9
;Generated with Cura_SteamEngine 4.6.1
T0
M190 S50
M104 S190
M109 S190
M82 ;absolute extrusion mode
G21 ;metric values
G90 ;absolute positioning
M82 ;set extruder to absolute mode
M107 ;start with the fan off
G28 X0 Y0 ;move X/Y to min endstops
G28 Z0 ;move Z to min endstops
G1 Z15.0 F9000 ;move the platform down 15mm
G92 E0 ;zero the extruded length
G1 F200 E3 ;extrude 3mm of feed stock
G92 E0 ;zero the extruded length again
G1 F9000
M117 Printing...
G5
M83 ;relative extrusion mode
G1 F1500 E-6.5
;LAYER_COUNT:99
;LAYER:0
M107
;MESH:organizador_cables.stl
G0 F3600 X125.85 Y96.4 Z0.3
;TYPE:WALL-INNER
G1 F1500 E6.5
G1 F1800 X94.15 Y96.4 E1.58152
G1 X94.15 Y123.6 E1.35701
G1 X121.35 Y123.6 E1.35701
G1 X121.35 Y103.6 E0.9978
G1 X122.15 Y103.6 E0.03991
G1 X122.15 Y124.4 E1.03772
G1 X93.35 Y124.4 E1.43684
G1 X93.35 Y95.6 E1.43684
G1 X126.65 Y95.6 E1.66134
G1 X126.65 Y115.4 E0.98783
G1 X125.514 Y115.4 E0.05668
G1 X125.052 Y114.941 E0.03249
G1 X124.708 Y114.6 E0.02417
G1 X125.192 Y114.6 E0.01298
G1 X125.193 Y114.6 E0.00005
G1 X125.312 Y114.6 E0.00594
G1 X125.85 Y114.428 E0.02818
G1 X125.85 Y96.4 E0.89942
G0 F3600 X125.45 Y96.8
;TYPE:WALL-OUTER
G1 F1800 X94.55 Y96.8 E1.54161
G1 X94.55 Y123.2 E1.3171
G1 X120.95 Y123.2 E1.3171
G1 X120.95 Y103.2 E0.9978
G1 X122.55 Y103.2 E0.07982
G1 X122.55 Y124.8 E1.07763
G1 X92.95 Y124.8 E1.47675
G1 X92.95 Y95.2 E1.47675
G1 X127.05 Y95.2 E1.70126
G1 X127.05 Y115.8 E1.02774
G1 X125.349 Y115.8 E0.08486
G1 X124.08 Y114.541 E0.08918
G1 X123.736 Y114.2 E0.02417
G1 X124.22 Y114.2 E0.01298
G1 X124.221 Y114.2 E0.00005
G1 X125.25 Y114.2 E0.05134
G1 X125.45 Y114.136 E0.01048
G1 X125.45 Y96.8 E0.8649
G0 F3600 X125.25 Y96.8
G0 X125.25 Y96.5
G0 X126.24 Y96.01
;TYPE:SKIN
G1 F1800 X93.76 Y96.01 E1.62043
G1 X93.76 Y123.99 E1.39593
G1 X121.74 Y123.99 E1.39593
G1 X121.74 Y103.99 E0.9978
G1 X121.76 Y103.99 E0.001
G1 X121.76 Y124.01 E0.9988
G1 X93.74 Y124.01 E1.39792
G1 X93.74 Y95.99 E1.39792
G1 X126.26 Y95.99 E1.62243
G1 X126.26 Y115.01 E0.94891
G1 X125.676 Y115.01 E0.02914
G1 X125.587 Y114.922 E0.00624
G1 X126.24 Y114.713 E0.03421
G1 X126.24 Y96.01 E0.9331
;MESH:NONMESH
G0 F600 X126.24 Y96.01 Z0.5
G0 F3600 X125.85 Y96.4
;TIME_ELAPSED:30.642552
;LAYER:1
M140 S50
M106 S255
;TYPE:WALL-INNER
;MESH:organizador_cables.stl
G1 F2700 X94.15 Y96.4 E1.05435
G1 X94.15 Y123.6 E0.90468
G1 X121.35 Y123.6 E0.90468
G1 X121.35 Y103.6 E0.6652
G1 X122.15 Y103.6 E0.02661
G1 X122.15 Y124.4 E0.69181
G1 X93.35 Y124.4 E0.95789
G1 X93.35 Y95.6 E0.95789
G1 X126.65 Y95.6 E1.10756
G1 X126.65 Y115.4 E0.65855
G1 X125.498 Y115.4 E0.03832
G1 X124.984 Y114.886 E0.02418
G1 X124.945 Y114.847 E0.00183
G1 X124.698 Y114.6 E0.01162
G1 X125.191 Y114.6 E0.00907
G1 X125.246 Y114.596 E0.00173
G1 X125.85 Y114.552 E0.02014
G1 X125.85 Y96.4 E0.60374
G0 F5400 X125.45 Y96.8
;TYPE:WALL-OUTER
G1 F1800 X94.55 Y96.8 E1.02774
G1 X94.55 Y123.2 E0.87807
G1 X120.95 Y123.2 E0.87807
G1 X120.95 Y103.2 E0.6652
G1 X122.55 Y103.2 E0.05322
G1 X122.55 Y124.8 E0.71842
G1 X92.95 Y124.8 E0.9845
G1 X92.95 Y95.2 E0.9845
G1 X127.05 Y95.2 E1.13417
G1 X127.05 Y115.8 E0.68516
G1 X125.332 Y115.8 E0.05714
G1 X124.072 Y114.54 E0.05927
G1 X123.732 Y114.2 E0.01599
G1 X124.212 Y114.2 E0.00859
G1 X124.214 Y114.2 E0.00007
G1 X125.176 Y114.2 E0.032
G1 X125.45 Y114.18 E0.00914
G1 X125.45 Y96.8 E0.57806
G0 F5400 X125.25 Y96.8
G0 X125.25 Y96.5
G0 X126.24 Y96.01
;TYPE:SKIN
G1 F1800 X93.76 Y96.01 E1.08029
G1 X93.76 Y123.99 E0.93062
G1 X121.74 Y123.99 E0.93062
G1 X121.74 Y103.99 E0.6652
G1 X121.76 Y103.99 E0.00067
G1 X121.76 Y124.01 E0.66587
G1 X93.74 Y124.01 E0.93195
G1 X93.74 Y95.99 E0.93195
G1 X126.26 Y95.99 E1.08162
G1 X126.26 Y115.01 E0.63261
G1 X125.658 Y115.01 E0.02002
G1 X125.609 Y114.961 E0.0023
G1 X126.24 Y114.915 E0.02104
G1 X126.24 Y96.01 E0.62878
;MESH:NONMESH
G0 F600 X126.24 Y96.01 Z0.7
G0 F5400 X125.85 Y96.4
;TIME_ELAPSED:54.041676
;LAYER:2
;TYPE:WALL-INNER
;MESH:organizador_cables.stl
G1 F3600 X94.15 Y96.4 E1.05435
G1 X94.15 Y123.6 E0.90468
G1 X121.35 Y123.6 E0.90468
G1 X121.35 Y103.6 E0.6652
G1 X122.15 Y103.6 E0.02661
G1 X122.15 Y124.4 E0.69181
G1 X93.35 Y124.4 E0.95789
G1 X93.35 Y95.6 E0.95789
G1 X126.65 Y95.6 E1.10756
G1 X126.65 Y115.4 E0.65855
G1 X125.498 Y115.4 E0.03832
G1 X124.986 Y114.888 E0.02408
G1 X124.925 Y114.827 E0.00287
G1 X124.698 Y114.6 E0.01068
G1 X125.151 Y114.6 E0.00792
G1 X125.237 Y114.594 E0.00261
G1 X125.85 Y114.549 E0.02044
G1 X125.85 Y96.4 E0.60364
G0 F7200 X125.45 Y96.8
;TYPE:WALL-OUTER
G1 F1800 X94.55 Y96.8 E1.02774
G1 X94.55 Y123.2 E0.87807
G1 X120.95 Y123.2 E0.87807
G1 X120.95 Y103.2 E0.6652
G1 X122.55 Y103.2 E0.05322
G1 X122.55 Y124.8 E0.71842
G1 X92.95 Y124.8 E0.9845
G1 X92.95 Y95.2 E0.9845
G1 X127.05 Y95.2 E1.13417
G1 X127.05 Y115.8 E0.68516
G1 X125.332 Y115.8 E0.05714
G1 X124.072 Y114.54 E0.05927
G1 X123.732 Y114.2 E0.01599
G1 X124.212 Y114.2 E0.00859
G1 X124.214 Y114.2 E0.00007
G1 X125.136 Y114.2 E0.03067
G1 X125.45 Y114.177 E0.01047
G1 X125.45 Y96.8 E0.57796
G0 F7200 X125.25 Y96.8
G0 X125.25 Y96.5
G0 X126.24 Y96.01
;TYPE:SKIN
G1 F1800 X93.76 Y96.01 E1.08029
G1 X93.76 Y123.99 E0.93062
G1 X121.74 Y123.99 E0.93062
G1 X121.74 Y103.99 E0.6652
G1 X121.76 Y103.99 E0.00067
G1 X121.76 Y124.01 E0.66587
G1 X93.74 Y124.01 E0.93195
G1 X93.74 Y95.99 E0.93195
G1 X126.26 Y95.99 E1.08162
G1 X126.26 Y115.01 E0.63261
G1 X125.658 Y115.01 E0.02002
G1 X125.606 Y114.958 E0.00245
G1 X126.24 Y114.912 E0.02114
G1 X126.24 Y96.01 E0.62868
;MESH:NONMESH
G0 F600 X126.24 Y96.01 Z0.9
G0 F7200 X125.85 Y96.4
;TIME_ELAPSED:76.042942
;LAYER:3
;TYPE:WALL-INNER
;MESH:organizador_cables.stl
G1 F3600 X94.15 Y96.4 E1.05435
G1 X94.15 Y123.6 E0.90468
G1 X121.35 Y123.6 E0.90468
G1 X121.35 Y103.6 E0.6652
G1 X122.15 Y103.6 E0.02661
G1 X122.15 Y124.4 E0.69181
G1 X93.35 Y124.4 E0.95789
G1 X93.35 Y95.6 E0.95789
G1 X126.65 Y95.6 E1.10756
G1 X126.65 Y115.4 E0.65855
G1 X125.498 Y115.4 E0.03832
G1 X124.988 Y114.89 E0.02399
G1 X124.905 Y114.807 E0.0039
G1 X124.698 Y114.6 E0.00974
G1 X125.111 Y114.6 E0.00684
G1 X125.228 Y114.592 E0.00342
G1 X125.85 Y114.546 E0.02074
G1 X125.85 Y96.4 E0.60354
G0 F7200 X125.45 Y96.8
;TYPE:WALL-OUTER
G1 F1800 X94.55 Y96.8 E1.02774
G1 X94.55 Y123.2 E0.87807
G1 X120.95 Y123.2 E0.87807
G1 X120.95 Y103.2 E0.6652
G1 X122.55 Y103.2 E0.05322
G1 X122.55 Y124.8 E0.71842
G1 X92.95 Y124.8 E0.9845
G1 X92.95 Y95.2 E0.9845
G1 X127.05 Y95.2 E1.13417
G1 X127.05 Y115.8 E0.68516
G1 X125.332 Y115.8 E0.05714
G1 X124.072 Y114.54 E0.05927
G1 X123.732 Y114.2 E0.01599
G1 X124.212 Y114.2 E0.00859
G1 X124.214 Y114.2 E0.00007
G1 X125.096 Y114.2 E0.02934
G1 X125.45 Y114.174 E0.01181
G1 X125.45 Y96.8 E0.57786
G0 F7200 X125.25 Y96.8
G0 X125.25 Y96.5
G0 X126.24 Y96.01
;TYPE:SKIN
G1 F1800 X93.76 Y96.01 E1.08029
G1 X93.76 Y123.99 E0.93062
G1 X121.74 Y123.99 E0.93062
G1 X121.74 Y103.99 E0.6652
G1 X121.76 Y103.99 E0.00067
G1 X121.76 Y124.01 E0.66587
G1 X93.74 Y124.01 E0.93195
G1 X93.74 Y95.99 E0.93195
G1 X126.26 Y95.99 E1.08162
G1 X126.26 Y115.01 E0.63261
G1 X125.658 Y115.01 E0.02002
G1 X125.603 Y114.955 E0.00259
G1 X126.24 Y114.909 E0.02124
G1 X126.24 Y96.01 E0.62858
;MESH:NONMESH
G0 F600 X126.24 Y96.01 Z1.1
G0 F7200 X125.85 Y114.6
;TIME_ELAPSED:98.205650
;LAYER:4
;TYPE:WALL-INNER
;MESH:organizador_cables.stl
G1 F3600 X125.85 Y96.4 E0.60533
G1 X94.15 Y96.4 E1.05435
G1 X94.15 Y123.6 E0.90468
G1 X121.35 Y123.6 E0.90468
G1 X121.35 Y103.6 E0.6652
G1 X122.15 Y103.6 E0.02661
G1 X122.15 Y124.4 E0.69181
G1 X93.35 Y124.4 E0.95789
G1 X93.35 Y95.6 E0.95789
G1 X126.65 Y95.6 E1.10756
G1 X126.65 Y115.4 E0.65855
G1 X125.498 Y115.4 E0.03832
G1 X125.038 Y114.94 E0.02164
G1 X124.698 Y114.6 E0.01599
G1 X125.178 Y114.6 E0.00859
G1 X125.18 Y114.6 E0.00007
G1 X125.85 Y114.6 E0.02228
G0 F7200 X125.45 Y114.2
;TYPE:WALL-OUTER
G1 F1800 X125.45 Y96.8 E0.57873
G1 X94.55 Y96.8 E1.02774
G1 X94.55 Y123.2 E0.87807
G1 X120.95 Y123.2 E0.87807
G1 X120.95 Y103.2 E0.6652
G1 X122.55 Y103.2 E0.05322
G1 X122.55 Y124.8 E0.71842
G1 X92.95 Y124.8 E0.9845
G1 X92.95 Y95.2 E0.9845
G1 X127.05 Y95.2 E1.13417
G1 X127.05 Y115.8 E0.68516
G1 X125.332 Y115.8 E0.05714
G1 X124.072 Y114.54 E0.05927
G1 X123.732 Y114.2 E0.01599
G1 X124.212 Y114.2 E0.00859
G1 X124.214 Y114.2 E0.00007
G1 X125.45 Y114.2 E0.04111
G0 F7200 X125.45 Y114
G0 X126.248 Y114.086
;TYPE:SKIN
G1 F1800 X126.248 Y113.803 E0.00954
G1 X126.248 Y96.55 E0.58151
G1 X126.115 Y96.133 E0.01475
G1 X125.414 Y95.999 E0.02405
G1 X109.009 Y95.998 E0.55293
G1 X94.019 Y95.998 E0.50524
G1 X93.75 Y96.013 E0.00908
G1 X93.75 Y123.448 E0.9247
G1 X94.3 Y123.999 E0.02624
G1 X93.883 Y123.865 E0.01476
G1 X93.601 Y124.148 E0.01347
G1 X94.866 Y123.999 E0.04293
G1 X121.736 Y123.999 E0.90565
G1 X121.749 Y119.204 E0.16162
G1 X121.749 Y104.213 E0.50527
G1 X121.925 Y103.823 E0.01442
G0 F7200 X121.955 Y103.853
G0 X121.178 Y123.428
G0 X94.322 Y123.428
G0 X94.322 Y96.572
G0 X126.454 Y96.189
G0 X126.256 Y95.992
G1 F1800 X126.398 Y95.851 E0.0119
G0 F7200 X126.454 Y95.907
G0 X126.043 Y114.164
G0 X126.248 Y114.369
G1 F1800 X126.248 Y114.652 E0.01314
G1 X126.248 Y114.935 E0.01314
G1 X125.464 Y114.999 E0.03652
G0 F7200 X125.26 Y114.8
;MESH:NONMESH
G0 F600 X125.26 Y114.8 Z1.3
G0 F7200 X125.85 Y114.6
;TIME_ELAPSED:117.139894
;LAYER:5
;TYPE:WALL-INNER
;MESH:organizador_cables.stl
G1 F3600 X125.85 Y96.4 E0.60533
G1 X94.15 Y96.4 E1.05435
G1 X94.15 Y123.6 E0.90468
G1 X121.35 Y123.6 E0.90468
G1 X121.35 Y103.6 E0.6652
G1 X122.15 Y103.6 E0.02661
G1 X122.15 Y124.4 E0.69181
G1 X93.35 Y124.4 E0.95789
G1 X93.35 Y95.6 E0.95789
G1 X126.65 Y95.6 E1.10756
G1 X126.65 Y115.4 E0.65855
G1 X125.498 Y115.4 E0.03832
G1 X125.038 Y114.94 E0.02164
G1 X124.698 Y114.6 E0.01599
G1 X125.178 Y114.6 E0.00859
G1 X125.18 Y114.6 E0.00007
G1 X125.85 Y114.6 E0.02228
G0 F7200 X125.45 Y114.2
;TYPE:WALL-OUTER
G1 F1800 X125.45 Y96.8 E0.57873
G1 X94.55 Y96.8 E1.02774
G1 X94.55 Y123.2 E0.87807
G1 X120.95 Y123.2 E0.87807
G1 X120.95 Y103.2 E0.6652
G1 X122.55 Y103.2 E0.05322
G1 X122.55 Y124.8 E0.71842
G1 X92.95 Y124.8 E0.9845
G1 X92.95 Y95.2 E0.9845
G1 X127.05 Y95.2 E1.13417
G1 X127.05 Y115.8 E0.68516
G1 X125.332 Y115.8 E0.05714
G1 X124.072 Y114.54 E0.05927
G1 X123.732 Y114.2 E0.01599
G1 X124.212 Y114.2 E0.00859
G1 X124.214 Y114.2 E0.00007
G1 X125.45 Y114.2 E0.04111
G0 F7200 X125.45 Y114
G0 X126.249 Y113.883
;TYPE:SKIN
G1 F1800 X126.249 Y113.601 E0.00959
G1 X126.249 Y96.064 E0.59651
G1 X125.466 Y95.999 E0.02673
G1 X108.778 Y95.998 E0.56764
G1 X94.353 Y95.998 E0.49066
G1 X93.91 Y96.159 E0.01603
G1 X93.749 Y96.885 E0.02529
G1 X93.749 Y123.755 E0.91397
G1 X93.789 Y123.998 E0.00838
G1 X121.225 Y123.998 E0.93323
G1 X121.749 Y123.474 E0.02521
G1 X121.749 Y104.241 E0.6542
G1 X121.587 Y103.837 E0.01481
G0 F7200 X121.63 Y103.794
G0 X121.178 Y123.428
G0 X94.322 Y123.428
G0 X94.322 Y96.572
G0 X125.678 Y96.572
G0 X126.454 Y113.962
G0 X126.249 Y114.166
G1 F1800 X126.249 Y114.449 E0.0075
G1 X126.115 Y114.866 E0.0116
G1 X125.507 Y114.908 E0.01614
G1 X125.295 Y114.837 E0.00592
G1 X126.256 Y115.007 E0.02585
G1 X126.398 Y115.149 E0.00532
G0 F7200 X126.342 Y115.205
G0 X126.822 Y95.428
G0 X93.178 Y95.428
G0 X93.178 Y124.572
G0 X121.954 Y123.552
G1 F1800 X121.303 Y124.204 E0.01532
G0 F7200 X121.77 Y124.019
G1 F1800 X121.911 Y124.161 E0.01067
G0 F7200 X121.869 Y124.204
G0 X94.322 Y123.428
G0 X93.545 Y96.242
G1 F1800 X93.993 Y95.793 E0.01055
G0 F7200 X93.71 Y95.793
G1 F1800 X93.545 Y95.959 E0.00389
G0 F7200 X93.55 Y95.959
;MESH:NONMESH
G0 F600 X93.55 Y95.959 Z1.5
G0 F7200 X126.822 Y95.428
G0 X125.85 Y114.6
;TIME_ELAPSED:138.118079
;LAYER:6
;TYPE:WALL-INNER
;MESH:organizador_cables.stl
G1 F3600 X125.85 Y96.4 E0.60533
G1 X94.15 Y96.4 E1.05435
G1 X94.15 Y123.6 E0.90468
G1 X121.35 Y123.6 E0.90468
G1 X121.35 Y103.6 E0.6652
G1 X122.15 Y103.6 E0.02661
G1 X122.15 Y124.4 E0.69181
G1 X93.35 Y124.4 E0.95789
G1 X93.35 Y95.6 E0.95789
G1 X126.65 Y95.6 E1.10756
G1 X126.65 Y115.4 E0.65855
G1 X125.498 Y115.4 E0.03832
G1 X125.038 Y114.94 E0.02164
G1 X124.698 Y114.6 E0.01599
G1 X125.178 Y114.6 E0.00859
G1 X125.18 Y114.6 E0.00007
G1 X125.85 Y114.6 E0.02228
G0 F7200 X125.45 Y114.2
;TYPE:WALL-OUTER
G1 F1800 X125.45 Y96.8 E0.57873
G1 X94.55 Y96.8 E1.02774
G1 X94.55 Y123.2 E0.87807
G1 X120.95 Y123.2 E0.87807
G1 X120.95 Y103.2 E0.6652
G1 X122.55 Y103.2 E0.05322
G1 X122.55 Y124.8 E0.71842
G1 X92.95 Y124.8 E0.9845
G1 X92.95 Y95.2 E0.9845
G1 X127.05 Y95.2 E1.13417
G1 X127.05 Y115.8 E0.68516
G1 X125.332 Y115.8 E0.05714
G1 X124.072 Y114.54 E0.05927
G1 X123.732 Y114.2 E0.01599
G1 X124.212 Y114.2 E0.00859
G1 X124.214 Y114.2 E0.00007
G1 X125.45 Y114.2 E0.04111
G0 F7200 X125.45 Y114
G0 X126.248 Y114.086
;TYPE:SKIN
G1 F1800 X126.248 Y113.803 E0.00954
G1 X126.248 Y96.55 E0.58151
G1 X126.115 Y96.133 E0.01475
G1 X125.414 Y95.999 E0.02405
G1 X109.009 Y95.998 E0.55293
G1 X94.019 Y95.998 E0.50524
G1 X93.75 Y96.013 E0.00908
G1 X93.75 Y123.448 E0.9247
G1 X94.3 Y123.999 E0.02624
G1 X93.883 Y123.865 E0.01476
G1 X93.601 Y124.148 E0.01347
G1 X94.866 Y123.999 E0.04293
G1 X121.736 Y123.999 E0.90565
G1 X121.749 Y119.204 E0.16162
G1 X121.749 Y104.213 E0.50527
G1 X121.925 Y103.823 E0.01442
G0 F7200 X121.955 Y103.853
G0 X121.178 Y123.428
G0 X94.322 Y123.428
G0 X94.322 Y96.572
G0 X126.454 Y96.189
G0 X126.256 Y95.992
G1 F1800 X126.398 Y95.851 E0.0119
G0 F7200 X126.454 Y95.907
G0 X126.043 Y114.164
G0 X126.248 Y114.369
G1 F1800 X126.248 Y114.652 E0.01314
G1 X126.248 Y114.935 E0.01314
G1 X125.464 Y114.999 E0.03652
G0 F7200 X125.26 Y114.8
;MESH:NONMESH
G0 F600 X125.26 Y114.8 Z1.7
G0 F7200 X125.85 Y114.6
;TIME_ELAPSED:157.052323
;LAYER:7
;TYPE:WALL-INNER
;MESH:organizador_cables.stl
G1 F3600 X125.85 Y96.4 E0.60533
G1 X94.15 Y96.4 E1.05435
G1 X94.15 Y123.6 E0.90468
G1 X121.35 Y123.6 E0.90468
G1 X121.35 Y103.6 E0.6652
G1 X122.15 Y103.6 E0.02661
G1 X122.15 Y124.4 E0.69181
G1 X93.35 Y124.4 E0.95789
G1 X93.35 Y95.6 E0.95789
G1 X126.65 Y95.6 E1.10756
G1 X126.65 Y115.4 E0.65855
G1 X125.498 Y115.4 E0.03832
G1 X125.038 Y114.94 E0.02164
G1 X124.698 Y114.6 E0.01599
G1 X125.178 Y114.6 E0.00859
G1 X125.18 Y114.6 E0.00007
G1 X125.85 Y114.6 E0.02228
G0 F7200 X125.45 Y114.2
;TYPE:WALL-OUTER
G1 F1800 X125.45 Y96.8 E0.57873
G1 X94.55 Y96.8 E1.02774
G1 X94.55 Y123.2 E0.87807
G1 X120.95 Y123.2 E0.87807
G1 X120.95 Y103.2 E0.6652
G1 X122.55 Y103.2 E0.05322
G1 X122.55 Y124.8 E0.71842
G1 X92.95 Y124.8 E0.9845
G1 X92.95 Y95.2 E0.9845
G1 X127.05 Y95.2 E1.13417
G1 X127.05 Y115.8 E0.68516
G1 X125.332 Y115.8 E0.05714
G1 X124.072 Y114.54 E0.05927
G1 X123.732 Y114.2 E0.01599
G1 X124.212 Y114.2 E0.00859
G1 X124.214 Y114.2 E0.00007
G1 X125.45 Y114.2 E0.04111
G0 F7200 X125.45 Y114
G0 X126.249 Y113.883
;TYPE:SKIN
G1 F1800 X126.249 Y113.601 E0.00959
G1 X126.249 Y96.064 E0.59651
G1 X125.466 Y95.999 E0.02673
G1 X108.778 Y95.998 E0.56764
G1 X94.353 Y95.998 E0.49066
G1 X93.91 Y96.159 E0.01603
G1 X93.749 Y96.885 E0.02529
G1 X93.749 Y123.755 E0.91397
G1 X93.789 Y123.998 E0.00838
G1 X121.225 Y123.998 E0.93323
G1 X121.749 Y123.474 E0.02521
G1 X121.749 Y104.241 E0.6542
G1 X121.587 Y103.837 E0.01481
G0 F7200 X121.63 Y103.794
G0 X121.178 Y123.428
G0 X94.322 Y123.428
G0 X94.322 Y96.572
G0 X125.678 Y96.572
G0 X126.454 Y113.962
G0 X126.249 Y114.166
G1 F1800 X126.249 Y114.449 E0.0075
G1 X126.115 Y114.866 E0.0116
G1 X125.507 Y114.908 E0.01614
G1 X125.295 Y114.837 E0.00592
G1 X126.256 Y115.007 E0.02585
G1 X126.398 Y115.149 E0.00532
G0 F7200 X126.342 Y115.205
G0 X126.822 Y95.428
G0 X93.178 Y95.428
G0 X93.178 Y124.572
G0 X121.954 Y123.552
G1 F1800 X121.303 Y124.204 E0.01532
G0 F7200 X121.77 Y124.019
G1 F1800 X121.911 Y124.161 E0.01067
G0 F7200 X121.869 Y124.204
G0 X94.322 Y123.428
G0 X93.545 Y96.242
G1 F1800 X93.993 Y95.793 E0.01055
G0 F7200 X93.71 Y95.793
G1 F1800 X93.545 Y95.959 E0.00389
G0 F7200 X93.55 Y95.959
;MESH:NONMESH
G0 F600 X93.55 Y95.959 Z1.9
G0 F7200 X126.822 Y95.428
G0 X125.85 Y114.6
;TIME_ELAPSED:178.030508
;LAYER:8
;TYPE:WALL-INNER
;MESH:organizador_cables.stl
G1 F3600 X125.85 Y96.4 E0.60533
G1 X94.15 Y96.4 E1.05435
G1 X94.15 Y123.6 E0.90468
G1 X121.35 Y123.6 E0.90468
G1 X121.35 Y103.6 E0.6652
G1 X122.15 Y103.6 E0.02661
