;FLAVOR:RepRap
;TIME:8093
;Filament used: 8.25996m
;Layer height: 0.2
;MINX:62.95
;MINY:94.347
;MINZ:0.3
;MAXX:135.05
;MAXY:156.8
;MAXZ:19.9
;Generated with Cura_SteamEngine 4.6.1
T0
M190 S50
M104 S190
M109 S190
M82 ;absolute extrusion mode
G21 ;metric values
G90 ;absolute positioning
M82 ;set extruder to absolute mode
M107 ;start with the fan off
G28 X0 Y0 ;move X/Y to min endstops
G28 Z0 ;move Z to min endstops
G1 Z15.0 F9000 ;move the platform down 15mm
G92 E0 ;zero the extruded length
G1 F200 E3 ;extrude 3mm of feed stock
G92 E0 ;zero the extruded length again
G1 F9000
M117 Printing...
G5
M83 ;relative extrusion mode
G1 F1500 E-6.5
;LAYER_COUNT:99
;LAYER:0
M107
;MESH:organizador_cables.stl
G0 F3600 X95.85 Y96.4 Z0.3
;TYPE:WALL-INNER
G1 F1500 E6.5
G1 F1800 X64.15 Y96.4 E1.58152
G1 X64.15 Y123.6 E1.35701
G1 X91.35 Y123.6 E1.35701
G1 X91.35 Y103.6 E0.9978
G1 X92.15 Y103.6 E0.03991
G1 X92.15 Y124.4 E1.03772
G1 X63.35 Y124.4 E1.43684
G1 X63.35 Y95.6 E1.43684
G1 X96.65 Y95.6 E1.66134
G1 X96.65 Y115.4 E0.98783
G1 X95.514 Y115.4 E0.05668
G1 X95.052 Y114.941 E0.03249
G1 X94.708 Y114.6 E0.02417
G1 X95.192 Y114.6 E0.01298
G1 X95.193 Y114.6 E0.00005
G1 X95.312 Y114.6 E0.00594
G1 X95.85 Y114.428 E0.02818
G1 X95.85 Y96.4 E0.89942
G0 F3600 X95.45 Y96.8
;TYPE:WALL-OUTER
G1 F1800 X64.55 Y96.8 E1.54161
G1 X64.55 Y123.2 E1.3171
G1 X90.95 Y123.2 E1.3171
G1 X90.95 Y103.2 E0.9978
G1 X92.55 Y103.2 E0.07982
G1 X92.55 Y124.8 E1.07763
G1 X62.95 Y124.8 E1.47675
G1 X62.95 Y95.2 E1.47675
G1 X97.05 Y95.2 E1.70126
G1 X97.05 Y115.8 E1.02774
G1 X95.349 Y115.8 E0.08486
G1 X94.08 Y114.541 E0.08918
G1 X93.736 Y114.2 E0.02417
G1 X94.22 Y114.2 E0.01298
G1 X94.221 Y114.2 E0.00005
G1 X95.25 Y114.2 E0.05134
G1 X95.45 Y114.136 E0.01048
G1 X95.45 Y96.8 E0.8649
G0 F3600 X95.25 Y96.8
G0 X95.25 Y96.5
G0 X96.24 Y96.01
;TYPE:SKIN
G1 F1800 X63.76 Y96.01 E1.62043
G1 X63.76 Y123.99 E1.39593
G1 X91.74 Y123.99 E1.39593
G1 X91.74 Y103.99 E0.9978
G1 X91.76 Y103.99 E0.001
G1 X91.76 Y124.01 E0.9988
G1 X63.74 Y124.01 E1.39792
G1 X63.74 Y95.99 E1.39792
G1 X96.26 Y95.99 E1.62243
G1 X96.26 Y115.01 E0.94891
G1 X95.676 Y115.01 E0.02914
G1 X95.587 Y114.922 E0.00624
G1 X96.24 Y114.713 E0.03421
G1 X96.24 Y96.01 E0.9331
G1 F1500 E-6.5
;MESH:organizador_cables.stl(1)
G0 F3600 X95.85 Y115.58
G0 X95.85 Y116.665
G0 X95.85 Y126.335
G0 X95.85 Y127.42
G0 X95.85 Y128.4
;TYPE:WALL-INNER
G1 F1500 E6.5
G1 F1800 X64.15 Y128.4 E1.58152
G1 X64.15 Y155.6 E1.35701
G1 X91.35 Y155.6 E1.35701
G1 X91.35 Y135.6 E0.9978
G1 X92.15 Y135.6 E0.03991
G1 X92.15 Y156.4 E1.03772
G1 X63.35 Y156.4 E1.43684
G1 X63.35 Y127.6 E1.43684
G1 X96.65 Y127.6 E1.66134
G1 X96.65 Y147.4 E0.98783
G1 X95.514 Y147.4 E0.05668
G1 X95.052 Y146.941 E0.03249
G1 X94.708 Y146.6 E0.02417
G1 X95.192 Y146.6 E0.01298
G1 X95.193 Y146.6 E0.00005
G1 X95.312 Y146.6 E0.00594
G1 X95.85 Y146.428 E0.02818
G1 X95.85 Y128.4 E0.89942
G0 F3600 X95.45 Y128.8
;TYPE:WALL-OUTER
G1 F1800 X64.55 Y128.8 E1.54161
G1 X64.55 Y155.2 E1.3171
G1 X90.95 Y155.2 E1.3171
G1 X90.95 Y135.2 E0.9978
G1 X92.55 Y135.2 E0.07982
G1 X92.55 Y156.8 E1.07763
G1 X62.95 Y156.8 E1.47675
G1 X62.95 Y127.2 E1.47675
G1 X97.05 Y127.2 E1.70126
G1 X97.05 Y147.8 E1.02774
G1 X95.349 Y147.8 E0.08486
G1 X94.08 Y146.541 E0.08918
G1 X93.736 Y146.2 E0.02417
G1 X94.22 Y146.2 E0.01298
G1 X94.221 Y146.2 E0.00005
G1 X95.25 Y146.2 E0.05134
G1 X95.45 Y146.136 E0.01048
G1 X95.45 Y128.8 E0.8649
G0 F3600 X95.25 Y128.8
G0 X95.25 Y128.5
G0 X96.24 Y128.01
;TYPE:SKIN
G1 F1800 X63.76 Y128.01 E1.62043
G1 X63.76 Y155.99 E1.39593
G1 X91.74 Y155.99 E1.39593
G1 X91.74 Y135.99 E0.9978
G1 X91.76 Y135.99 E0.001
G1 X91.76 Y156.01 E0.9988
G1 X63.74 Y156.01 E1.39792
G1 X63.74 Y127.99 E1.39792
G1 X96.26 Y127.99 E1.62243
G1 X96.26 Y147.01 E0.94891
G1 X95.676 Y147.01 E0.02914
G1 X95.587 Y146.922 E0.00624
G1 X96.24 Y146.713 E0.03421
G1 X96.24 Y128.01 E0.9331
G1 F1500 E-6.5
;MESH:organizador_cables.stl(3)
G0 F3600 X97.915 Y128.4
G0 X100.085 Y128.4
G0 X101.17 Y128.4
G0 X133.85 Y128.4
;TYPE:WALL-INNER
G1 F1500 E6.5
G1 F1800 X102.15 Y128.4 E1.58152
G1 X102.15 Y155.6 E1.35701
G1 X129.35 Y155.6 E1.35701
G1 X129.35 Y135.6 E0.9978
G1 X130.15 Y135.6 E0.03991
G1 X130.15 Y156.4 E1.03772
G1 X101.35 Y156.4 E1.43684
G1 X101.35 Y127.6 E1.43684
G1 X134.65 Y127.6 E1.66134
G1 X134.65 Y147.4 E0.98783
G1 X133.514 Y147.4 E0.05668
G1 X133.052 Y146.941 E0.03249
G1 X132.708 Y146.6 E0.02417
G1 X133.192 Y146.6 E0.01298
G1 X133.193 Y146.6 E0.00005
G1 X133.312 Y146.6 E0.00594
G1 X133.85 Y146.428 E0.02818
G1 X133.85 Y128.4 E0.89942
G0 F3600 X133.45 Y128.8
;TYPE:WALL-OUTER
G1 F1800 X102.55 Y128.8 E1.54161
G1 X102.55 Y155.2 E1.3171
G1 X128.95 Y155.2 E1.3171
G1 X128.95 Y135.2 E0.9978
G1 X130.55 Y135.2 E0.07982
G1 X130.55 Y156.8 E1.07763
G1 X100.95 Y156.8 E1.47675
G1 X100.95 Y127.2 E1.47675
G1 X135.05 Y127.2 E1.70126
G1 X135.05 Y147.8 E1.02774
G1 X133.349 Y147.8 E0.08486
G1 X132.08 Y146.541 E0.08918
G1 X131.736 Y146.2 E0.02417
G1 X132.22 Y146.2 E0.01298
G1 X132.221 Y146.2 E0.00005
G1 X133.25 Y146.2 E0.05134
G1 X133.45 Y146.136 E0.01048
G1 X133.45 Y128.8 E0.8649
G0 F3600 X133.25 Y128.8
G0 X133.25 Y128.5
G0 X134.24 Y128.01
;TYPE:SKIN
G1 F1800 X101.76 Y128.01 E1.62043
G1 X101.76 Y155.99 E1.39593
G1 X129.74 Y155.99 E1.39593
G1 X129.74 Y135.99 E0.9978
G1 X129.76 Y135.99 E0.001
G1 X129.76 Y156.01 E0.9988
G1 X101.74 Y156.01 E1.39792
G1 X101.74 Y127.99 E1.39792
G1 X134.26 Y127.99 E1.62243
G1 X134.26 Y147.01 E0.94891
G1 X133.676 Y147.01 E0.02914
G1 X133.587 Y146.922 E0.00624
G1 X134.24 Y146.713 E0.03421
G1 X134.24 Y128.01 E0.9331
G1 F1500 E-6.5
;MESH:organizador_cables.stl(2)
G0 F3600 X133.85 Y126.335
G0 X133.85 Y116.665
G0 X133.85 Y115.58
G0 X133.85 Y96.4
;TYPE:WALL-INNER
G1 F1500 E6.5
G1 F1800 X102.15 Y96.4 E1.58152
G1 X102.15 Y123.6 E1.35701
G1 X129.35 Y123.6 E1.35701
G1 X129.35 Y103.6 E0.9978
G1 X130.15 Y103.6 E0.03991
G1 X130.15 Y124.4 E1.03772
G1 X101.35 Y124.4 E1.43684
G1 X101.35 Y95.6 E1.43684
G1 X134.65 Y95.6 E1.66134
G1 X134.65 Y115.4 E0.98783
G1 X133.514 Y115.4 E0.05668
G1 X133.052 Y114.941 E0.03249
G1 X132.708 Y114.6 E0.02417
G1 X133.192 Y114.6 E0.01298
G1 X133.193 Y114.6 E0.00005
G1 X133.312 Y114.6 E0.00594
G1 X133.85 Y114.428 E0.02818
G1 X133.85 Y96.4 E0.89942
G0 F3600 X133.45 Y96.8
;TYPE:WALL-OUTER
G1 F1800 X102.55 Y96.8 E1.54161
G1 X102.55 Y123.2 E1.3171
G1 X128.95 Y123.2 E1.3171
G1 X128.95 Y103.2 E0.9978
G1 X130.55 Y103.2 E0.07982
G1 X130.55 Y124.8 E1.07763
G1 X100.95 Y124.8 E1.47675
G1 X100.95 Y95.2 E1.47675
G1 X135.05 Y95.2 E1.70126
G1 X135.05 Y115.8 E1.02774
G1 X133.349 Y115.8 E0.08486
G1 X132.08 Y114.541 E0.08918
G1 X131.736 Y114.2 E0.02417
G1 X132.22 Y114.2 E0.01298
G1 X132.221 Y114.2 E0.00005
G1 X133.25 Y114.2 E0.05134
G1 X133.45 Y114.136 E0.01048
G1 X133.45 Y96.8 E0.8649
G0 F3600 X133.25 Y96.8
G0 X133.25 Y96.5
G0 X134.24 Y96.01
;TYPE:SKIN
G1 F1800 X101.76 Y96.01 E1.62043
G1 X101.76 Y123.99 E1.39593
G1 X129.74 Y123.99 E1.39593
G1 X129.74 Y103.99 E0.9978
G1 X129.76 Y103.99 E0.001
G1 X129.76 Y124.01 E0.9988
G1 X101.74 Y124.01 E1.39792
G1 X101.74 Y95.99 E1.39792
G1 X134.26 Y95.99 E1.62243
G1 X134.26 Y115.01 E0.94891
G1 X133.676 Y115.01 E0.02914
G1 X133.587 Y114.922 E0.00624
G1 X134.24 Y114.713 E0.03421
G1 X134.24 Y96.01 E0.9331
G1 F1500 E-6.5
;MESH:NONMESH
G0 F600 X134.24 Y96.01 Z0.5
G0 F3600 X101.17 Y96.4
G0 X100.085 Y96.4
G0 X97.915 Y96.4
G0 X96.83 Y96.4
G0 X95.85 Y96.4
;TIME_ELAPSED:112.185189
;LAYER:1
M140 S50
M106 S255
;TYPE:WALL-INNER
;MESH:organizador_cables.stl
G1 F1500 E6.5
G1 F2700 X64.15 Y96.4 E1.05435
G1 X64.15 Y123.6 E0.90468
G1 X91.35 Y123.6 E0.90468
G1 X91.35 Y103.6 E0.6652
G1 X92.15 Y103.6 E0.02661
G1 X92.15 Y124.4 E0.69181
G1 X63.35 Y124.4 E0.95789
G1 X63.35 Y95.6 E0.95789
G1 X96.65 Y95.6 E1.10756
G1 X96.65 Y115.4 E0.65855
G1 X95.498 Y115.4 E0.03832
G1 X94.984 Y114.886 E0.02418
G1 X94.945 Y114.847 E0.00183
G1 X94.698 Y114.6 E0.01162
G1 X95.191 Y114.6 E0.00907
G1 X95.246 Y114.596 E0.00173
G1 X95.85 Y114.552 E0.02014
G1 X95.85 Y96.4 E0.60374
G0 F5400 X95.45 Y96.8
;TYPE:WALL-OUTER
G1 F1800 X64.55 Y96.8 E1.02774
G1 X64.55 Y123.2 E0.87807
G1 X90.95 Y123.2 E0.87807
G1 X90.95 Y103.2 E0.6652
G1 X92.55 Y103.2 E0.05322
G1 X92.55 Y124.8 E0.71842
G1 X62.95 Y124.8 E0.9845
G1 X62.95 Y95.2 E0.9845
G1 X97.05 Y95.2 E1.13417
G1 X97.05 Y115.8 E0.68516
G1 X95.332 Y115.8 E0.05714
G1 X94.072 Y114.54 E0.05927
G1 X93.732 Y114.2 E0.01599
G1 X94.212 Y114.2 E0.00859
G1 X94.214 Y114.2 E0.00007
G1 X95.176 Y114.2 E0.032
G1 X95.45 Y114.18 E0.00914
G1 X95.45 Y96.8 E0.57806
G0 F5400 X95.25 Y96.8
G0 X95.25 Y96.5
G0 X96.24 Y96.01
;TYPE:SKIN
G1 F1800 X63.76 Y96.01 E1.08029
G1 X63.76 Y123.99 E0.93062
G1 X91.74 Y123.99 E0.93062
G1 X91.74 Y103.99 E0.6652
G1 X91.76 Y103.99 E0.00067
G1 X91.76 Y124.01 E0.66587
G1 X63.74 Y124.01 E0.93195
G1 X63.74 Y95.99 E0.93195
G1 X96.26 Y95.99 E1.08162
G1 X96.26 Y115.01 E0.63261
G1 X95.658 Y115.01 E0.02002
G1 X95.609 Y114.961 E0.0023
G1 X96.24 Y114.915 E0.02104
G1 X96.24 Y96.01 E0.62878
G1 F1500 E-6.5
;MESH:organizador_cables.stl(1)
G0 F5400 X95.85 Y115.58
G0 X95.85 Y116.665
G0 X95.85 Y126.335
G0 X95.85 Y127.42
G0 X95.85 Y128.4
;TYPE:WALL-INNER
G1 F1500 E6.5
G1 F2700 X64.15 Y128.4 E1.05435
G1 X64.15 Y155.6 E0.90468
G1 X91.35 Y155.6 E0.90468
G1 X91.35 Y135.6 E0.6652
G1 X92.15 Y135.6 E0.02661
G1 X92.15 Y156.4 E0.69181
G1 X63.35 Y156.4 E0.95789
G1 X63.35 Y127.6 E0.95789
G1 X96.65 Y127.6 E1.10756
G1 X96.65 Y147.4 E0.65855
G1 X95.498 Y147.4 E0.03832
G1 X94.984 Y146.886 E0.02418
G1 X94.945 Y146.847 E0.00183
G1 X94.698 Y146.6 E0.01162
G1 X95.191 Y146.6 E0.00907
G1 X95.246 Y146.596 E0.00173
G1 X95.85 Y146.552 E0.02014
G1 X95.85 Y128.4 E0.60374
G0 F5400 X95.45 Y128.8
;TYPE:WALL-OUTER
G1 F1800 X64.55 Y128.8 E1.02774
G1 X64.55 Y155.2 E0.87807
G1 X90.95 Y155.2 E0.87807
G1 X90.95 Y135.2 E0.6652
G1 X92.55 Y135.2 E0.05322
G1 X92.55 Y156.8 E0.71842
G1 X62.95 Y156.8 E0.9845
G1 X62.95 Y127.2 E0.9845
G1 X97.05 Y127.2 E1.13417
G1 X97.05 Y147.8 E0.68516
G1 X95.332 Y147.8 E0.05714
G1 X94.072 Y146.54 E0.05927
G1 X93.732 Y146.2 E0.01599
G1 X94.212 Y146.2 E0.00859
G1 X94.214 Y146.2 E0.00007
G1 X95.176 Y146.2 E0.032
G1 X95.45 Y146.18 E0.00914
G1 X95.45 Y128.8 E0.57806
G0 F5400 X95.25 Y128.8
G0 X95.25 Y128.5
G0 X96.24 Y128.01
;TYPE:SKIN
G1 F1800 X63.76 Y128.01 E1.08029
G1 X63.76 Y155.99 E0.93062
G1 X91.74 Y155.99 E0.93062
G1 X91.74 Y135.99 E0.6652
G1 X91.76 Y135.99 E0.00067
G1 X91.76 Y156.01 E0.66587
G1 X63.74 Y156.01 E0.93195
G1 X63.74 Y127.99 E0.93195
G1 X96.26 Y127.99 E1.08162
G1 X96.26 Y147.01 E0.63261
G1 X95.658 Y147.01 E0.02002
G1 X95.609 Y146.961 E0.0023
G1 X96.24 Y146.915 E0.02104
G1 X96.24 Y128.01 E0.62878
G1 F1500 E-6.5
;MESH:organizador_cables.stl(3)
G0 F5400 X97.915 Y128.4
G0 X100.085 Y128.4
G0 X101.17 Y128.4
G0 X133.85 Y128.4
;TYPE:WALL-INNER
G1 F1500 E6.5
G1 F2700 X102.15 Y128.4 E1.05435
G1 X102.15 Y155.6 E0.90468
G1 X129.35 Y155.6 E0.90468
G1 X129.35 Y135.6 E0.6652
G1 X130.15 Y135.6 E0.02661
G1 X130.15 Y156.4 E0.69181
G1 X101.35 Y156.4 E0.95789
G1 X101.35 Y127.6 E0.95789
G1 X134.65 Y127.6 E1.10756
G1 X134.65 Y147.4 E0.65855
G1 X133.498 Y147.4 E0.03832
G1 X132.984 Y146.886 E0.02418
G1 X132.945 Y146.847 E0.00183
G1 X132.698 Y146.6 E0.01162
G1 X133.191 Y146.6 E0.00907
G1 X133.246 Y146.596 E0.00173
G1 X133.85 Y146.552 E0.02014
G1 X133.85 Y128.4 E0.60374
G0 F5400 X133.45 Y128.8
;TYPE:WALL-OUTER
G1 F1800 X102.55 Y128.8 E1.02774
G1 X102.55 Y155.2 E0.87807
G1 X128.95 Y155.2 E0.87807
G1 X128.95 Y135.2 E0.6652
G1 X130.55 Y135.2 E0.05322
G1 X130.55 Y156.8 E0.71842
G1 X100.95 Y156.8 E0.9845
G1 X100.95 Y127.2 E0.9845
G1 X135.05 Y127.2 E1.13417
G1 X135.05 Y147.8 E0.68516
G1 X133.332 Y147.8 E0.05714
G1 X132.072 Y146.54 E0.05927
G1 X131.732 Y146.2 E0.01599
G1 X132.212 Y146.2 E0.00859
G1 X132.214 Y146.2 E0.00007
G1 X133.176 Y146.2 E0.032
G1 X133.45 Y146.18 E0.00914
G1 X133.45 Y128.8 E0.57806
G0 F5400 X133.25 Y128.8
G0 X133.25 Y128.5
G0 X134.24 Y128.01
;TYPE:SKIN
G1 F1800 X101.76 Y128.01 E1.08029
G1 X101.76 Y155.99 E0.93062
G1 X129.74 Y155.99 E0.93062
G1 X129.74 Y135.99 E0.6652
G1 X129.76 Y135.99 E0.00067
G1 X129.76 Y156.01 E0.66587
G1 X101.74 Y156.01 E0.93195
G1 X101.74 Y127.99 E0.93195
G1 X134.26 Y127.99 E1.08162
G1 X134.26 Y147.01 E0.63261
G1 X133.658 Y147.01 E0.02002
G1 X133.609 Y146.961 E0.0023
G1 X134.24 Y146.915 E0.02104
G1 X134.24 Y128.01 E0.62878
G1 F1500 E-6.5
;MESH:organizador_cables.stl(2)
G0 F5400 X133.85 Y126.335
G0 X133.85 Y116.665
G0 X133.85 Y115.58
G0 X133.85 Y96.4
;TYPE:WALL-INNER
G1 F1500 E6.5
G1 F2700 X102.15 Y96.4 E1.05435
G1 X102.15 Y123.6 E0.90468
G1 X129.35 Y123.6 E0.90468
G1 X129.35 Y103.6 E0.6652
G1 X130.15 Y103.6 E0.02661
G1 X130.15 Y124.4 E0.69181
G1 X101.35 Y124.4 E0.95789
G1 X101.35 Y95.6 E0.95789
G1 X134.65 Y95.6 E1.10756
G1 X134.65 Y115.4 E0.65855
G1 X133.498 Y115.4 E0.03832
G1 X132.984 Y114.886 E0.02418
G1 X132.945 Y114.847 E0.00183
G1 X132.698 Y114.6 E0.01162
G1 X133.191 Y114.6 E0.00907
G1 X133.246 Y114.596 E0.00173
G1 X133.85 Y114.552 E0.02014
G1 X133.85 Y96.4 E0.60374
G0 F5400 X133.45 Y96.8
;TYPE:WALL-OUTER
G1 F1800 X102.55 Y96.8 E1.02774
G1 X102.55 Y123.2 E0.87807
G1 X128.95 Y123.2 E0.87807
G1 X128.95 Y103.2 E0.6652
G1 X130.55 Y103.2 E0.05322
G1 X130.55 Y124.8 E0.71842
G1 X100.95 Y124.8 E0.9845
G1 X100.95 Y95.2 E0.9845
G1 X135.05 Y95.2 E1.13417
G1 X135.05 Y115.8 E0.68516
G1 X133.332 Y115.8 E0.05714
G1 X132.072 Y114.54 E0.05927
G1 X131.732 Y114.2 E0.01599
G1 X132.212 Y114.2 E0.00859
G1 X132.214 Y114.2 E0.00007
G1 X133.176 Y114.2 E0.032
G1 X133.45 Y114.18 E0.00914
G1 X133.45 Y96.8 E0.57806
G0 F5400 X133.25 Y96.8
G0 X133.25 Y96.5
G0 X134.24 Y96.01
;TYPE:SKIN
G1 F1800 X101.76 Y96.01 E1.08029
G1 X101.76 Y123.99 E0.93062
G1 X129.74 Y123.99 E0.93062
G1 X129.74 Y103.99 E0.6652
G1 X129.76 Y103.99 E0.00067
G1 X129.76 Y124.01 E0.66587
G1 X101.74 Y124.01 E0.93195
G1 X101.74 Y95.99 E0.93195
G1 X134.26 Y95.99 E1.08162
G1 X134.26 Y115.01 E0.63261
G1 X133.658 Y115.01 E0.02002
G1 X133.609 Y114.961 E0.0023
G1 X134.24 Y114.915 E0.02104
G1 X134.24 Y96.01 E0.62878
G1 F1500 E-6.5
;MESH:NONMESH
G0 F600 X134.24 Y96.01 Z0.7
G0 F5400 X101.17 Y96.4
G0 X100.085 Y96.4
G0 X97.915 Y96.4
G0 X96.83 Y96.4
G0 X95.85 Y96.4
;TIME_ELAPSED:208.514218
;LAYER:2
;TYPE:WALL-INNER
;MESH:organizador_cables.stl
G1 F1500 E6.5
G1 F3600 X64.15 Y96.4 E1.05435
G1 X64.15 Y123.6 E0.90468
G1 X91.35 Y123.6 E0.90468
G1 X91.35 Y103.6 E0.6652
G1 X92.15 Y103.6 E0.02661
G1 X92.15 Y124.4 E0.69181
G1 X63.35 Y124.4 E0.95789
G1 X63.35 Y95.6 E0.95789
G1 X96.65 Y95.6 E1.10756
G1 X96.65 Y115.4 E0.65855
G1 X95.498 Y115.4 E0.03832
G1 X94.986 Y114.888 E0.02408
G1 X94.925 Y114.827 E0.00287
G1 X94.698 Y114.6 E0.01068
G1 X95.151 Y114.6 E0.00792
G1 X95.237 Y114.594 E0.00261
G1 X95.85 Y114.549 E0.02044
G1 X95.85 Y96.4 E0.60364
G0 F7200 X95.45 Y96.8
;TYPE:WALL-OUTER
G1 F1800 X64.55 Y96.8 E1.02774
G1 X64.55 Y123.2 E0.87807
G1 X90.95 Y123.2 E0.87807
G1 X90.95 Y103.2 E0.6652
G1 X92.55 Y103.2 E0.05322
G1 X92.55 Y124.8 E0.71842
G1 X62.95 Y124.8 E0.9845
G1 X62.95 Y95.2 E0.9845
G1 X97.05 Y95.2 E1.13417
G1 X97.05 Y115.8 E0.68516
G1 X95.332 Y115.8 E0.05714
G1 X94.072 Y114.54 E0.05927
G1 X93.732 Y114.2 E0.01599
G1 X94.212 Y114.2 E0.00859
G1 X94.214 Y114.2 E0.00007
G1 X95.136 Y114.2 E0.03067
G1 X95.45 Y114.177 E0.01047
G1 X95.45 Y96.8 E0.57796
G0 F7200 X95.25 Y96.8
G0 X95.25 Y96.5
G0 X96.24 Y96.01
;TYPE:SKIN
G1 F1800 X63.76 Y96.01 E1.08029
G1 X63.76 Y123.99 E0.93062
G1 X91.74 Y123.99 E0.93062
G1 X91.74 Y103.99 E0.6652
G1 X91.76 Y103.99 E0.00067
G1 X91.76 Y124.01 E0.66587
G1 X63.74 Y124.01 E0.93195
G1 X63.74 Y95.99 E0.93195
G1 X96.26 Y95.99 E1.08162
G1 X96.26 Y115.01 E0.63261
G1 X95.658 Y115.01 E0.02002
G1 X95.606 Y114.958 E0.00245
G1 X96.24 Y114.912 E0.02114
G1 X96.24 Y96.01 E0.62868
G1 F1500 E-6.5
;MESH:organizador_cables.stl(1)
G0 F7200 X95.85 Y115.58
G0 X95.85 Y116.665
G0 X95.85 Y126.335
G0 X95.85 Y127.42
G0 X95.85 Y128.4
;TYPE:WALL-INNER
G1 F1500 E6.5
G1 F3600 X64.15 Y128.4 E1.05435
G1 X64.15 Y155.6 E0.90468
G1 X91.35 Y155.6 E0.90468
G1 X91.35 Y135.6 E0.6652
G1 X92.15 Y135.6 E0.02661
G1 X92.15 Y156.4 E0.69181
G1 X63.35 Y156.4 E0.95789
G1 X63.35 Y127.6 E0.95789
G1 X96.65 Y127.6 E1.10756
G1 X96.65 Y147.4 E0.65855
G1 X95.498 Y147.4 E0.03832
G1 X94.986 Y146.888 E0.02408
