;FLAVOR:Marlin
;TIME:20630
;Filament used: 43.7431m
;Layer height: 0.3
;MINX:20.929
;MINY:16.495
;MINZ:0.3
;MAXX:207.558
;MAXY:193.895
;MAXZ:30
;Generated with Cura_SteamEngine 4.5.0
M140 S60
M105
M190 S60
M104 S205
M105
M109 S205
M82 ;absolute extrusion mode
G21 ;metric values
G90 ;absolute positioning
M82 ;set extruder to absolute mode
M107 ;start with the fan off
G28 X0 Y0 ;move X/Y to min endstops
G28 Z0 ;move Z to min endstops
G1 Z15.0 F100 ;move the platform down 15mm
G92 E0 ;zero the extruded length
G1 F200 E3 ;extrude 3mm of feed stock
G92 E0 ;zero the extruded length again
G1 F100
G0 Y20 F100
M117 Printing...
G5
G92 E0
G92 E0
G1 F2400 E-6
;LAYER_COUNT:100
;LAYER:0
M106 S255
M204 S3000
M205 X10 Y10
G1 F600 Z0.375
;MESH:soporte-filamento-brazo.stl
G0 F3000 X150.634 Y71.261 Z0.375
M204 S1800
M205 X8 Y8
;TYPE:WALL-INNER
G1 F600 Z0.3
G1 F2400 E0
G1 F1800 X150.377 Y71.548 E0.02691
G1 X148.574 Y73.558 E0.21551
G1 X46.38 Y187.57 E10.9096
G1 X45.601 Y188.45 E10.99168
G1 X44.777 Y189.241 E11.07146
G1 X43.918 Y189.94 E11.14882
G1 X42.976 Y190.582 E11.22844
G1 X42.006 Y191.133 E11.30636
G1 X40.974 Y191.612 E11.38582
G1 X39.926 Y191.995 E11.46376
G1 X38.829 Y192.297 E11.54323
G1 X37.742 Y192.502 E11.62049
G1 X36.612 Y192.618 E11.69983
G1 X35.475 Y192.644 E11.77927
G1 X34.359 Y192.576 E11.85736
G1 X33.263 Y192.417 E11.93471
G1 X32.133 Y192.158 E12.01569
G1 X31.086 Y191.823 E12.09247
G1 X30.04 Y191.389 E12.17157
G1 X29.034 Y190.874 E12.2505
G1 X28.081 Y190.281 E12.3289
G1 X27.175 Y189.603 E12.40794
G1 X26.335 Y188.864 E12.48608
G1 X25.557 Y188.056 E12.56443
G1 X24.835 Y187.17 E12.64426
G1 X24.208 Y186.252 E12.72191
G1 X23.653 Y185.28 E12.80008
G1 X23.172 Y184.246 E12.87974
G1 X22.783 Y183.189 E12.9584
G1 X22.485 Y182.121 E13.03585
G1 X22.276 Y181.018 E13.11426
G1 X22.156 Y179.897 E13.19301
G1 X22.129 Y178.766 E13.27203
G1 X22.198 Y177.621 E13.35214
G1 X22.352 Y176.541 E13.42834
G1 X22.606 Y175.431 E13.50787
G1 X22.949 Y174.349 E13.58715
G1 X23.372 Y173.321 E13.6648
G1 X23.877 Y172.332 E13.74236
G1 X122.643 Y29.251 E25.88575
G1 X123.377 Y28.189 E25.97592
G1 X124.336 Y26.894 E26.08848
G1 X125.377 Y25.665 E26.20097
G1 X126.477 Y24.529 E26.31142
G1 X127.671 Y23.449 E26.42387
G1 X128.939 Y22.443 E26.53692
G1 X130.244 Y21.545 E26.64757
G1 X131.63 Y20.716 E26.76037
G1 X133.071 Y19.983 E26.87329
G1 X134.52 Y19.36 E26.98346
G1 X136.051 Y18.818 E27.09689
G1 X137.575 Y18.393 E27.2074
G1 X139.183 Y18.052 E27.32221
G1 X140.749 Y17.83 E27.43269
G1 X142.332 Y17.711 E27.54356
G1 X143.949 Y17.695 E27.65651
G1 X145.552 Y17.787 E27.76866
G1 X147.138 Y17.981 E27.88026
G1 X148.716 Y18.282 E27.99247
G1 X150.276 Y18.689 E28.10507
G1 X151.813 Y19.199 E28.21818
G1 X179.216 Y29.32 E30.25855
G1 X180.297 Y29.774 E30.34045
G1 X181.344 Y30.323 E30.42302
G1 X182.359 Y30.973 E30.5072
G1 X183.291 Y31.691 E30.58938
G1 X184.151 Y32.482 E30.67099
G1 X184.95 Y33.359 E30.75386
G1 X185.655 Y34.279 E30.83481
G1 X186.305 Y35.296 E30.91911
G1 X194.628 Y49.713 E32.08184
G1 X194.91 Y49.549 E32.10463
G1 X205.764 Y68.349 E33.62087
G1 X205.904 Y68.591 E33.6404
G1 X205.662 Y68.731 E33.65302
G1 X204.234 Y69.555 E33.76817
G1 X194.109 Y52.02 E35.18244
G1 X181.048 Y59.561 E36.23583
G1 X180.806 Y59.701 E36.25536
G1 X180.946 Y59.943 E36.26798
G1 X184.935 Y66.849 E36.82502
G1 X190.714 Y63.513 E37.29109
G1 X190.956 Y63.373 E37.31061
G1 X191.095 Y63.615 E37.32321
G1 X195.312 Y70.92 E37.91235
G1 X170.856 Y85.04 E39.88477
G1 X170.614 Y85.18 E39.9043
G1 X170.474 Y84.938 E39.91692
G1 X166.257 Y77.633 E40.50606
G1 X172.236 Y74.178 E40.98838
G1 X168.1 Y67.012 E41.56628
G1 X155.055 Y74.541 E42.61829
G1 X154.813 Y74.68 E42.63779
G1 X154.953 Y74.922 E42.6504
G1 X164.95 Y92.237 E44.04689
G1 X163.54 Y93.051 E44.16061
G1 X163.298 Y93.191 E44.18013
G1 X163.158 Y92.949 E44.19275
G1 X150.827 Y71.595 E45.91506
G1 X150.634 Y71.261 E45.93109
M204 S3000
M205 X10 Y10
G0 F3000 X45.292 Y180.146
M204 S1800
M205 X8 Y8
G1 F1800 X45.348 Y179.046 E46.00802
G1 X45.281 Y177.948 E46.08485
G1 X45.088 Y176.86 E46.16203
G1 X44.769 Y175.803 E46.23915
G1 X44.331 Y174.79 E46.31623
G1 X43.781 Y173.833 E46.39333
G1 X43.121 Y172.942 E46.47077
G1 X42.367 Y172.137 E46.54781
G1 X41.527 Y171.423 E46.62482
G1 X40.606 Y170.81 E46.70209
G1 X39.624 Y170.309 E46.77909
G1 X38.592 Y169.921 E46.8561
G1 X37.523 Y169.656 E46.93302
G1 X36.429 Y169.514 E47.01008
G1 X35.339 Y169.501 E47.08621
G1 X34.266 Y169.587 E47.1614
G1 X33.202 Y169.798 E47.23716
G1 X32.173 Y170.125 E47.31258
G1 X31.184 Y170.564 E47.38815
G1 X30.251 Y171.111 E47.46369
G1 X29.386 Y171.758 E47.53914
G1 X28.595 Y172.499 E47.61485
G1 X27.893 Y173.323 E47.69045
G1 X27.288 Y174.22 E47.76602
G1 X26.787 Y175.179 E47.8416
G1 X26.396 Y176.189 E47.91724
G1 X26.12 Y177.235 E47.9928
G1 X25.96 Y178.306 E48.06844
G1 X25.923 Y179.387 E48.14399
G1 X26.005 Y180.466 E48.21957
G1 X26.208 Y181.53 E48.29522
G1 X26.527 Y182.564 E48.3708
G1 X26.964 Y183.555 E48.44645
G1 X27.503 Y184.491 E48.52189
G1 X28.146 Y185.363 E48.59757
G1 X28.883 Y186.157 E48.67324
G1 X29.701 Y186.863 E48.74871
G1 X30.596 Y187.473 E48.82436
G1 X31.552 Y187.981 E48.89997
G1 X32.56 Y188.377 E48.97562
G1 X33.603 Y188.661 E49.05112
G1 X34.673 Y188.825 E49.12673
G1 X35.753 Y188.869 E49.20222
G1 X36.831 Y188.793 E49.2777
G1 X37.898 Y188.597 E49.35348
G1 X38.934 Y188.283 E49.42909
G1 X39.927 Y187.855 E49.50461
G1 X40.866 Y187.32 E49.5801
G1 X41.742 Y186.682 E49.65579
G1 X42.546 Y185.947 E49.73188
G1 X43.251 Y185.136 E49.80693
G1 X43.867 Y184.246 E49.88253
G1 X44.379 Y183.299 E49.95773
G1 X44.799 Y182.294 E50.0338
G1 X45.107 Y181.234 E50.1109
G1 X45.292 Y180.146 E50.18799
M204 S3000
M205 X10 Y10
G0 F3000 X44.734 Y180.085
M204 S1800
M205 X8 Y8
G1 F1800 X44.787 Y179.049 E50.26044
G1 X44.724 Y178.014 E50.33287
G1 X44.542 Y176.99 E50.40551
G1 X44.242 Y175.995 E50.4781
G1 X43.83 Y175.041 E50.55068
G1 X43.312 Y174.14 E50.62327
G1 X42.69 Y173.301 E50.69622
G1 X41.98 Y172.543 E50.76876
G1 X41.189 Y171.871 E50.84125
G1 X40.323 Y171.294 E50.91394
G1 X39.398 Y170.822 E50.98647
G1 X38.426 Y170.457 E51.05899
G1 X37.419 Y170.207 E51.13146
G1 X36.389 Y170.074 E51.204
G1 X35.358 Y170.061 E51.27602
G1 X34.343 Y170.143 E51.34714
G1 X33.342 Y170.341 E51.41841
G1 X32.372 Y170.649 E51.4895
G1 X31.44 Y171.063 E51.56073
G1 X30.561 Y171.578 E51.63188
G1 X29.746 Y172.188 E51.70299
G1 X29.001 Y172.886 E51.77429
G1 X28.34 Y173.662 E51.84549
G1 X27.77 Y174.507 E51.91668
G1 X27.298 Y175.411 E51.98791
G1 X26.929 Y176.362 E52.05916
G1 X26.669 Y177.348 E52.13038
G1 X26.519 Y178.357 E52.20163
G1 X26.484 Y179.375 E52.27278
G1 X26.561 Y180.392 E52.34402
G1 X26.752 Y181.394 E52.41526
G1 X27.053 Y182.368 E52.48647
G1 X27.464 Y183.302 E52.55774
G1 X27.972 Y184.184 E52.62883
G1 X28.578 Y185.005 E52.70011
G1 X29.272 Y185.753 E52.77137
G1 X30.043 Y186.418 E52.84249
G1 X30.886 Y186.993 E52.91376
G1 X31.787 Y187.472 E52.98504
G1 X32.736 Y187.845 E53.05626
G1 X33.719 Y188.112 E53.1274
G1 X34.727 Y188.267 E53.19863
G1 X35.745 Y188.308 E53.2698
G1 X36.761 Y188.237 E53.34093
G1 X37.766 Y188.052 E53.41231
G1 X38.741 Y187.756 E53.48348
G1 X39.677 Y187.353 E53.55465
G1 X40.562 Y186.849 E53.62579
G1 X41.387 Y186.248 E53.69708
G1 X42.144 Y185.555 E53.76877
G1 X42.808 Y184.792 E53.83941
G1 X43.389 Y183.953 E53.91069
G1 X43.873 Y183.057 E53.98182
G1 X44.27 Y182.107 E54.05374
G1 X44.56 Y181.109 E54.12633
G1 X44.734 Y180.085 E54.19887
M204 S3000
M205 X10 Y10
G0 F3000 X150.535 Y72.21
M204 S1800
M205 X8 Y8
G1 F1800 X150.278 Y72.497 E54.22578
G1 X148.991 Y73.932 E54.36042
G1 X46.798 Y187.943 E65.05441
G1 X46.001 Y188.843 E65.13838
G1 X45.154 Y189.655 E65.22033
G1 X44.242 Y190.397 E65.30245
G1 X43.276 Y191.056 E65.38413
G1 X42.264 Y191.631 E65.46542
G1 X41.191 Y192.129 E65.54805
G1 X40.094 Y192.53 E65.62963
G1 X38.961 Y192.842 E65.71171
G1 X37.821 Y193.057 E65.79274
G1 X36.644 Y193.178 E65.87538
G1 X35.466 Y193.205 E65.95768
G1 X34.305 Y193.134 E66.03892
G1 X33.155 Y192.967 E66.12009
G1 X31.993 Y192.7 E66.20337
G1 X30.888 Y192.347 E66.28439
G1 X29.799 Y191.895 E66.36674
G1 X28.765 Y191.366 E66.44787
G1 X27.76 Y190.74 E66.53057
G1 X26.826 Y190.042 E66.61201
G1 X25.944 Y189.266 E66.69406
G1 X25.138 Y188.428 E66.77527
G1 X24.389 Y187.509 E66.85808
G1 X23.735 Y186.553 E66.93898
G1 X23.151 Y185.529 E67.02132
G1 X22.655 Y184.463 E67.10344
G1 X22.253 Y183.371 E67.18472
G1 X21.939 Y182.245 E67.26636
G1 X21.721 Y181.095 E67.34812
G1 X21.597 Y179.933 E67.42974
G1 X21.569 Y178.758 E67.51183
G1 X21.64 Y177.569 E67.59503
G1 X21.802 Y176.433 E67.67517
G1 X22.065 Y175.284 E67.7575
G1 X22.422 Y174.158 E67.84001
G1 X22.864 Y173.083 E67.92119
G1 X23.394 Y172.046 E68.00253
G1 X122.182 Y28.933 E80.14864
G1 X122.916 Y27.871 E80.23881
G1 X123.897 Y26.546 E80.35396
G1 X124.965 Y25.286 E80.46933
G1 X126.087 Y24.127 E80.582
G1 X127.311 Y23.02 E80.69727
G1 X128.597 Y21.999 E80.81196
G1 X129.95 Y21.068 E80.92667
G1 X131.357 Y20.227 E81.04116
G1 X132.827 Y19.479 E81.15636
G1 X134.325 Y18.835 E81.27025
G1 X135.877 Y18.286 E81.38524
G1 X137.447 Y17.847 E81.4991
G1 X139.078 Y17.502 E81.61554
G1 X140.688 Y17.273 E81.72913
G1 X142.315 Y17.151 E81.84309
G1 X143.961 Y17.135 E81.95806
G1 X145.606 Y17.229 E82.07314
G1 X147.222 Y17.427 E82.18686
G1 X148.841 Y17.736 E82.30198
G1 X150.44 Y18.153 E82.4174
G1 X151.989 Y18.667 E82.53139
G1 X179.423 Y28.8 E84.57409
G1 X180.538 Y29.268 E84.65855
G1 X181.629 Y29.84 E84.74459
G1 X182.683 Y30.515 E84.83201
G1 X183.647 Y31.258 E84.91702
G1 X184.549 Y32.088 E85.00263
G1 X185.379 Y32.999 E85.08871
G1 X186.114 Y33.957 E85.17305
G1 X186.79 Y35.016 E85.2608
G1 X194.832 Y48.946 E86.38426
G1 X195.114 Y48.782 E86.40705
G1 X206.529 Y68.554 E88.00168
G1 X206.669 Y68.796 E88.0212
G1 X206.427 Y68.936 E88.03382
G1 X204.029 Y70.32 E88.2272
G1 X193.904 Y52.785 E89.64147
G1 X181.813 Y59.766 E90.61664
G1 X181.571 Y59.906 E90.63616
G1 X181.711 Y60.148 E90.64878
G1 X185.14 Y66.084 E91.12759
G1 X190.919 Y62.748 E91.59366
G1 X191.161 Y62.608 E91.61319
G1 X191.3 Y62.85 E91.62578
G1 X196.077 Y71.125 E92.29315
G1 X170.651 Y85.805 E94.34381
G1 X170.409 Y85.945 E94.36334
G1 X170.269 Y85.703 E94.37595
G1 X165.492 Y77.428 E95.04332
G1 X171.471 Y73.973 E95.52564
G1 X167.895 Y67.777 E96.02532
G1 X155.82 Y74.746 E96.9991
G1 X155.578 Y74.885 E97.01859
G1 X155.718 Y75.127 E97.03121
G1 X165.715 Y92.442 E98.42769
G1 X163.093 Y93.956 E98.63917
G1 X150.728 Y72.544 E100.36618
G1 X150.535 Y72.21 E100.3822
M204 S3000
M205 X10 Y10
G0 F3000 X150.436 Y73.159
M204 S1800
M205 X8 Y8
;TYPE:WALL-OUTER
G1 F1800 X150.179 Y73.446 E100.40911
G1 X149.408 Y74.306 E100.48978
G1 X47.216 Y188.316 E111.18368
G1 X46.401 Y189.236 E111.26952
G1 X45.525 Y190.076 E111.35429
G1 X44.579 Y190.845 E111.43944
G1 X43.57 Y191.533 E111.52474
G1 X42.522 Y192.129 E111.60895
G1 X41.408 Y192.646 E111.69473
G1 X40.265 Y193.064 E111.77974
G1 X39.089 Y193.387 E111.86492
G1 X37.9 Y193.612 E111.94944
G1 X36.676 Y193.738 E112.03538
G1 X35.456 Y193.765 E112.12062
G1 X34.251 Y193.692 E112.20494
G1 X33.045 Y193.517 E112.29005
G1 X31.855 Y193.243 E112.37534
G1 X30.694 Y192.872 E112.46047
G1 X29.565 Y192.404 E112.54584
G1 X28.487 Y191.852 E112.63043
G1 X27.439 Y191.199 E112.71668
G1 X26.477 Y190.481 E112.80052
G1 X25.56 Y189.673 E112.88588
G1 X24.714 Y188.794 E112.9711
G1 X23.943 Y187.848 E113.05634
G1 X23.256 Y186.845 E113.14125
G1 X22.653 Y185.787 E113.22631
G1 X22.14 Y184.683 E113.31133
G1 X21.721 Y183.546 E113.39597
G1 X21.393 Y182.369 E113.48131
G1 X21.166 Y181.172 E113.56641
G1 X21.038 Y179.969 E113.65091
G1 X21.009 Y178.75 E113.73607
G1 X21.082 Y177.517 E113.82235
G1 X21.252 Y176.325 E113.90645
G1 X21.524 Y175.137 E113.99157
G1 X21.895 Y173.967 E114.0773
G1 X22.356 Y172.845 E114.16202
G1 X22.911 Y171.76 E114.24715
G1 X121.721 Y28.615 E126.39596
G1 X122.455 Y27.553 E126.48613
G1 X123.458 Y26.198 E126.60388
G1 X124.546 Y24.915 E126.72138
G1 X125.704 Y23.718 E126.83771
G1 X126.951 Y22.59 E126.95515
G1 X128.262 Y21.55 E127.07203
G1 X129.648 Y20.596 E127.18956
G1 X131.084 Y19.738 E127.3064
G1 X132.583 Y18.975 E127.42388
G1 X134.13 Y18.31 E127.54149
G1 X135.702 Y17.754 E127.65795
G1 X137.319 Y17.301 E127.77524
G1 X138.973 Y16.952 E127.89331
G1 X140.627 Y16.716 E128.01001
G1 X142.298 Y16.591 E128.12705
G1 X143.973 Y16.575 E128.24405
G1 X145.66 Y16.671 E128.36207
G1 X147.306 Y16.873 E128.4779
G1 X148.966 Y17.19 E128.59594
G1 X150.59 Y17.613 E128.71315
G1 X152.183 Y18.142 E128.83039
G1 X179.621 Y28.277 E130.87339
G1 X180.783 Y28.764 E130.9614
G1 X181.914 Y29.357 E131.05059
G1 X182.999 Y30.052 E131.14059
G1 X184.009 Y30.831 E131.22968
G1 X184.947 Y31.694 E131.31871
G1 X185.808 Y32.638 E131.40795
G1 X186.573 Y33.635 E131.49572
G1 X187.275 Y34.736 E131.58692
G1 X195.036 Y48.179 E132.67111
G1 X195.318 Y48.015 E132.6939
G1 X207.336 Y68.832 E134.37279
G1 X207.434 Y69.001 E134.38644
G1 X207.441 Y69.013 E134.38741
G1 X207.288 Y69.086 E134.39416
G1 X207.119 Y69.183 E134.40438
G1 X203.824 Y71.085 E134.67011
G1 X193.699 Y53.55 E136.08438
G1 X182.578 Y59.971 E136.98132
G1 X182.336 Y60.111 E137.00084
G1 X182.476 Y60.353 E137.01346
G1 X185.345 Y65.319 E137.41404
G1 X191.124 Y61.983 E137.88011
G1 X191.366 Y61.843 E137.89963
G1 X191.505 Y62.085 E137.91223
G1 X196.842 Y71.33 E138.65783
G1 X170.446 Y86.57 E140.78672
G1 X170.204 Y86.71 E140.80625
G1 X170.064 Y86.468 E140.81886
G1 X164.727 Y77.223 E141.56446
G1 X170.706 Y73.768 E142.04678
G1 X167.69 Y68.542 E142.46823
G1 X156.585 Y74.951 E143.36378
G1 X156.343 Y75.09 E143.38327
G1 X156.483 Y75.332 E143.39588
G1 X166.48 Y92.647 E144.79237
G1 X163.101 Y94.598 E145.0649
G1 X162.899 Y94.74 E145.08214
G1 X162.889 Y94.721
G1 X150.629 Y73.493 E146.79436
G1 X150.436 Y73.159 E146.81038
M204 S3000
M205 X10 Y10
G0 F3000 X150.303 Y73.308
G0 X149.961 Y73.001
G0 X44.629 Y180.101
G0 X44.176 Y180.024
M204 S1800
M205 X8 Y8
G1 F1800 X44.226 Y179.052 E146.87836
G1 X44.167 Y178.08 E146.94638
G1 X43.996 Y177.12 E147.01449
G1 X43.715 Y176.187 E147.08254
G1 X43.329 Y175.292 E147.15062
G1 X42.843 Y174.447 E147.21871
G1 X42.259 Y173.66 E147.28716
G1 X41.593 Y172.949 E147.3552
G1 X40.851 Y172.319 E147.42319
G1 X40.039 Y171.778 E147.49134
G1 X39.172 Y171.335 E147.55934
G1 X38.26 Y170.993 E147.62737
G1 X37.315 Y170.758 E147.69539
G1 X36.349 Y170.634 E147.76341
G1 X35.377 Y170.621 E147.83131
G1 X34.42 Y170.699 E147.89838
G1 X33.481 Y170.884 E147.96522
G1 X32.571 Y171.173 E148.03191
G1 X31.696 Y171.562 E148.09879
G1 X30.871 Y172.045 E148.16557
G1 X30.106 Y172.618 E148.23232
G1 X29.407 Y173.273 E148.29923
G1 X28.787 Y174.001 E148.36602
G1 X28.252 Y174.794 E148.43284
G1 X27.809 Y175.643 E148.49972
G1 X27.462 Y176.535 E148.56657
G1 X27.218 Y177.461 E148.63346
G1 X27.078 Y178.408 E148.70032
G1 X27.045 Y179.364 E148.76714
G1 X27.117 Y180.318 E148.83396
G1 X27.296 Y181.258 E148.90079
G1 X27.579 Y182.172 E148.96762
G1 X27.964 Y183.049 E149.03452
G1 X28.441 Y183.877 E149.10126
G1 X29.01 Y184.647 E149.16814
G1 X29.661 Y185.349 E149.23501
G1 X30.385 Y185.973 E149.30177
G1 X31.176 Y186.513 E149.36866
G1 X32.022 Y186.963 E149.43559
G1 X32.912 Y187.313 E149.50239
G1 X33.835 Y187.563 E149.56918
G1 X34.781 Y187.709 E149.63604
G1 X35.737 Y187.747 E149.70286
G1 X36.691 Y187.681 E149.76965
G1 X37.633 Y187.507 E149.83656
G1 X38.548 Y187.229 E149.90336
G1 X39.427 Y186.851 E149.97019
G1 X40.258 Y186.378 E150.03697
G1 X41.032 Y185.814 E150.10386
G1 X41.742 Y185.163 E150.17115
G1 X42.365 Y184.448 E150.23738
G1 X42.911 Y183.66 E150.30434
G1 X43.367 Y182.815 E150.37141
G1 X43.741 Y181.92 E150.43916
G1 X44.013 Y180.984 E150.50724
G1 X44.176 Y180.024 E150.57525
M204 S3000
M205 X10 Y10
G0 F3000 X44.186 Y179.825
G0 X44.645 Y179.849
G0 X45.84 Y180.207
M204 S1800
M205 X8 Y8
;TYPE:SKIN
G1 F1800 X45.898 Y179.044 E150.65659
G1 X45.829 Y177.883 E150.73782
G1 X45.624 Y176.732 E150.81948
G1 X45.286 Y175.614 E150.90106
G1 X44.824 Y174.543 E150.98253
G1 X44.242 Y173.531 E151.06407
G1 X43.544 Y172.589 E151.14595
G1 X42.747 Y171.738 E151.22739
G1 X41.859 Y170.983 E151.3088
G1 X40.885 Y170.335 E151.39051
G1 X39.846 Y169.805 E151.47198
G1 X38.755 Y169.395 E151.55339
G1 X37.625 Y169.114 E151.63472
G1 X36.468 Y168.964 E151.7162
G1 X35.32 Y168.951 E151.79639
