;FLAVOR:RepRap
;TIME:1702
;Filament used: 2.8469m
;Layer height: 0.2
;MINX:98.2
;MINY:98.207
;MINZ:0.3
;MAXX:121.8
;MAXY:121.794
;MAXZ:34.9
;Generated with Cura_SteamEngine 4.7.0
T0
M190 S60
M104 S205
M109 S205
M82 ;absolute extrusion mode
G21 ;metric values
G90 ;absolute positioning
M82 ;set extruder to absolute mode
M107 ;start with the fan off
G28 X0 Y0 ;move X/Y to min endstops
G28 Z0 ;move Z to min endstops
G1 Z15.0 F9000 ;move the platform down 15mm
G92 E0 ;zero the extruded length
G1 F200 E3 ;extrude 3mm of feed stock
G92 E0 ;zero the extruded length again
G1 F9000
M117 Printing...
G5
M83 ;relative extrusion mode
G1 F1500 E-6.5
;LAYER_COUNT:174
;LAYER:0
M107
;MESH:colgador_balda_ducha.stl
G0 F3600 X111.534 Y98.7 Z0.3
;TYPE:WALL-INNER
G1 F1500 E6.5
G1 F1800 X113.519 Y99.153 E0.10158
G1 X115.402 Y99.959 E0.10219
G1 X117.107 Y101.083 E0.10188
G1 X118.58 Y102.492 E0.1017
G1 X119.788 Y104.154 E0.10251
G1 X120.67 Y105.989 E0.10157
G1 X121.217 Y107.975 E0.10277
G1 X121.398 Y109.994 E0.10113
G1 X121.217 Y112.022 E0.10158
G1 X120.671 Y114 E0.10237
G1 X119.786 Y115.836 E0.10168
G1 X118.585 Y117.491 E0.10202
G1 X117.107 Y118.904 E0.10201
G1 X115.397 Y120.032 E0.1022
G1 X113.525 Y120.833 E0.10158
G1 X111.53 Y121.288 E0.10209
G1 X109.49 Y121.381 E0.10188
G1 X107.475 Y121.108 E0.10145
G1 X105.525 Y120.477 E0.10225
G1 X103.726 Y119.51 E0.1019
G1 X102.124 Y118.234 E0.10218
G1 X100.777 Y116.691 E0.10219
G1 X99.731 Y114.94 E0.10176
G1 X99.013 Y113.029 E0.10185
G1 X98.647 Y111.008 E0.10247
G1 X98.646 Y108.982 E0.10108
G1 X99.01 Y106.971 E0.10196
G1 X99.729 Y105.051 E0.10229
G1 X100.779 Y103.296 E0.10203
G1 X102.126 Y101.754 E0.10215
G1 X103.722 Y100.481 E0.10185
G1 X105.521 Y99.513 E0.10192
G1 X107.465 Y98.882 E0.10197
G1 X109.483 Y98.608 E0.1016
G1 X111.534 Y98.7 E0.10243
G0 F3600 X111.521 Y98.799
G0 X112.929 Y110.108
G0 X112.55 Y111.467
G0 X111.473 Y112.545
G0 X109.946 Y113.005
G0 X109.953 Y112.906
G1 F1800 X110.744 Y112.803 E0.0398
G1 X111.453 Y112.511 E0.03825
G1 X112.054 Y112.048 E0.03785
G1 X112.516 Y111.447 E0.03782
G1 X112.807 Y110.745 E0.03791
G1 X112.89 Y110.103 E0.0323
G1 X112.906 Y110.002 E0.0051
G1 X112.808 Y109.246 E0.03803
G1 X112.516 Y108.541 E0.03807
G1 X112.052 Y107.938 E0.03796
G1 X111.452 Y107.476 E0.03778
G1 X110.748 Y107.186 E0.03799
G1 X109.996 Y107.089 E0.03783
G1 X109.252 Y107.186 E0.03743
G1 X108.547 Y107.478 E0.03807
G1 X107.95 Y107.937 E0.03757
G1 X107.484 Y108.541 E0.03806
G1 X107.193 Y109.245 E0.038
G1 X107.095 Y109.994 E0.03769
G1 X107.191 Y110.738 E0.03743
G1 X107.483 Y111.447 E0.03825
G1 X107.946 Y112.048 E0.03785
G1 X108.547 Y112.51 E0.03782
G1 X109.249 Y112.801 E0.03791
G1 X109.868 Y112.881 E0.03114
G1 X109.953 Y112.906 E0.00442
G0 F3600 X109.985 Y112.498
;TYPE:WALL-OUTER
G1 F1800 X110.64 Y112.413 E0.03295
G1 X111.251 Y112.161 E0.03297
G1 X111.769 Y111.763 E0.03259
G1 X112.167 Y111.245 E0.03259
G1 X112.417 Y110.641 E0.03261
G1 X112.495 Y110.037 E0.03038
G1 X112.502 Y109.995 E0.00212
G1 X112.418 Y109.35 E0.03245
G1 X112.167 Y108.743 E0.03277
G1 X111.767 Y108.223 E0.03273
G1 X111.25 Y107.826 E0.03252
G1 X110.644 Y107.576 E0.03271
G1 X109.996 Y107.492 E0.0326
G1 X109.356 Y107.576 E0.0322
G1 X108.749 Y107.827 E0.03277
G1 X108.235 Y108.222 E0.03234
G1 X107.833 Y108.743 E0.03283
G1 X107.583 Y109.349 E0.03271
G1 X107.498 Y109.994 E0.03246
G1 X107.581 Y110.634 E0.0322
G1 X107.833 Y111.245 E0.03297
G1 X108.231 Y111.763 E0.03259
G1 X108.749 Y112.161 E0.03259
G1 X109.353 Y112.411 E0.03261
G1 X109.951 Y112.488 E0.03008
G1 X109.985 Y112.498 E0.00177
G0 F3600 X110.183 Y112.473
G0 X110.246 Y112.969
G0 X111.473 Y112.545
G0 X112.55 Y111.467
G0 X112.926 Y110.146
G0 X111.521 Y98.799
G0 X111.586 Y98.302
G1 F1800 X113.644 Y98.771 E0.10531
G1 X115.592 Y99.605 E0.10572
G1 X117.356 Y100.768 E0.10541
G1 X118.885 Y102.23 E0.10554
G1 X120.13 Y103.944 E0.10569
G1 X121.048 Y105.853 E0.10568
G1 X121.612 Y107.9 E0.10593
G1 X121.799 Y109.994 E0.10489
G1 X121.611 Y112.097 E0.10534
G1 X121.048 Y114.139 E0.10568
G1 X120.13 Y116.044 E0.1055
G1 X118.89 Y117.752 E0.1053
G1 X117.356 Y119.219 E0.10589
G1 X115.587 Y120.386 E0.10573
G1 X113.649 Y121.215 E0.10516
G1 X111.582 Y121.686 E0.10577
G1 X109.476 Y121.782 E0.10518
G1 X107.382 Y121.499 E0.10542
G1 X105.372 Y120.848 E0.10541
G1 X103.503 Y119.844 E0.10585
G1 X101.848 Y118.525 E0.10558
G1 X100.453 Y116.927 E0.10583
G1 X99.369 Y115.114 E0.10539
G1 X98.625 Y113.132 E0.10562
G1 X98.247 Y111.046 E0.10577
G1 X98.246 Y108.944 E0.10487
G1 X98.622 Y106.865 E0.1054
G1 X99.366 Y104.88 E0.10576
G1 X100.455 Y103.06 E0.10581
G1 X101.849 Y101.463 E0.10576
G1 X103.499 Y100.147 E0.10529
G1 X105.364 Y99.144 E0.10565
G1 X107.375 Y98.491 E0.10549
G1 X109.469 Y98.207 E0.10543
G1 X111.586 Y98.302 E0.10572
G0 F3600 X111.781 Y98.346
G0 X111.486 Y99.088
;TYPE:SKIN
G1 F1800 X113.392 Y99.523 E0.09754
G1 X115.217 Y100.305 E0.09906
G1 X116.866 Y101.392 E0.09853
G1 X118.281 Y102.745 E0.09767
G1 X119.455 Y104.36 E0.09961
G1 X120.303 Y106.124 E0.09765
G1 X120.832 Y108.047 E0.0995
G1 X121.006 Y109.994 E0.09752
G1 X120.833 Y111.949 E0.09792
G1 X120.305 Y113.863 E0.09906
G1 X119.45 Y115.634 E0.09811
G1 X118.288 Y117.235 E0.09869
G1 X116.866 Y118.595 E0.09817
G1 X115.212 Y119.686 E0.09885
G1 X113.398 Y120.463 E0.09845
G1 X111.482 Y120.9 E0.09804
G1 X109.503 Y120.989 E0.09883
G1 X107.564 Y120.726 E0.09762
G1 X105.677 Y120.117 E0.09892
G1 X103.943 Y119.184 E0.09824
G1 X102.397 Y117.953 E0.09859
G1 X101.093 Y116.459 E0.09893
G1 X100.083 Y114.769 E0.09822
G1 X99.391 Y112.928 E0.09812
G1 X99.037 Y110.972 E0.09917
G1 X99.036 Y109.018 E0.09749
G1 X99.388 Y107.072 E0.09866
G1 X100.08 Y105.225 E0.0984
G1 X101.097 Y103.526 E0.09879
G1 X102.397 Y102.038 E0.09858
G1 X103.942 Y100.805 E0.09862
G1 X105.673 Y99.874 E0.09806
G1 X107.556 Y99.263 E0.09877
G1 X109.497 Y99 E0.09772
G1 X111.486 Y99.088 E0.09933
G0 F3600 X110.849 Y106.806
G1 F1800 X109.996 Y106.695 E0.04292
G1 X109.151 Y106.806 E0.04252
G1 X108.35 Y107.137 E0.04324
G1 X107.673 Y107.658 E0.04262
G1 X107.143 Y108.344 E0.04325
G1 X106.813 Y109.144 E0.04317
G1 X106.701 Y109.994 E0.04277
G1 X106.811 Y110.839 E0.04251
G1 X107.142 Y111.644 E0.04342
G1 X107.668 Y112.327 E0.04301
G1 X108.35 Y112.851 E0.04291
G1 X109.148 Y113.181 E0.04308
G1 X109.784 Y113.263 E0.03199
G1 X109.922 Y113.304 E0.00718
G1 X110.845 Y113.183 E0.04644
G1 X111.65 Y112.852 E0.04342
G1 X112.333 Y112.326 E0.04301
G1 X112.857 Y111.644 E0.04291
G1 X113.187 Y110.846 E0.04308
G1 X113.267 Y110.22 E0.03149
G1 X113.3 Y110.007 E0.01075
G1 X113.188 Y109.145 E0.04337
G1 X112.857 Y108.344 E0.04324
G1 X112.331 Y107.66 E0.04305
G1 X111.649 Y107.135 E0.04294
G1 X110.849 Y106.806 E0.04316
G0 F3600 X118.162 Y102.888
G1 F1800 X117.982 Y102.708 E0.0127
G0 F3600 X119.427 Y104.719
G1 F1800 X115.252 Y100.544 E0.29457
G1 X115.182 Y100.474
G0 F3600 X114.214 Y100.072
G1 F1800 X119.952 Y105.81 E0.40485
G1 X120.022 Y105.88
G0 F3600 X120.273 Y106.697
G1 F1800 X113.253 Y99.676 E0.49533
G0 F3600 X112.519 Y99.509
G1 F1800 X120.488 Y107.478 E0.56226
G0 F3600 X120.667 Y108.221
G1 F1800 X111.786 Y99.341 E0.62657
G0 F3600 X111.132 Y99.253
G1 F1800 X120.722 Y108.842 E0.67659
G0 F3600 X120.777 Y109.463
G1 F1800 X110.54 Y99.226 E0.72228
G0 F3600 X109.948 Y99.2
G1 F1800 X120.817 Y110.069 E0.76687
G0 F3600 X120.771 Y110.589
G1 F1800 X109.38 Y99.197 E0.80373
G0 F3600 X108.881 Y99.265
G1 F1800 X120.726 Y111.109 E0.83569
G0 F3600 X120.68 Y111.629
G1 F1800 X108.383 Y99.332 E0.86762
G0 F3600 X107.885 Y99.4
G1 F1800 X120.6 Y112.115 E0.89711
G0 F3600 X120.478 Y112.558
G1 F1800 X107.417 Y99.497 E0.92152
G0 F3600 X106.99 Y99.636
G1 F1800 X120.355 Y113.002 E0.94301
G0 F3600 X120.233 Y113.445
G1 F1800 X106.562 Y99.774 E0.96456
G0 F3600 X106.135 Y99.912
G1 F1800 X120.098 Y113.876 E0.9852
G0 F3600 X119.914 Y114.257
G1 F1800 X105.713 Y100.056 E1.00196
G0 F3600 X105.345 Y100.254
G1 F1800 X119.73 Y114.638 E1.0149
G0 F3600 X119.545 Y115.02
G1 F1800 X113.18 Y108.654 E0.44912
G1 X113.11 Y108.584
G0 F3600 X113.407 Y109.448
G1 F1800 X119.361 Y115.401 E0.42005
G0 F3600 X119.143 Y115.749
G1 F1800 X113.47 Y110.076 E0.40026
G0 F3600 X113.401 Y110.573
G1 F1800 X118.905 Y116.077 E0.38834
G0 F3600 X118.667 Y116.404
G1 F1800 X113.301 Y111.038 E0.3786
G0 F3600 X113.136 Y111.439
G1 F1800 X118.429 Y116.732 E0.37345
G0 F3600 X118.192 Y117.06
G1 F1800 X112.949 Y111.818 E0.36989
G0 F3600 X112.703 Y112.137
G1 F1800 X117.91 Y117.345 E0.36742
G0 F3600 X117.622 Y117.622
G1 F1800 X112.458 Y112.458 E0.36435
G0 F3600 X112.138 Y112.704
G1 F1800 X117.333 Y117.898 E0.3665
G0 F3600 X117.043 Y118.175
G1 F1800 X111.818 Y112.949 E0.36869
G0 F3600 X111.437 Y113.134
G1 F1800 X116.755 Y118.452 E0.37521
G0 F3600 X116.414 Y118.677
G1 F1800 X111.036 Y113.299 E0.37945
G0 F3600 X110.571 Y113.4
G1 F1800 X116.073 Y118.902 E0.3882
G0 F3600 X115.732 Y119.126
G1 F1800 X110.071 Y113.465 E0.39941
G0 F3600 X109.439 Y113.399
G1 F1800 X115.391 Y119.351 E0.41995
G0 F3600 X115.037 Y119.563
G1 F1800 X108.64 Y113.166 E0.45134
G1 X108.57 Y113.096
G0 F3600 X106.827 Y111.353
G1 F1800 X100.443 Y104.968 E0.45046
G0 F3600 X100.654 Y104.614
G1 F1800 X106.592 Y110.551 E0.41892
G0 F3600 X106.528 Y109.922
G1 F1800 X100.866 Y104.26 E0.39948
G0 F3600 X101.078 Y103.907
G1 F1800 X106.594 Y109.423 E0.38918
G0 F3600 X106.694 Y108.957
G1 F1800 X101.301 Y103.564 E0.38051
G0 F3600 X101.565 Y103.263
G1 F1800 X106.859 Y108.556 E0.37349
G0 F3600 X107.044 Y108.176
G1 F1800 X101.829 Y102.961 E0.36795
G0 F3600 X102.093 Y102.659
G1 F1800 X107.291 Y107.857 E0.36675
G0 F3600 X107.538 Y107.538
G1 F1800 X102.357 Y102.357 E0.36555
G0 F3600 X102.64 Y102.074
G1 F1800 X107.854 Y107.289 E0.36791
G0 F3600 X108.174 Y107.043
G1 F1800 X102.954 Y101.823 E0.3683
G0 F3600 X103.269 Y101.572
G1 F1800 X108.553 Y106.856 E0.37281
G0 F3600 X108.953 Y106.691
G1 F1800 X103.583 Y101.32 E0.37892
G0 F3600 X103.898 Y101.069
G1 F1800 X109.416 Y106.588 E0.38936
G0 F3600 X109.916 Y106.522
G1 F1800 X104.241 Y100.847 E0.4004
G0 F3600 X104.61 Y100.65
G1 F1800 X110.544 Y106.584 E0.41868
G1 X110.614 Y106.654
G0 F3600 X111.336 Y106.811
G1 F1800 X104.977 Y100.452 E0.44866
G1 X104.907 Y100.382
G0 F3600 X100.233 Y105.324
G1 F1800 X114.641 Y119.732 E1.01656
G0 F3600 X114.245 Y119.902
G1 F1800 X100.079 Y105.736 E0.99949
G0 F3600 X99.925 Y106.148
G1 F1800 X113.849 Y120.072 E0.98241
G0 F3600 X113.453 Y120.242
G1 F1800 X99.77 Y106.558 E0.96544
G0 F3600 X99.616 Y106.97
G1 F1800 X113.011 Y120.365 E0.94509
G0 F3600 X112.55 Y120.47
G1 F1800 X99.506 Y107.425 E0.92036
G0 F3600 X99.419 Y107.905
G1 F1800 X112.09 Y120.575 E0.89397
G0 F3600 X111.629 Y120.68
G1 F1800 X99.332 Y108.383 E0.86762
G0 F3600 X99.245 Y108.862
G1 F1800 X111.118 Y120.734 E0.83767
G0 F3600 X110.576 Y120.758
G1 F1800 X99.215 Y109.397 E0.80158
G0 F3600 X99.215 Y109.963
G1 F1800 X110.035 Y120.783 E0.76341
G0 F3600 X109.49 Y120.804
G1 F1800 X99.216 Y110.529 E0.72492
G0 F3600 X99.248 Y111.127
G1 F1800 X108.836 Y120.715 E0.67649
G0 F3600 X108.181 Y120.626
G1 F1800 X99.373 Y111.818 E0.62145
G0 F3600 X99.498 Y112.509
G1 F1800 X107.507 Y120.517 E0.56504
G1 X107.577 Y120.587
G0 F3600 X106.671 Y120.247
G1 F1800 X99.722 Y113.299 E0.49025
G1 X99.652 Y113.229
G0 F3600 X100.063 Y114.205
G1 F1800 X105.835 Y119.977 E0.40725
G1 X105.905 Y120.047
G0 F3600 X104.652 Y119.36
G1 F1800 X100.639 Y115.347 E0.28314
G1 X100.569 Y115.277
G0 F3600 X102.35 Y117.624
G1 F1800 X102.649 Y117.923 E0.0211
;MESH:NONMESH
G0 F600 X102.649 Y117.923 Z0.5
G0 F3600 X107.398 Y108.491
G0 X107.483 Y108.541
;TIME_ELAPSED:43.354828
;LAYER:1
M106 S255
;TYPE:WALL-INNER
;MESH:colgador_balda_ducha.stl
G1 F3300 X107.192 Y109.247 E0.0254
G1 X107.095 Y109.994 E0.02505
G1 X107.193 Y110.745 E0.02519
G1 X107.484 Y111.447 E0.02528
G1 X107.946 Y112.048 E0.02521
G1 X108.547 Y112.51 E0.02521
G1 X109.249 Y112.801 E0.02528
G1 X110 Y112.899 E0.02519
G1 X110.751 Y112.801 E0.02519
G1 X111.453 Y112.51 E0.02528
G1 X112.054 Y112.048 E0.02521
G1 X112.516 Y111.447 E0.02521
G1 X112.807 Y110.745 E0.02528
G1 X112.905 Y109.994 E0.02519
G1 X112.814 Y109.289 E0.02364
G1 X112.79 Y109.201 E0.00303
G1 X112.517 Y108.542 E0.02372
G1 X112.083 Y107.977 E0.0237
G1 X112.017 Y107.911 E0.0031
G1 X111.504 Y107.516 E0.02153
G1 X111.427 Y107.467 E0.00304
G1 X110.753 Y107.187 E0.02427
G1 X109.999 Y107.089 E0.02529
G1 X109.255 Y107.185 E0.02495
G1 X108.594 Y107.457 E0.02377
G1 X108.505 Y107.509 E0.00343
G1 X107.983 Y107.911 E0.02191
G1 X107.918 Y107.976 E0.00306
G1 X107.483 Y108.541 E0.02372
G0 F5400 X107.397 Y108.492
G0 X107.055 Y109.994
G0 X107.393 Y111.331
G0 X113.48 Y120.744
G0 X113.51 Y120.839
G1 F3300 X111.531 Y121.288 E0.06749
G1 X109.484 Y121.381 E0.06815
G1 X107.475 Y121.109 E0.06743
G1 X107.456 Y121.105 E0.00065
G1 X105.528 Y120.479 E0.06742
G1 X105.508 Y120.47 E0.00073
G1 X103.729 Y119.513 E0.06719
G1 X102.128 Y118.237 E0.06809
G1 X100.777 Y116.692 E0.06826
G1 X99.73 Y114.941 E0.06786
G1 X99.015 Y113.037 E0.06765
G1 X98.647 Y111.012 E0.06845
G1 X98.648 Y108.966 E0.06805
G1 X99.012 Y106.962 E0.06774
G1 X99.725 Y105.058 E0.06762
G1 X100.779 Y103.296 E0.06829
G1 X102.126 Y101.754 E0.0681
G1 X103.722 Y100.481 E0.0679
G1 X105.521 Y99.513 E0.06795
G1 X107.465 Y98.882 E0.06798
G1 X109.483 Y98.608 E0.06773
G1 X111.534 Y98.7 E0.06829
G1 X113.519 Y99.153 E0.06772
G1 X115.402 Y99.959 E0.06813
G1 X117.107 Y101.083 E0.06792
G1 X118.58 Y102.491 E0.06777
G1 X119.786 Y104.153 E0.0683
G1 X120.67 Y105.984 E0.06763
G1 X121.217 Y107.967 E0.06842
G1 X121.398 Y109.977 E0.06712
G1 X121.396 Y110.022 E0.0015
G1 X121.217 Y112.021 E0.06675
G1 X120.672 Y113.996 E0.06814
G1 X119.789 Y115.833 E0.06779
G1 X118.583 Y117.493 E0.06824
G1 X117.105 Y118.907 E0.06803
G1 X115.404 Y120.029 E0.06777
G1 X113.51 Y120.839 E0.06851
G0 F5400 X113.48 Y120.744
G0 X112.945 Y109.994
G0 X112.827 Y109.189
G0 X112.043 Y107.881
G0 X110.713 Y107.082
G0 X110.649 Y107.577
;TYPE:WALL-OUTER
G1 F2100 X109.999 Y107.492 E0.0218
G1 X109.359 Y107.575 E0.02146
G1 X108.771 Y107.817 E0.02115
G1 X108.728 Y107.842 E0.00165
G1 X108.247 Y108.212 E0.02018
G1 X108.219 Y108.24 E0.00132
G1 X107.833 Y108.743 E0.02109
G1 X107.582 Y109.351 E0.02188
G1 X107.498 Y109.994 E0.02157
G1 X107.583 Y110.641 E0.0217
G1 X107.833 Y111.245 E0.02174
G1 X108.231 Y111.763 E0.02173
G1 X108.749 Y112.161 E0.02173
G1 X109.353 Y112.411 E0.02174
G1 X110 Y112.496 E0.0217
G1 X110.647 Y112.411 E0.0217
G1 X111.251 Y112.161 E0.02174
G1 X111.769 Y111.763 E0.02173
G1 X112.167 Y111.245 E0.02173
G1 X112.417 Y110.641 E0.02174
G1 X112.502 Y109.994 E0.0217
G1 X112.421 Y109.367 E0.02103
G1 X112.411 Y109.33 E0.00127
G1 X112.168 Y108.744 E0.0211
G1 X111.782 Y108.241 E0.02109
G1 X111.753 Y108.212 E0.00136
G1 X111.274 Y107.844 E0.02009
G1 X111.241 Y107.823 E0.0013
G1 X110.649 Y107.577 E0.02132
G0 F5400 X110.451 Y107.552
G0 X110.515 Y107.056
G0 X111.521 Y98.799
G0 X111.586 Y98.302
G1 F2100 X113.644 Y98.771 E0.0702
G1 X115.592 Y99.605 E0.07048
G1 X117.356 Y100.768 E0.07027
G1 X118.885 Y102.23 E0.07036
G1 X120.13 Y103.945 E0.07049
G1 X121.043 Y105.837 E0.06987
G1 X121.053 Y105.867 E0.00105
G1 X121.611 Y107.892 E0.06986
G1 X121.799 Y109.977 E0.06963
G1 X121.796 Y110.041 E0.00213
G1 X121.611 Y112.096 E0.06863
G1 X121.048 Y114.137 E0.07042
G1 X120.134 Y116.039 E0.07019
G1 X118.885 Y117.758 E0.07067
G1 X117.367 Y119.211 E0.06989
G1 X117.325 Y119.241 E0.00172
G1 X115.598 Y120.38 E0.06881
G1 X115.562 Y120.397 E0.00132
G1 X113.65 Y121.214 E0.06916
G1 X113.61 Y121.226 E0.00139
G1 X111.595 Y121.684 E0.06873
G1 X111.554 Y121.688 E0.00137
G1 X109.482 Y121.782 E0.06899
G1 X109.438 Y121.778 E0.00147
G1 X107.388 Y121.501 E0.0688
G1 X107.346 Y121.489 E0.00145
G1 X105.377 Y120.85 E0.06885
G1 X105.338 Y120.832 E0.00143
G1 X103.512 Y119.85 E0.06896
G1 X103.483 Y119.829 E0.00119
G1 X101.859 Y118.534 E0.06909
G1 X101.831 Y118.506 E0.00132
G1 X100.459 Y116.935 E0.06937
G1 X100.444 Y116.913 E0.00089
G1 X99.373 Y115.122 E0.06941
G1 X99.36 Y115.093 E0.00106
G1 X98.632 Y113.154 E0.06889
G1 X98.621 Y113.114 E0.00138
G1 X98.25 Y111.064 E0.06929
G1 X98.247 Y111.029 E0.00117
G1 X98.248 Y108.928 E0.06988
G1 X98.62 Y106.878 E0.0693
G1 X98.631 Y106.837 E0.00141
G1 X99.362 Y104.887 E0.06926
G1 X100.455 Y103.06 E0.07081
